!!!!SEGMENT: pl-kj--bj-muz-10209-iii-1_zarebski-juliusz--divertissement-a-la-polonaise-op-12-no-1.krn
!!!cenid: 18xx:3557
!!!COM: Zarębski, Juliusz
!!!COM-rismID: pe30020631
!!!CDT: 1854/02/28-1885/09/15
!!!CNT:
!!!OTL: Divertissement à la polonaise op. 12 no. 1
!!!PDT: 1883
!!!AGN:
!!!YEC: Copyright 2022 Narodowy Instytut Fryderyka Chopina (https://polishscores.org)
!!!YEM: License CC-BY-4.0 (https://creativecommons.org/licenses/by/4.0)
!!!SMS-siglum: PL-Kj
!!!SMS-shelfmark: BJ Muz. 10209 III 1
!!!SMS-shelfwork: W
!!!SMS-variant:
!!!SMS-altvar:
!!!NIFC-rismSourceID:
!!!NIFC-rismChildID:
!!!NIFC-islandoraID: none
!!!URL-pdf-islandora:
!!!URL-scan: https://polona2.pl/item/divertissement-a-la-polonaise-deux-morceaux-a-quatre-mains-pour-le-pianio-sur-des,Nzk3OTAzNTY/3 @EN{Scan on Polona} @PL{Skany w portalu Polona}
!!!IIIF:
!!!ONB-nifc:
!!!AIN: 2 empty
!!!key: D
**kern	**kern	**dynam	**mod-dynam	**kern	**fing	**kern	**fing	**dynam	**mod-dynam
*part3	*part3	*	*	*part1	*	*part1	*	*	*
*staff4	*staff3	*	*	*staff2	*	*staff1	*	*	*
*Iempty	*Iempty	*	*	*Iempty	*	*Iempty	*	*	*
*I"Piano SECONDO.	*I"Piano SECONDO.	*	*	*I"Piano PRIMO.	*	*I"Piano PRIMO.	*	*	*
*mI"Pianoforte II	*mI"Pianoforte II	*	*	*mI"Pianoforte I	*	*mI"Pianoforte I	*	*	*
*I'pf	*I'pf	*	*	*I'pf	*	*I'pf	*	*	*
*mI'pf 2	*mI'pf 2	*	*	*mI'pf 1	*	*mI'pf 1	*	*	*
*	*ICklav	*	*	*	*	*ICklav	*	*	*
*clefF4	*clefF4	*	*	*clefG2	*	*clefG2	*	*	*
*k[f#c#]	*k[f#c#]	*	*	*k[f#c#]	*	*k[f#c#]	*	*	*
*D:	*D:	*	*	*D:	*	*D:	*	*	*
*M3/8	*M3/8	*	*	*M3/8	*	*M3/8	*	*	*
=1	=1	=1	=1	=1	=1	=1	=1	=1	=1
*	*^	*	*	*	*	*	*	*	*
*tremolo	*	*	*	*	*	*	*	*	*	*
!	!LO:TX:b:i:t=ben cantando	!	!	!	!	!	!	!	!	!
!	!LO:MO:mod=!LO&colon;TX&colon;a&colon;B&colon;t=Andante	!	!	!	!	!	!LO:MO:mod=!LO&colon;TX&colon;a&colon;B&colon;t=Andante	!	!	!
!LO:MO:mod=!null:null	!	!	!	!	!	!	!	!	!	!
!LO:TX:b:i:t=trem.	!LO:TX:a:t=Andante.	!	!	!	!	!	!LO:TX:a:t=Andante.	!	!	!
32DD/LLL	(8A/L	4A\	pp <	pp <	4.r	.	4.r	.	.	.
32AA/	.	.	.	.	.	.	.	.	.	.
32DD/	.	.	.	.	.	.	.	.	.	.
32AA/	.	.	.	.	.	.	.	.	.	.
32DD/	8d/	.	.	.	.	.	.	.	.	.
32AA/	.	.	.	.	.	.	.	.	.	.
32DD/	.	.	.	.	.	.	.	.	.	.
32AA/	.	.	.	.	.	.	.	.	.	.
32DD/	16e/L	8A\	.	.	.	.	.	.	.	.
32AA/	.	.	.	.	.	.	.	.	.	.
32DD/	16f#/JJ	.	[	[	.	.	.	.	.	.
32AA/JJJ	.	.	.	.	.	.	.	.	.	.
=2	=2	=2	=2	=2	=2	=2	=2	=2	=2	=2
32DD/LLL	16g/LL	8c# 8A 8G\	>	>	4.r	.	4.r	.	.	.
32AA/	.	.	.	.	.	.	.	.	.	.
32DD/	16f#/J	.	.	.	.	.	.	.	.	.
32AA/	.	.	.	.	.	.	.	.	.	.
32DD/	8.e/	4A 4G\	.	.	.	.	.	.	.	.
32AA/	.	.	.	.	.	.	.	.	.	.
32DD/	.	.	.	.	.	.	.	.	.	.
32AA/	.	.	.	.	.	.	.	.	.	.
32DD/	.	.	.	.	.	.	.	.	.	.
32AA/	.	.	.	.	.	.	.	.	.	.
32DD/	16c#/Jk)	.	]	]	.	.	.	.	.	.
32AA/JJJ	.	.	.	.	.	.	.	.	.	.
*	*v	*v	*	*	*	*	*	*	*	*
=3	=3	=3	=3	=3	=3	=3	=3	=3	=3
*	*	*	*	*	*	*^	*	*	*
!	!	!	!	!LO:MO:mod=!null:null	!	!	!	!	!	!
!	!	!	!	!LO:TX:a:t=cantando.	!	!LO:TX:t=P:problem=mixed beam	!	!	!	!
!	!	!	!	!	!	!LO:MO:mod=!LO&colon;TX&colon;a&colon;i&colon;t=cantando ed espressivo	!	!	!	!
!	!	!	!	!	!	!null	!	!	!	!
32DD/LLL	4.d 4.F#\	.	.	4.a\	.	(8a</L	8ryyyy	.	p <	p <
32AA/	.	.	.	.	.	.	.	.	.	.
32DD/	.	.	.	.	.	.	.	.	.	.
32AA/	.	.	.	.	.	.	.	.	.	.
!	!	!	!	!	!	!LO:MO:mod=!null:null	!	!	!	!
!	!	!	!	!	!	!LO:TX:a:t=espressivo.	!	!	!	!
32DD/	.	.	.	.	.	8dd\	4ryyyy	.	.	.
32AA/	.	.	.	.	.	.	.	.	.	.
32DD/	.	.	.	.	.	.	.	.	.	.
32AA/	.	.	.	.	.	.	.	.	.	.
32DD/	.	.	.	.	.	16ee\L	.	.	.	.
32AA/	.	.	.	.	.	.	.	.	.	.
32DD/	.	.	.	.	.	16ff#\JJ	.	.	[	[
32AA/JJJ	.	.	.	.	.	.	.	.	.	.
*	*	*	*	*	*	*v	*v	*	*	*
=4	=4	=4	=4	=4	=4	=4	=4	=4	=4
*	*^	*	*	*	*	*	*	*	*
32DD/LLL	4.A/	4.G\	.	.	4.a 4.g/	.	16gg\LL	.	>	>
32AA/	.	.	.	.	.	.	.	.	.	.
32DD/	.	.	.	.	.	.	16ff#\JJ	.	.	.
32AA/	.	.	.	.	.	.	.	.	.	.
32DD/	.	.	.	.	.	.	8.ee\L	.	.	.
32AA/	.	.	.	.	.	.	.	.	.	.
32DD/	.	.	.	.	.	.	.	.	.	.
32AA/	.	.	.	.	.	.	.	.	.	.
32DD/	.	.	.	.	.	.	.	.	.	.
32AA/	.	.	.	.	.	.	.	.	.	.
32DD/	.	.	.	.	.	.	16cc#\Jk)	.	]	]
32AA/JJJ	.	.	.	.	.	.	.	.	.	.
=5	=5	=5	=5	=5	=5	=5	=5	=5	=5	=5
32DD/LLL	(8A/L	8A\L	<	<	4.a/	.	4.dd\	.	.	.
32AA/	.	.	.	.	.	.	.	.	.	.
32DD/	.	.	.	.	.	.	.	.	.	.
32AA/	.	.	.	.	.	.	.	.	.	.
32DD/	8d/	8A\	.	.	.	.	.	.	.	.
32AA/	.	.	.	.	.	.	.	.	.	.
32DD/	.	.	.	.	.	.	.	.	.	.
32AA/	.	.	.	.	.	.	.	.	.	.
32DD/	16e/L	8A\J	.	.	.	.	.	.	.	.
32AA/	.	.	.	.	.	.	.	.	.	.
32DD/	16f#/JJ	.	[	[	.	.	.	.	.	.
32AA/JJJ	.	.	.	.	.	.	.	.	.	.
=6	=6	=6	=6	=6	=6	=6	=6	=6	=6	=6
32DD/LLL	16g/LL	8c# 8A 8G\	>	>	4.a/	.	4.aa\	.	.	.
32AA/	.	.	.	.	.	.	.	.	.	.
32DD/	16f#/J	.	.	.	.	.	.	.	.	.
32AA/	.	.	.	.	.	.	.	.	.	.
32DD/	8.e/	4A 4G\	.	.	.	.	.	.	.	.
32AA/	.	.	.	.	.	.	.	.	.	.
32DD/	.	.	.	.	.	.	.	.	.	.
32AA/	.	.	.	.	.	.	.	.	.	.
32DD/	.	.	.	.	.	.	.	.	.	.
32AA/	.	.	.	.	.	.	.	.	.	.
32DD/	16c#/Jk)	.	]	]	.	.	.	.	.	.
32AA/JJJ	.	.	.	.	.	.	.	.	.	.
!LO:LB:g=original	!	!	!	!	!LO:LB:g=original	!	!	!	!	!
=7	=7	=7	=7	=7	=7	=7	=7	=7	=7	=7
32DD/LLL	(8d/L	8AL 8F#\	.	.	(8aa\L	.	(8aaa\L	.	.	.
32AA/	.	.	.	.	.	.	.	.	.	.
32DD/	.	.	.	.	.	.	.	.	.	.
32AA/	.	.	.	.	.	.	.	.	.	.
32DD/	8f#/	8f#\	.	.	8dd\	.	8ddd\	.	.	.
32AA/	.	.	.	.	.	.	.	.	.	.
32DD/	.	.	.	.	.	.	.	.	.	.
32AA/	.	.	.	.	.	.	.	.	.	.
32DD/	8fn/J	8BJ 8G#X\	.	.	16cc#\L	.	16ccc#\L	.	.	.
32AA/	.	.	.	.	.	.	.	.	.	.
32DD/	.	.	.	.	16b\JJ	.	16bb\JJ	.	.	.
32AA/JJJ	.	.	.	.	.	.	.	.	.	.
=8	=8	=8	=8	=8	=8	=8	=8	=8	=8	=8
32DD/LLL	[8eL 8c#/	4.A 4.Gn\	.	.	16a\LL	.	16aa\LL	.	.	.
32AA/	.	.	.	.	.	.	.	.	.	.
32DD/	.	.	.	.	16b\JJ	.	16bb\JJ	.	.	.
32AA/	.	.	.	.	.	.	.	.	.	.
32DD/	16e/L]	.	.	.	8.cc#\L	.	8.ccc#\L	.	.	.
32AA/	.	.	.	.	.	.	.	.	.	.
32DD/	16g/	.	.	.	.	.	.	.	.	.
32AA/	.	.	.	.	.	.	.	.	.	.
32DD/	16f#/	.	.	.	.	.	.	.	.	.
32AA/	.	.	.	.	.	.	.	.	.	.
32DD/	16e/JJ)	.	.	.	16ee\Jk	.	16eee\Jk	.	.	.
32AA/JJJ	.	.	.	.	.	.	.	.	.	.
=9	=9	=9	=9	=9	=9	=9	=9	=9	=9	=9
32DD/LLL	4.a 4.g 4.c#/	4.A\	.	.	8gg\)	.	8ggg\L)	.	.	.
32AA/	.	.	.	.	.	.	.	.	.	.
32DD/	.	.	.	.	.	.	.	.	.	.
32AA/	.	.	.	.	.	.	.	.	.	.
32DD/	.	.	.	.	8r	.	(8gg\	.	mf	mf
32AA/	.	.	.	.	.	.	.	.	.	.
32DD/	.	.	.	.	.	.	.	.	.	.
32AA/	.	.	.	.	.	.	.	.	.	.
32DD/	.	.	.	.	8r	.	8gg\J	.	.	.
32AA/	.	.	.	.	.	.	.	.	.	.
32DD/	.	.	.	.	.	.	.	.	.	.
32AA/JJJ	.	.	.	.	.	.	.	.	.	.
*	*v	*v	*	*	*	*	*	*	*	*
=10	=10	=10	=10	=10	=10	=10	=10	=10	=10
32DD/LLL	4a 4g 4c# 4A\	.	.	4.r	.	16gg\LL	.	.	.
32AA/	.	.	.	.	.	.	.	.	.
32DD/	.	.	.	.	.	16ff#\JJ	.	.	.
32AA/	.	.	.	.	.	.	.	.	.
32DD/	.	.	.	.	.	8.ee\L	.	.	.
32AA/	.	.	.	.	.	.	.	.	.
32DD/	.	.	.	.	.	.	.	.	.
32AA/	.	.	.	.	.	.	.	.	.
32DD/	8g#X 8fn 8d\	.	.	.	.	.	.	.	.
32AA/	.	.	.	.	.	.	.	.	.
32DD/	.	.	.	.	.	16dd\Jk)	.	.	.
32AA/JJJ	.	.	.	.	.	.	.	.	.
*	*clefG2	*	*	*	*	*	*	*	*
=11	=11	=11	=11	=11	=11	=11	=11	=11	=11
32DD/LLL	8gnL 8c# 8A 8G^/	mf	mf	4.r	.	[4cc#\	.	.	.
32AA/	.	.	.	.	.	.	.	.	.
32DD/	.	.	.	.	.	.	.	.	.
32AA/	.	.	.	.	.	.	.	.	.
32DD/	8g 8c# 8A 8G^/	.	.	.	.	.	.	.	.
32AA/	.	.	.	.	.	.	.	.	.
32DD/	.	.	.	.	.	.	.	.	.
32AA/	.	.	.	.	.	.	.	.	.
32DD/	8gJ 8c# 8A 8G^/	.	.	.	.	16cc#\LL]	.	.	.
32AA/	.	.	.	.	.	.	.	.	.
32DD/	.	.	.	.	.	16b\JJ	.	.	.
32AA/JJJ	.	.	.	.	.	.	.	.	.
=12	=12	=12	=12	=12	=12	=12	=12	=12	=12
32DD/LLL	(16gLL 16c# 16A 16G/	.	.	4.r	.	[8a\L	.	<	<
32AA/	.	.	.	.	.	.	.	.	.
32DD/	16f#/J	.	.	.	.	.	.	.	.
32AA/	.	.	.	.	.	.	.	.	.
32DD/	8.e 8.c# 8.A 8.G/	.	.	.	.	(16a\L]	.	.	.
32AA/	.	.	.	.	.	.	.	.	.
32DD/	.	.	.	.	.	16b\	.	.	.
32AA/	.	.	.	.	.	.	.	.	.
32DD/	.	.	.	.	.	16cc#\	.	.	.
32AA/	.	.	.	.	.	.	.	.	.
32DD/	16d/Jk)	.	.	.	.	16dd\JJ	.	[	[
32AA/JJJ	.	.	.	.	.	.	.	.	.
*	*clefF4	*	*	*	*	*	*	*	*
!	!	!	!	!LO:LB:g=original	!	!	!	!	!
=13	=13	=13	=13	=13	=13	=13	=13	=13	=13
32DD/LLL	8c#L 8A 8G\	.	.	8a 8g/	.	8ee 8cc#\)	.	.	.
32AA/	.	.	.	.	.	.	.	.	.
32DD/	.	.	.	.	.	.	.	.	.
32AA/	.	.	.	.	.	.	.	.	.
32DD/	8.c#\	.	.	4a 4g/	.	4gg 4cc#\	.	.	.
32AA/	.	.	.	.	.	.	.	.	.
32DD/	.	.	.	.	.	.	.	.	.
32AA/	.	.	.	.	.	.	.	.	.
32DD/	.	.	.	.	.	.	.	.	.
32AA/	.	.	.	.	.	.	.	.	.
32DD/	16B\Jk	.	.	.	.	.	.	.	.
32AA/JJJ	.	.	.	.	.	.	.	.	.
!LO:LB:g=original	!	!	!	!	!	!	!	!	!
=14	=14	=14	=14	=14	=14	=14	=14	=14	=14
32DD/LLL	8.c#L 8.A 8.G\	<	<	4.a 4.g/	.	8ggL 8cc#\	.	.	.
32AA/	.	.	.	.	.	.	.	.	.
32DD/	.	.	.	.	.	.	.	.	.
32AA/	.	.	.	.	.	.	.	.	.
32DD/	.	.	.	.	.	(8gg^\	.	.	.
32AA/	.	.	.	.	.	.	.	.	.
32DD/	16B\L	.	.	.	.	.	.	.	.
32AA/	.	.	.	.	.	.	.	.	.
32DD/	16c#\	.	.	.	.	8ff#\J)	.	.	.
32AA/	.	.	.	.	.	.	.	.	.
32DD/	16d\JJ	[	[	.	.	.	.	.	.
32AA/JJJ	.	.	.	.	.	.	.	.	.
*Xtremolo	*	*	*	*	*	*	*	*	*
=15	=15	=15	=15	=15	=15	=15	=15	=15	=15
32DD/LLL	8c# 8A 8G\	.	.	16eeLL 16a [[16g/	.	(16eee\LL	.	>	>
32AA/	.	.	.	.	.	.	.	.	.
32DD/	.	.	.	16cc#/JJ	.	16ccc#\JJ	.	.	.
32AA/JJJ	.	.	.	.	.	.	.	.	.
*tremolo	*	*	*	*	*	*	*	*	*
32DD/LLL	4d 4G\	>]	>]	4dd 4g/]]	.	4ddd\)	.	.	.
32BB/	.	.	.	.	.	.	.	.	.
32DD/	.	.	.	.	.	.	.	.	.
32BB/	.	.	.	.	.	.	.	.	.
32DD/	.	.	.	.	.	.	.	.	.
32BB/	.	.	.	.	.	.	.	.	.
32DD/	.	.	.	.	.	.	.	.	.
32BB/JJJ	.	.	.	.	.	.	.	]	]
!LO:MO:mod=*null:null	!	!	!	!	!	!	!	!	!
*Xtremolo	*	*	*	*	*	*	*	*	*
=16	=16	=16	=16	=16	=16	=16	=16	=16	=16
32CC#/LLL	8f# 8e 8F#\	p	p	(16ee\LL	.	4.r	.	p	p
32AA#X/	.	.	.	.	.	.	.	.	.
32CC#/	.	.	.	16cc#\JJ	.	.	.	.	.
!LO:SIC:o=32AA#/JJJ:v	!	!	!	!	!	!	!	!	!
32AA#X/JJJ	.	.	.	.	.	.	.	.	.
*tremolo	*	*	*	*	*	*	*	*	*
32BBB/LLL	4f# 4e 4F#\	.	.	4dd\)	.	.	.	.	.
32BB/	.	.	.	.	.	.	.	.	.
32BBB/	.	.	.	.	.	.	.	.	.
32BB/	.	.	.	.	.	.	.	.	.
32BBB/	.	.	.	.	.	.	.	.	.
32BB/	.	.	.	.	.	.	.	.	.
32BBB/	.	.	.	.	.	.	.	.	.
32BB/JJJ	.	.	.	.	.	.	.	.	.
=17	=17	=17	=17	=17	=17	=17	=17	=17	=17
32BBB/LLL	4.d 4.G 4.D\	.	.	4.dd 4.g\	.	8gg^\L	.	.	.
32BB/	.	.	.	.	.	.	.	.	.
32BBB/	.	.	.	.	.	.	.	.	.
32BB/	.	.	.	.	.	.	.	.	.
32BBB/	.	.	.	.	.	8gg^\	.	.	.
32BB/	.	.	.	.	.	.	.	.	.
32BBB/	.	.	.	.	.	.	.	.	.
32BB/	.	.	.	.	.	.	.	.	.
32BBB/	.	.	.	.	.	8gg^\J	.	<	.
32BB/	.	.	.	.	.	.	.	.	.
32BBB/	.	.	.	.	.	.	.	.	.
32BB/JJJ	.	.	.	.	.	.	.	.	.
=18	=18	=18	=18	=18	=18	=18	=18	=18	=18
32BBB-X/LLL	4.d 4.G 4.D\	<	<	8g^/L	.	(16ggLL 16dd\	.	.	<
32BB-X/	.	.	.	.	.	.	.	.	.
32BBB-/	.	.	.	.	.	16ff#\J	.	.	.
32BB-/	.	.	.	.	.	.	.	.	.
32BBB-/	.	.	.	8g^/	.	8.ee\	.	.	.
32BB-/	.	.	.	.	.	.	.	.	.
32BBB-/	.	.	.	.	.	.	.	.	.
32BB-/	.	.	.	.	.	.	.	.	.
32BBB-/	.	.	.	8g^/J	.	.	.	.	.
32BB-/	.	.	.	.	.	.	.	.	.
32BBB-/	.	.	.	.	.	16dd\Jk)	.	.	.
32BB-/JJJ	.	.	.	.	.	.	.	.	.
=19	=19	=19	=19	=19	=19	=19	=19	=19	=19
32AAA/LLL	8AL 8G\	.	.	16g/LL	.	([4cc#\	.	.	.
32AA/	.	.	.	.	.	.	.	.	.
32AAA/	.	.	.	16f#/J	.	.	.	.	.
32AA/	.	.	.	.	.	.	.	.	.
32AAA/	8A 8G\	.	.	[8e/	.	.	.	.	.
32AA/	.	.	.	.	.	.	.	.	.
32AAA/	.	.	.	.	.	.	.	.	.
32AA/	.	.	.	.	.	.	.	.	.
32AAA/	8AJ 8G\	.	.	16e/L]	.	16cc#\LL]	.	.	.
32AA/	.	.	.	.	.	.	.	.	.
32AAA/	.	.	.	16d/JJ	.	16b\JJ	.	.	.
32AA/JJJ	.	.	.	.	.	.	.	.	.
!	!	!	!	!LO:LB:g=original	!	!	!	!	!
=20	=20	=20	=20	=20	=20	=20	=20	=20	=20
32GGG/LLL	16ALL 16G\	<	<	[4c#/	.	[8a\L	.	<	<
32GG/	.	.	.	.	.	.	.	.	.
32GGG/	16F#\J	.	.	.	.	.	.	.	.
32GG/	.	.	.	.	.	.	.	.	.
32GGG/	8.E\	.	.	.	.	16a\L]	.	.	.
32GG/	.	.	.	.	.	.	.	.	.
32GGG/	.	.	.	.	.	16b\	.	.	.
32GG/	.	.	.	.	.	.	.	.	.
32GGG/	.	.	.	16c#/LL]	.	16cc#\	.	.	.
32GG/	.	.	.	.	.	.	.	.	.
32GGG/	16BJk 16D\	[	[	16d/JJ	.	16dd\JJ)	.	[	[
32GG/JJJ	.	.	.	.	.	.	.	.	.
!LO:LB:g=original	!	!	!	!	!	!	!	!	!
=21	=21	=21	=21	=21	=21	=21	=21	=21	=21
32FFF#/LLL	8A#XL 8E 8C#\	.	.	8g 8e'/	.	8ee'\	.	.	.
32FF#/	.	.	.	.	.	.	.	.	.
32FFF#/	.	.	.	.	.	.	.	.	.
32FF#/	.	.	.	.	.	.	.	.	.
32FFF#/	8c# 8A# 8E\	.	.	4a#X 4g^>/	.	4gg^\	.	.	.
32FF#/	.	.	.	.	.	.	.	.	.
32FFF#/	.	.	.	.	.	.	.	.	.
32FF#/	.	.	.	.	.	.	.	.	.
32FFF#/	16B\L	.	.	.	.	.	.	.	.
32FF#/	.	.	.	.	.	.	.	.	.
32FFF#/	16A#\JJ	.	.	.	.	.	.	.	.
32FF#/JJJ	.	.	.	.	.	.	.	.	.
=22	=22	=22	=22	=22	=22	=22	=22	=22	=22
32BBB/LLL	8d#XL 8An\	.	.	8g/L	.	(8ggL 8ccn\	.	>	>
32BB/	.	.	.	.	.	.	.	.	.
32BBB/	.	.	.	.	.	.	.	.	.
32BB/	.	.	.	.	.	.	.	.	.
32BBB/	16d#\L	.	.	8g/	.	8gg\	.	.	.
32BB/	.	.	.	.	.	.	.	.	.
32BBB/	16cn\	.	.	.	.	.	.	.	.
32BB/	.	.	.	.	.	.	.	.	.
32BBB/	16d# 16B\	.	.	8f#/J	.	8ff#\J	.	.	.
32BB/	.	.	.	.	.	.	.	.	.
32BBB/	16A\JJ	.	.	.	.	.	.	.	.
32BB/JJJ	.	.	.	.	.	.	.	.	.
=23	=23	=23	=23	=23	=23	=23	=23	=23	=23
32BBB/LLL	16eLL 16d 16G#X\	>	>	8g#X/	.	16ee\LL	.	.	.
32BB/	.	.	.	.	.	.	.	.	.
32BBB/	16c#X\JJ	.	.	.	.	16cc#X\JJ	.	.	.
32BB/	.	.	.	.	.	.	.	.	.
32BBB/	4e 4d 4G#\	]]	]]	4g#/	.	4dd\)	.	]	]
32BB/	.	.	.	.	.	.	.	.	.
32BBB/	.	.	.	.	.	.	.	.	.
32BB/	.	.	.	.	.	.	.	.	.
32BBB/	.	.	.	.	.	.	.	.	.
32BB/	.	.	.	.	.	.	.	.	.
32BBB/	.	.	.	.	.	.	.	.	.
32BB/JJJ	.	.	.	.	.	.	.	.	.
=24	=24	=24	=24	=24	=24	=24	=24	=24	=24
32BBB-X/LLL	16eLL 16d 16G#X\	.	p	(16eeLL 16g#X\	.	(16eeeLL 16gg#X\	.	p	p
32BB-X/	.	.	.	.	.	.	.	.	.
32BBB-/	16c#\JJ	.	.	16cc#\JJ	.	16ccc#\JJ	.	.	.
32BB-/	.	.	.	.	.	.	.	.	.
32BBB-/	4e 4d 4G#\	.	.	4dd 4g#\)	.	4ddd 4gg#\)	.	.	.
32BB-/	.	.	.	.	.	.	.	.	.
32BBB-/	.	.	.	.	.	.	.	.	.
32BB-/	.	.	.	.	.	.	.	.	.
32BBB-/	.	.	.	.	.	.	.	.	.
32BB-/	.	.	.	.	.	.	.	.	.
32BBB-/	.	.	.	.	.	.	.	.	.
32BB-/JJJ	.	.	.	.	.	.	.	.	.
=25	=25	=25	=25	=25	=25	=25	=25	=25	=25
32AAA/LLL	(4f# 4d 4A\	p	.	(8ff#L 8a\	.	(8aaaL 8aa\	.	.	.
32AA/	.	.	.	.	.	.	.	.	.
32AAA/	.	.	.	.	.	.	.	.	.
32AA/	.	.	.	.	.	.	.	.	.
32AAA/	.	.	.	8dd\	.	8ddd\	.	.	.
32AA/	.	.	.	.	.	.	.	.	.
32AAA/	.	.	.	.	.	.	.	.	.
32AA/	.	.	.	.	.	.	.	.	.
32AAA/	8fn 8B 8G#X\	.	.	16cc#\L	.	16ccc#\L	.	.	.
32AA/	.	.	.	.	.	.	.	.	.
32AAA/	.	.	.	16b\JJ	.	16bb\JJ	.	.	.
32AA/JJJ	.	.	.	.	.	.	.	.	.
=26	=26	=26	=26	=26	=26	=26	=26	=26	=26
32AAA/LLL	[8eL [8c# [8A [8G\	.	.	16a\LL	.	16aa\LL	.	.	.
32AA/	.	.	.	.	.	.	.	.	.
32AAA/	.	.	.	16b\J	.	16bb\J	.	.	.
32AA/	.	.	.	.	.	.	.	.	.
32AAA/	16e]L 16c#] 16A] 16G\]	.	.	8.cc#\	.	8.ccc#\	.	.	.
32AA/	.	.	.	.	.	.	.	.	.
32AAA/	16g\	.	.	.	.	.	.	.	.
32AA/	.	.	.	.	.	.	.	.	.
32AAA/	16f#\	.	.	.	.	.	.	.	.
32AA/	.	.	.	.	.	.	.	.	.
32AAA/	16e\JJ)	.	.	16ee\Jk)	.	16eee\Jk)	.	.	.
32AA/JJJ	.	.	.	.	.	.	.	.	.
!	!	!	!	!LO:LB:g=original	!	!	!	!	!
=27	=27	=27	=27	=27	=27	=27	=27	=27	=27
32DD/LLL	4g 4d 4B\	.	.	(16ggLL 16dd\	.	(16gggLL 16ddd\	.	.	.
32D/	.	.	.	.	.	.	.	.	.
32DD/	.	.	.	16ff#\J	.	16fff#\J	.	.	.
32D/	.	.	.	.	.	.	.	.	.
32DD/	.	.	.	8ee\	.	8eee\	.	.	.
32D/	.	.	.	.	.	.	.	.	.
32DD/	.	.	.	.	.	.	.	.	.
32D/	.	.	.	.	.	.	.	.	.
32DD/	[8g [8d [8B-X\	.	.	16ggL 16dd\	.	16gggL 16ddd\	.	.	.
32D/	.	.	.	.	.	.	.	.	.
32DD/	.	.	.	16ee\JJ	.	16fff#\JJ	.	.	.
32D/JJJ	.	.	.	.	.	.	.	.	.
!LO:LB:g=original	!	!	!	!	!	!	!	!	!
=28	=28	=28	=28	=28	=28	=28	=28	=28	=28
32DD/LLL	16g]LL 16d] 16B-\]	.	.	16ee\LL	.	16eee\LL	.	.	.
32D/	.	.	.	.	.	.	.	.	.
32DD/	16a\JJ	.	.	16cc#\JJ	.	16ccc#\JJ	.	.	.
32D/	.	.	.	.	.	.	.	.	.
32DD/	[4g [4d [4B-X\	.	.	4dd 4b-X\)	.	4ddd 4bb-X\)	.	.	.
32D/	.	.	.	.	.	.	.	.	.
32DD/	.	.	.	.	.	.	.	.	.
32D/	.	.	.	.	.	.	.	.	.
32DD/	.	.	.	.	.	.	.	.	.
32D/	.	.	.	.	.	.	.	.	.
32DD/	.	.	.	.	.	.	.	.	.
32D/JJJ	.	.	.	.	.	.	.	.	.
*Xtremolo	*	*	*	*	*	*	*	*	*
=29	=29	=29	=29	=29	=29	=29	=29	=29	=29
32DD/LLL	8g] 8d] 8B-\]	>	>	(16ee\LL	.	(16eee\LL	.	>	>
32D/	.	.	.	.	.	.	.	.	.
32DD/	.	.	.	16cc#\JJ	.	16ccc#\JJ	.	.	.
32D/JJJ	.	.	.	.	.	.	.	.	.
*tremolo	*	*	*	*	*	*	*	*	*
32GGG/LLL	[4g [4d [4Bn\	.	.	4dd 4bn\)	.	4ddd 4bbn\)	.	.	.
32GG/	.	.	.	.	.	.	.	.	.
32GGG/	.	.	.	.	.	.	.	.	.
32GG/	.	.	.	.	.	.	.	.	.
32GGG/	.	.	.	.	.	.	.	.	.
32GG/	.	.	.	.	.	.	.	.	.
32GGG/	.	.	.	.	.	.	.	.	.
32GG/JJJ	.	.	.	.	.	.	.	.	.
*Xtremolo	*	*	*	*	*	*	*	*	*
=30	=30	=30	=30	=30	=30	=30	=30	=30	=30
32GGG/LLL	8g] 8d] 8B\]	pp	pp	(16ee\LL	.	(16eee\LL	.	pp	pp
32GG/	.	.	.	.	.	.	.	.	.
32GGG/	.	.	.	16cc#\JJ	.	16ccc#\JJ	.	.	.
32GG/JJJ	.	.	.	.	.	.	.	.	.
*tremolo	*	*	*	*	*	*	*	*	*
*ped	*	*	*	*ped	*	*	*	*	*
32DDD/LLL	[4f# [4d [4F#\	.	.	[4aa [4dd\)	.	[4aaa [4ddd\)	.	.	.
32DD/	.	.	.	.	.	.	.	.	.
32DDD/	.	.	.	.	.	.	.	.	.
32DD/	.	.	.	.	.	.	.	.	.
32DDD/	.	.	.	.	.	.	.	.	.
32DD/	.	.	.	.	.	.	.	.	.
32DDD/	.	.	.	.	.	.	.	.	.
32DD/JJJ	.	.	.	.	.	.	.	.	.
=31	=31	=31	=31	=31	=31	=31	=31	=31	=31
32DDD/LLL	4.f#_ 4.d_ 4.F#\_	.	.	4.aa_ 4.dd\_	.	4.aaa_ 4.ddd\_	.	.	.
32DD/	.	.	.	.	.	.	.	.	.
32DDD/	.	.	.	.	.	.	.	.	.
32DD/	.	.	.	.	.	.	.	.	.
32DDD/	.	.	.	.	.	.	.	.	.
32DD/	.	.	.	.	.	.	.	.	.
32DDD/	.	.	.	.	.	.	.	.	.
32DD/	.	.	.	.	.	.	.	.	.
32DDD/	.	.	.	.	.	.	.	.	.
32DD/	.	.	.	.	.	.	.	.	.
32DDD/	.	.	.	.	.	.	.	.	.
32DD/JJJ	.	.	.	.	.	.	.	.	.
*Xtremolo	*	*	*	*	*	*	*	*	*
=32	=32	=32	=32	=32	=32	=32	=32	=32	=32
8DDD/L	4.f#_ 4.d_ 4.F#\_	.	.	4.aa_ 4.dd\_	.	4.aaa_ 4.ddd\_	.	.	.
8DD/	.	.	.	.	.	.	.	.	.
8AA/J	.	.	.	.	.	.	.	.	.
=33	=33	=33	=33	=33	=33	=33	=33	=33	=33
8D\L	4f#] 4d] 4F#\]	.	.	4.aa] 4.dd;\]	.	4.aaa] 4.ddd;\]	.	.	.
8F#\	.	.	.	.	.	.	.	.	.
8A;\J	8r;	.	.	.	.	.	.	.	.
*Xped	*	*	*	*Xped	*	*	*	*	*
!LO:PB:g=original	!	!	!	!LO:PB:g=original	!	!	!	!	!
!!LO:MO:mod
!! *kcancel	*kcancel	*	*	*kcancel	*	*kcancel	*	*	*
!!LO:MO:end
=34||	=34||	=34||	=34||	=34||	=34||	=34||	=34||	=34||	=34||
*k[b-]	*k[b-]	*	*	*k[b-]	*	*k[b-]	*	*	*
!	!	!	!	!	!	!	!LO:MO:mod=*above	!	!
*	*	*	*	*	*	*8va	*below	*	*
!	!LO:MO:mod=!LO&colon;TX&colon;b&colon;i&colon;t=marcato	!	!	!	!	!	!	!	!
!	!LO:TX:b:i:t=ma marcato.	!	!	!	!	!	!	!	!
!	!LO:MO:mod=!LO&colon;TX&colon;a&colon;B&colon;t=Allegro molto	!	!	!	!	!	!	!	!
!	!LO:TX:a:t=Allegro molto.	!	!	!	!	!LO:TUP:a:problem=klamra łukowa i cyfra global	!	!	!
!	!	!	!	!	!	!LO:MO:mod=!LO&colon;TX&colon;a&colon;B&colon;t=Allegro molto	!	!	!
!	!	!	!	!	!	!null	!	!	!
16DLL 16DD'/	(16dLL 16A\	p	p	8r	.	24aaa\LL	3	p	p
.	.	.	.	.	.	24bbb-\	4	.	.
16EJ 16EE'/	16e\J)	.	.	.	.	.	.	.	.
.	.	.	.	.	.	24aaa\JJ	3	.	.
!	!	!	!	!	!	!LO:TUP:a	!	!	!
!	!	!	!	!LO:MO:mod=!LO&colon;TX&colon;i&colon;a&colon;t=marcato	!	!	!	!	!
!	!	!	!	!null	!	!	!	!	!
8F 8FF'/	8f'\	.	.	8dddL 8aa'\	.	24fff\LL	2	.	.
.	.	.	.	.	.	24aaa\	3	.	.
.	.	.	.	.	.	24fff\JJ	2	.	.
!	!	!	!	!	!	!LO:TUP:a	!	!	!
8FJ 8FF'/	8f'\J	.	.	8aaJ 8ff'\	.	24ddd\LL	1	.	.
.	.	.	.	.	.	24fff\	2	.	.
.	.	.	.	.	.	24ddd\JJ	1	.	.
*	*	*	*	*	*	*X8va	*	*	*
=35	=35	=35	=35	=35	=35	=35	=35	=35	=35
!	!	!	!	!	!	!LO:TUP:a	!	!	!
16GLL 16GG'/	(16gLL 16A\	.	.	8r	.	24aa\LL	3	.	.
.	.	.	.	.	.	24bb-\	.	.	.
16FJ 16FF'/	16f\J)	.	.	.	.	.	.	.	.
.	.	.	.	.	.	24aa\JJ	.	.	.
!	!	!	!	!	!	!LO:TUP:a	!	!	!
8E 8EE'/	8e'\	.	.	8ddL 8a'/	.	24ff\LL	.	.	.
.	.	.	.	.	.	24aa\	.	.	.
.	.	.	.	.	.	24ff\JJ	.	.	.
!	!	!	!	!	!	!LO:TUP:a	!	!	!
8DJ 8DD'/	8d'\J	.	.	8aJ 8f'/	.	24dd\LL	.	.	.
.	.	.	.	.	.	24ff\	.	.	.
.	.	.	.	.	.	24dd\JJ	.	.	.
=36	=36	=36	=36	=36	=36	=36	=36	=36	=36
!	!	!	!	!	!	!LO:TX:t=P:problem=mixed beam	!	!	!
!	!	!	!	!	!	!LO:TUP:a	!	!	!
!LO:SIC:o=4.AA 4.DD/:v	!	!	!	!	!	!	!	!	!
4.AA 4.DD/^	(4e 4c#X 4A 4G^\	.	.	16ryy	.	(24a<'/LL	.	.	.
.	.	.	.	.	.	24bn\	.	.	.
.	.	.	.	16r	.	.	.	.	.
.	.	.	.	.	.	24cc#X\JJ	.	.	.
!	!	!	!	!	!	!LO:TUP:a	!	!	!
.	.	.	.	8r	.	24dd\LL	.	.	.
.	.	.	.	.	.	24ee\	.	.	.
.	.	.	.	.	.	24dd\JJ	.	.	.
!	!	!	!	!	!	!LO:TUP:a	!	!	!
.	8A'\)	.	.	16a'/	.	24cc#\LL	.	<	<
.	.	.	.	.	.	24b\	.	.	.
.	.	.	.	16r	.	.	.	.	.
.	.	.	.	.	.	24a\JJ	.	.	.
=37	=37	=37	=37	=37	=37	=37	=37	=37	=37
!	!	!	!	!	!	!LO:TUP:a	!	!	!
(4E 4DD^>/	(4e 4c#X 4A 4G^\	.	.	8r	.	24bn\LL	.	.	.
.	.	.	.	.	.	24cc#X\	.	.	.
.	.	.	.	.	.	24dd\JJ	.	.	.
!	!	!	!	!	!	!LO:TUP:a	!	!	!
.	.	.	.	8r	.	24ee\LL	.	.	.
.	.	.	.	.	.	24ff\	.	.	.
.	.	.	.	.	.	24gg\JJ)	.	[	[
8AA'/)	8A'\)	.	.	8a'/	.	8aa'\	.	sf	sf
=38	=38	=38	=38	=38	=38	=38	=38	=38	=38
*	*	*	*	*	*	*8va	*	*	*
!	!	!	!	!	!	!LO:TUP:a	!	!	!
16DLL 16DD'/	(16dLL 16A\	.	.	8r	.	24aaa\LL	.	.	.
.	.	.	.	.	.	24bbb-\	.	.	.
16EJ 16EE'/	16e\J)	.	.	.	.	.	.	.	.
.	.	.	.	.	.	24aaa\JJ	.	.	.
!	!	!	!	!	!	!LO:TUP:a	!	!	!
8F 8FF'/	8f'\	.	.	8dddL 8aa'\	.	24fff\LL	.	.	.
.	.	.	.	.	.	24aaa\	.	.	.
.	.	.	.	.	.	24fff\JJ	.	.	.
!	!	!	!	!	!	!LO:TUP:a	!	!	!
8FJ 8FF'/	8f'\J	.	.	8aaJ 8ff'\	.	24ddd\LL	.	.	.
.	.	.	.	.	.	24fff\	.	.	.
.	.	.	.	.	.	24ddd\JJ	.	.	.
*	*	*	*	*	*	*X8va	*	*	*
!	!	!	!	!LO:LB:g=original	!	!	!	!	!
=39	=39	=39	=39	=39	=39	=39	=39	=39	=39
*^	*	*	*	*	*	*	*	*	*
!	!	!	!	!	!	!	!LO:TUP:a	!	!	!
4.AAtt/	4.DD\	(16gLL 16A\	.	.	8r	.	(24aa\LL	.	.	.
.	.	.	.	.	.	.	24bb-\	.	.	.
.	.	16f\	.	.	.	.	.	.	.	.
.	.	.	.	.	.	.	24aa\JJ)	.	.	.
.	.	16e\	.	.	(24a/LL	.	8r	.	.	.
.	.	.	.	.	24b-/	.	.	.	.	.
.	.	16d\	.	.	.	.	.	.	.	.
.	.	.	.	.	24a/JJ)	.	.	.	.	.
!	!	!	!	!	!	!	!LO:TUP:a	!	!	!
.	.	16c#X 16A 16G\	.	.	8r	.	(24dd\LL	.	.	.
.	.	.	.	.	.	.	24ff\	.	.	.
.	.	16e\JJ)	.	.	.	.	.	.	.	.
.	.	.	.	.	.	.	24dd\JJ)	.	.	.
*v	*v	*	*	*	*	*	*	*	*	*
!LO:LB:g=original	!	!	!	!	!	!	!	!	!
=40	=40	=40	=40	=40	=40	=40	=40	=40	=40
!	!	!	!	!	!	!LO:TUP:a	!	!	!
!LO:SIC:o=(4D 4GG/:v	!	!	!	!	!	!	!	!	!
(4D 4GG/^	(4d 4B- 4G^\	.	.	8r	.	(24dd\LL	.	.	.
.	.	.	.	.	.	24ee\	.	.	.
.	.	.	.	.	.	24ff\JJ	.	.	.
!	!	!	!	!LO:TUP:b	!	!LO:TUP:a	!	!	!
.	.	.	.	(24g/LL	.	24gg\LL	.	.	.
.	.	.	.	24a/	.	24aa\	.	.	.
.	.	.	.	24g/JJ	.	24gg\JJ	.	.	.
!	!	!	!	!LO:TUP:b	!	!LO:TUP:a	!	!	!
8D 8DD'/)	8B- 8F'\)	.	.	24f/LL	.	24ff\LL	.	.	.
.	.	.	.	24e/	.	24ee\	.	.	.
.	.	.	.	24d/JJ	.	24dd\JJ	.	<	<
=41	=41	=41	=41	=41	=41	=41	=41	=41	=41
!	!	!	!	!LO:TUP:b	!	!LO:TUP:a	!	!	!
(4GG 4GGG^>/	(4B- 4G 4D^\	.	.	24e/LL	.	24ee\LL	.	.	.
.	.	.	.	24f/	.	24ff\	.	.	.
.	.	.	.	24g/JJ	.	24gg\JJ	.	.	.
!	!	!	!	!LO:TUP:b	!	!LO:TUP:a	!	!	!
.	.	.	.	24a/LL	.	24aa\LL	.	.	.
.	.	.	.	24b-/	.	24bb-\	.	.	.
.	.	.	.	24cc#X/JJ)	.	24ccc#X\JJ)	.	[	[
!	!	!	!	!	!	!	!	!LO:DY:a	!LO:DY:a
8DD 8DDD'/)	8A 8F 8D'\)	.	sf	8dd'\	.	8ddd'\	.	sf	sf
=42	=42	=42	=42	=42	=42	=42	=42	=42	=42
*	*	*	*	*	*	*8va	*	*	*
.	.	.	.	.	.	(8qbbb- 8qddd N8qbb-/	.	.	.
16DLL 16DD/	16dLL 16A\	f	f	8aaL 8dd 8a'\N)	.	8ryy	.	f	f
16EJ 16EE/	16eJ 16A\	.	.	.	.	.	.	.	.
.	.	.	.	.	.	(8qbbb- 8qddd N8qbb-/	.	.	.
8F 8FF'/	8f 8A'\	.	.	8aa 8dd 8a'\N)	.	8ryy	.	.	.
.	.	.	.	.	.	(8qbbb- 8qddd N8qbb-/	.	.	.
8FJ 8FF'/	8fJ 8A'\	.	.	8aaJ 8dd 8a'\N)	.	8ryy	.	.	.
=43	=43	=43	=43	=43	=43	=43	=43	=43	=43
.	.	.	.	.	.	(8qbbb- 8qddd N8qbb-/	.	.	.
16GLL 16GG/	16gLL 16A\	.	.	8aaL 8dd 8a'\N)	.	8ryy	.	.	.
16FJ 16FF/	16fJ 16A\	.	.	.	.	.	.	.	.
.	.	.	.	.	.	(8qbbb- 8qddd N8qbb-/	.	.	.
8E 8EE'/	8e 8A'\	.	.	8aa 8dd 8a'\N)	.	8ryy	.	.	.
.	.	.	.	.	.	(8qbbb- 8qddd N8qbb-/	.	.	.
8DJ 8DD'/	8dJ 8A'\	.	.	8aaJ 8dd 8a'\N)	.	8ryy	.	.	.
*	*	*	*	*	*	*X8va	*	*	*
=44	=44	=44	=44	=44	=44	=44	=44	=44	=44
!	!	!	!	!LO:TUP:a	!	!LO:TUP:a	!	!	!
(4E 4EE^>/	(4e 4c#X 4A 4G^\	.	.	(24aa^\LL	.	(24aaa^\LL	.	.	.
.	.	.	.	24gg\	.	24ggg\	.	.	.
.	.	.	.	24ff\JJ	.	24fff\JJ	.	.	.
.	.	.	.	32ee\LLL	.	32eee\LLL	.	.	.
.	.	.	.	32dd\	.	32ddd\	.	.	.
.	.	.	.	32cc#X\	.	32ccc#X\	.	.	.
.	.	.	.	32b-\JJJ)	.	32bb-\JJJ)	.	.	.
*	*	*	*	*	*	*	*	*^	*^
!	!	!	!	!	!	!	!	!LO:DY:b=2	!	!LO:DY:b=2	!
8AA'/)	8A'\)	.	sf	8a'/	.	8aa'\	.	sf	sf	.	sf
*	*	*	*	*	*	*	*	*v	*v	*	*
*	*	*	*	*	*	*	*	*	*v	*v
!	!	!	!	!LO:LB:g=original	!	!	!	!	!
=45	=45	=45	=45	=45	=45	=45	=45	=45	=45
!	!	!	!	!LO:TUP:a	!	!LO:TUP:a	!	!	!
(4E 4DD^>/	(4e 4c#X 4A 4G^\	.	.	(24a^\LL	.	(24aa^\LL	.	.	.
.	.	.	.	24b-\	.	24bb-\	.	.	.
.	.	.	.	24cc#X\JJ	.	24ccc#X\JJ	.	.	.
.	.	.	.	32dd\LLL	.	32ddd\LLL	.	.	.
.	.	.	.	32ee\	.	32eee\	.	.	.
.	.	.	.	32ff\	.	32fff\	.	.	.
.	.	.	.	32gg\JJJ)	.	32ggg\JJJ)	.	.	.
*	*	*	*	*	*	*	*	*^	*^
!	!	!	!	!	!	!	!	!LO:DY:b=2	!	!LO:DY:b=2	!
8AA 8AAA'/)	8A'\)	.	sf	8aa'\	.	8aaa'\	.	sf	sf	.	sf
*	*	*	*	*	*	*	*	*v	*v	*	*
*	*	*	*	*	*	*	*	*	*v	*v
=46	=46	=46	=46	=46	=46	=46	=46	=46	=46
*	*	*	*	*	*	*8va	*	*	*
.	.	.	.	.	.	(8qbbb- 8qddd N8qbb-/	.	.	.
16DLL 16DD/	16dLL 16A\	.	.	8aaL 8dd 8a'\N)	.	8ryy	.	.	.
16EJ 16EE/	16eJ 16A\	.	.	.	.	.	.	.	.
.	.	.	.	.	.	(8qbbb- 8qddd N8qbb-/	.	.	.
8F 8FF'/	8f 8A'\	.	.	8aa 8dd 8a'\N)	.	8ryy	.	.	.
.	.	.	.	.	.	(8qbbb- 8qddd N8qbb-/	.	.	.
8FJ 8FF'/	8fJ 8A'\	.	.	8aaJ 8dd 8a'\N)	.	8ryy	.	.	.
!LO:LB:g=original	!	!	!	!	!	!	!	!	!
=47	=47	=47	=47	=47	=47	=47	=47	=47	=47
.	.	.	.	.	.	(8qbbb- 8qeee N8qbb-/	.	.	.
(16GLL 16AA^/	(16gLL 16A^\	.	.	8aaL 8ee 8a'\N)	.	8ryy	.	.	.
16F/	16f\	.	.	.	.	.	.	.	.
.	.	.	.	.	.	(8qbbb- 8qeee N8qbb-/	.	.	.
16E/	16e\	.	.	8aa 8ee 8a'\N)	.	8ryy	.	.	.
16D/	16d\	.	.	.	.	.	.	.	.
.	.	.	.	.	.	(8qbbb- 8qeee N8qbb-/	.	.	.
16C#X/	16c#X\	.	.	8aaJ 8ee 8a'\N)	.	8ryy	.	.	.
16E/JJ)	16e\JJ)	.	.	.	.	.	.	.	.
=48	=48	=48	=48	=48	=48	=48	=48	=48	=48
(4D^>/	(4f 4A^<\	.	.	(24aa^\LL	.	(24aaa^\LL	.	.	.
.	.	.	.	24gg\	.	24ggg\	.	.	.
.	.	.	.	24ff\JJ	.	24fff\JJ	.	.	.
.	.	.	.	24ee\LL	.	24eee\LL	.	.	.
.	.	.	.	24dd\	.	24ddd\	.	.	.
.	.	.	.	24cc#X\JJ)	.	24ccc#X\JJ)	.	.	.
8D 8DD'/)	8d 8A 8F'\)	.	sf	8dd'\	.	8ddd'\	.	sf	sf
=49	=49	=49	=49	=49	=49	=49	=49	=49	=49
!	!	!	!	!LO:TUP:a	!	!LO:TUP:a	!	!	!
4GG 4GGG^>/	4d 4B- 4G 4D^\	.	.	24dd\LL	.	24ddd\LL	.	<	<
.	.	.	.	24ee\	.	24eee\	.	.	.
.	.	.	.	24ff\JJ	.	24fff\JJ	.	.	.
.	.	.	.	32gg\LLL	.	32ggg\LLL	.	.	.
.	.	.	.	32aa\	.	32aaa\	.	.	.
.	.	.	.	32bb-\	.	32bbb-\	.	.	.
.	.	.	.	32ccc#X\JJJ	.	32cccc#X\JJJ	.	[	[
!	!	!	!	!	!	!LO:TX:t=P:problem=fermata na kresce taktowej	!	!	!
!LO:TX:t=P:problem=fermata na dole	!	!	!	!	!	!	!	!	!
8DD 8DDD'/	8d 8B- 8G 8D'\	.	sf	8ddd'\	.	8dddd'\	.	sf	sf
*	*	*	*	*	*	*X8va	*	*	*
!	!	!	!	!LO:LB:g=original	!	!	!	!	!
=50||;	=50||;	=50||	=50||	=50||	=50||;	=50||	=50||;	=50||	=50||
!	!LO:MO:mod=!LO&colon;TX&colon;a&colon;i&colon;t=scherzando	!	!	!	!	!	!	!	!
!	!null	!	!	!	!	!	!	!	!
!	!	!	!	!	!	!LO:MO:mod=!LO&colon;TX&colon;a&colon;i&colon;t=scherzando	!	!	!
!	!	!	!	!	!	!LO:TX:b:t=scherzando.	!	!	!
8BB- 8BBB-'/	8r	p	p	(16f\LL	.	(16dd\LL	.	p	p
.	.	.	.	16b-\J	.	16ee\J	.	.	.
8r	8dL 8B- 8F'\	.	.	8dd'\)	.	8ff'\)	.	.	.
8r	8fJ 8d 8B-'\	.	.	8dd'\J	.	8ff'\J	.	.	.
=51	=51	=51	=51	=51	=51	=51	=51	=51	=51
8BB- 8BBB-'/	8r	.	.	(16ee\LL	.	(16gg\LL	.	.	.
.	.	.	.	16dd\	.	16ff\	.	.	.
8r	8c#XL 8B- 8G'\	.	.	16cc#X\	.	16ee\	.	.	.
.	.	.	.	16b-\J	.	16dd\	.	.	.
8r	8eJ 8c# 8B-'\	.	.	8g'\J)	.	16cc#X\	.	.	.
.	.	.	.	.	.	16ee\JJ)	.	.	.
=52	=52	=52	=52	=52	=52	=52	=52	=52	=52
8BB- 8BBB-'/	8r	.	.	(16f\LL	.	(16dd\LL	.	.	.
.	.	.	.	16b-\J	.	16ee\J	.	.	.
8r	8dL 8B- 8F'\	.	.	8dd'\)	.	8ff'\)	.	.	.
8r	8fJ 8d 8B-'\	.	.	8dd'\J	.	8ff'\J	.	.	.
=53	=53	=53	=53	=53	=53	=53	=53	=53	=53
8BBnL 8BBBn'/	8r	.	.	8dd'/L	.	(16gg\LL	.	.	.
.	.	.	.	.	.	16ff\	.	.	.
8r	8dL 8G 8F'\	.	.	(16g/L	.	16ee\	.	.	.
.	.	.	.	16f/J	.	16dd\	.	.	.
8CJ 8CC'/	8cJ 8B-X 8E'\	.	.	8e'/J)	.	16ccn\	.	.	.
.	.	.	.	.	.	16ee\JJ)	.	.	.
!LO:LB:g=original	!	!	!	!	!	!	!	!	!
=54	=54	=54	=54	=54	=54	=54	=54	=54	=54
8FF 8FFF'/	8r	.	<	8aL 8f'/	.	(16ff\LL	.	<	<
.	.	.	.	.	.	16gg\J	.	.	.
8r	8cL 8A 8F'\	.	.	8cc 8a'/	.	8aa 8ff'\)	.	.	.
8r	8fJ 8c 8A'\	.	.	8ccJ 8a'/	.	8aaJ 8ff'\	.	.	.
=55	=55	=55	=55	=55	=55	=55	=55	=55	=55
8FF 8FFF'/	8r	.	.	(16cc#XLL 16b-\	.	(16bb-\LL	.	.	.
.	.	.	.	16ccn\	.	16aa\	.	.	.
8r	8c#XL 8B- 8G'\	.	.	16b-\	.	16gg\	.	.	.
.	.	.	.	16a\	.	16ff\	.	.	.
8r	8eJ 8c# 8B-'\	.	.	16g\	.	16ee\	.	.	.
.	.	.	.	16b-\JJ)	.	16gg\JJ)	.	.	.
=56	=56	=56	=56	=56	=56	=56	=56	=56	=56
8FF 8FFF'/	8r	.	.	8a'\L	.	(16ff\LL	.	.	.
.	.	.	.	.	.	16gg\J	.	.	.
8r	8cnL 8A 8F'\	.	.	8cc 8a'\	.	8aa 8ff'\)	.	.	.
8r	8fJ 8c 8A'\	.	.	8ccJ 8a'\	.	8aaJ 8ff'\	.	.	.
=57	=57	=57	=57	=57	=57	=57	=57	=57	=57
8GG 8GGG'/	8r	.	.	8b-L 8g'\	.	(16bb-\LL	.	.	.
.	.	.	.	.	.	16ddd\	.	.	.
8r	8dL 8B- 8G'\	.	.	(16dd\L	.	16bb-\	.	.	.
.	.	.	.	16cc\	.	16aa\	.	.	.
8r	8gJ 8d 8B-'\	.	.	16b-\	.	16gg\	.	.	.
.	.	.	.	16dd\JJ)	.	16ff\JJ)	.	.	.
!	!	!	!	!LO:LB:g=original	!	!	!	!	!
=58	=58	=58	=58	=58	=58	=58	=58	=58	=58
8AA 8AAA'/	8r	.	.	4cc#X 4a\	.	(4ee\	.	.	.
8r	(16c#XLL 16A 16E^\	.	.	.	.	.	.	.	.
.	16e\	.	.	.	.	.	.	.	.
8r	16c# 16A 16E\	.	.	8cc# 8a'\	.	8aa'\)	.	.	.
.	16Bn\JJ	.	.	.	.	.	.	.	.
=59	=59	=59	=59	=59	=59	=59	=59	=59	=59
8FF#X 8FFF#X'/	8A'\L)	.	.	4ccn 4a\	.	(4ee\	.	.	.
8r	(16cL 16A 16E^\	.	.	.	.	.	.	.	.
.	16e\	.	.	.	.	.	.	.	.
8r	16c 16A 16E\	.	.	8cc 8a'\	.	8aa'\)	.	.	.
.	16Bn\JJ	.	.	.	.	.	.	.	.
=60	=60	=60	=60	=60	=60	=60	=60	=60	=60
8GG 8GGG'/	8B-X'\L)	.	.	(16f\LL	.	(16dd\LL	.	.	.
.	.	.	.	16b-\J	.	16ee\J	.	.	.
8r	8d 8B- 8F'\	.	.	8dd'\)	.	8ff'\)	.	.	.
8r	8fJ 8d 8B-'\	.	.	8dd'\J	.	8ff'\J	.	.	.
!LO:LB:g=original	!	!	!	!	!	!	!	!	!
=61	=61	=61	=61	=61	=61	=61	=61	=61	=61
8GG 8GGG'/	8r	.	>	(16ee-X\LL	.	(16gg\LL	.	>	>
.	.	.	.	16dd\J	.	16ff\	.	.	.
8r	8e-XL 8B- 8G'\	.	.	8b-'\)	.	16ee-X\	.	.	.
.	.	.	.	.	.	16dd\	.	.	.
8r	8enJ 8c#X 8B- 8G'\	.	.	8g'\J	.	16cc#X\	.	.	.
.	.	.	.	.	.	16een\JJ)	.	.	.
=62	=62	=62	=62	=62	=62	=62	=62	=62	=62
8GG#X 8GGG#X'/	8r	.	.	(16f\LL	.	(16dd\LL	.	.	.
.	.	.	.	16b-\J	.	16ee\J	.	.	.
8r	8dL 8B- 8F'\	.	.	8dd'\)	.	8ff'\)	.	.	.
8r	8fJ 8d 8B-'\	.	.	8ddJ [8b-^\	.	8ff^\J	.	.	.
=63	=63	=63	=63	=63	=63	=63	=63	=63	=63
8AA 8AAA'/	8r	.	.	8b-\L]	.	(16ee\LL	.	.	.
.	.	.	.	.	.	16dd\	.	.	.
8r	8c#XL 8A 8G'\	.	.	16a\Jk	.	16cc#X\	.	.	.
.	.	.	.	16r	.	16bn\	.	.	.
8r	8eJ 8A 8G'\	.	.	8r	.	16a\	.	.	.
.	.	.	.	.	.	16cc#\JJ)	.	.	.
=64	=64	=64	=64	=64	=64	=64	=64	=64	=64
(8DL 8DD'^/	8d^\L	.	.	4.r	.	4.dd^\	.	.	.
16C#X/L	(16c#X\L	.	.	.	.	.	.	.	.
16BBn/	16Bn\	.	.	.	.	.	.	.	.
16AA/	16A\	.	.	.	.	.	.	.	.
16C#/JJ	16c#\JJ	.	.	.	.	.	.	.	.
=65	=65	=65	=65	=65	=65	=65	=65	=65	=65
8D^/L)	8d^\L)	.	.	4.r	.	4.dd^\	.	.	.
(16AA/L	(16A\L	.	.	.	.	.	.	.	.
16GG/	16G\	.	.	.	.	.	.	.	.
16FF/	16F\	.	.	.	.	.	.	.	.
16AA/JJ	16A\JJ	.	.	.	.	.	.	.	.
=66	=66	=66	=66	=66	=66	=66	=66	=66	=66
8BB-L 8BBB-'/)	(4.B-\)	mf	p	(16f\LL	.	(16dd\LL	.	.	p
.	.	.	.	16b-\J	.	16ee\J	.	.	.
!	!	!LO:DY:b=2	!LO:DY:b=2	!	!	!	!	!	!
8D 8BB-'/	.	p	.	8dd'\)	.	8ff'\)	.	.	.
8FJ 8D'/	.	.	.	8dd'\J	.	8ff'\J	.	.	.
!LO:LB:g=original	!	!	!	!LO:LB:g=original	!	!	!	!	!
=67	=67	=67	=67	=67	=67	=67	=67	=67	=67
8BB-L 8BBB-'/	4G\	.	.	(16ee\LL	.	(16gg\LL	.	.	.
.	.	.	.	16dd\	.	16ff\	.	.	.
8C#X 8BB-'/	.	.	.	16cc#X\	.	16ee\	.	.	.
.	.	.	.	16b-\JJ	.	16dd\	.	.	.
8EJ 8C#'/	16A\LL	.	.	8g'/)	.	16cc#X\	.	.	.
.	16B-\JJ)	.	.	.	.	16ee\JJ)	.	.	.
=68	=68	=68	=68	=68	=68	=68	=68	=68	=68
8BB-L 8BBB-'/	(4F\	.	.	(16f\LL	.	(16dd\LL	.	.	.
.	.	.	.	16b-\J	.	16ee\J	.	.	.
8D 8BB-'/	.	.	.	8dd'\)	.	8ff'\)	.	.	.
8FJ 8D'/	[8d\)	.	.	8dd'\J	.	8ff'\J	.	.	.
=69	=69	=69	=69	=69	=69	=69	=69	=69	=69
*	*^	*	*	*	*	*	*	*	*
8BBn 8BBBn'/	(4d/]	8r	.	.	8dd'/L	.	(16gg\LL	.	.	.
.	.	.	.	.	.	.	16ff\	.	.	.
8r	.	8GL 8F\	.	.	(16g/L	.	16ee\	.	.	.
.	.	.	.	.	16f/J	.	16dd\	.	.	.
8C 8CC'/	8c/)	8B-XJ 8E\	.	.	8e'/J)	.	16ccn\	.	.	.
.	.	.	.	.	.	.	16ee\JJ)	.	.	.
=70	=70	=70	=70	=70	=70	=70	=70	=70	=70	=70
8FF 8FFF'/	8c/	8r	.	.	8aL 8f'/	.	(16ff\LL	.	<	<
.	.	.	.	.	.	.	16gg\J	.	.	.
8r	[4e-X^/	8AL 8F'\	<	<	8cc 8a'/	.	8aa'\)	.	.	.
8r	.	8cJ 8A'\	.	.	8ccJ 8a'/	.	8aa'\J	.	.	.
=71	=71	=71	=71	=71	=71	=71	=71	=71	=71	=71
8FF 8FFF/	8e-/L]	8r	.	.	(16cc#XLL 16b-\	.	(16bb-\LL	.	.	.
.	.	.	.	.	16ccn\	.	16aa\	.	.	.
8r	16d-X/L	8B-L 8F'\	.	.	16b-\	.	16gg\	.	.	.
.	16c/	.	.	.	16a\	.	16ff\	.	.	.
8r	16B-/	8B-J 8F'\	.	.	16g\	.	16ee\	.	.	.
.	16d-/JJ	.	.	.	16b-\JJ)	.	16gg\JJ)	.	.	.
=72	=72	=72	=72	=72	=72	=72	=72	=72	=72	=72
8FF 8FFF'/	8c/	8r	.	.	8a'\L	.	(16ff\LL	.	.	.
.	.	.	.	.	.	.	16gg\J	.	.	.
8r	4e-X^/	8AL 8F'\	.	.	8cc 8a'\	.	8aa 8ff'\)	.	.	.
8r	.	8cJ 8A'\	.	.	8ccJ 8a'\	.	8aaJ 8ff'\	.	.	.
=73	=73	=73	=73	=73	=73	=73	=73	=73	=73	=73
8FF 8FFF'/	4.d/	8r	.	.	8ddL 8a'/	.	(16aa\LL	.	.	.
.	.	.	.	.	.	.	16ddd\	.	.	.
8r	.	8AL 8F'\	.	.	(16f/L	.	16aa\	.	.	.
.	.	.	.	.	16g/J	.	16gg\	.	.	.
8r	.	8AJ 8F'\	.	.	8a'/J)	.	16ff\	.	.	.
.	.	.	.	.	.	.	16dd\JJ)	.	.	.
*	*clefG2	*	*	*	*	*	*	*	*	*
!LO:PB:g=original	!	!	!	!	!LO:PB:g=original	!	!	!	!	!
=74	=74	=74	=74	=74	=74	=74	=74	=74	=74	=74
8FF 8FFF'/	(4en/	8r	.	mf	(16a\LL	.	(16ee\LL	.	mf	mf
.	.	.	.	.	16cc\	.	16aa\	.	.	.
8r	.	8cL 8A'\	.	.	16ee\	.	16ccc\	.	.	.
.	.	.	.	.	16aa\J	.	16eee\J	.	.	.
8r	8a'/)	8eJ 8c'\	.	.	8ccc'\J)	.	8aaa'\J)	.	.	.
=75	=75	=75	=75	=75	=75	=75	=75	=75	=75	=75
8FF#X 8FFF#X'/	(4en/	8r	.	.	(16ee\LL	.	16r	.	.	.
.	.	.	.	.	16cc\	.	(16aa\LL	.	.	.
8r	.	8cL 8A'\	.	.	16ee\	.	16ccc\	.	.	.
.	.	.	.	.	16aa\J	.	16eee\J	.	.	.
8r	8a'/)	8eJ 8c'\	.	.	8ccc'\J)	.	8aaa'\J)	.	.	.
=76	=76	=76	=76	=76	=76	=76	=76	=76	=76	=76
8GG 8GGG'/	4.b-^/	8r	f	.	(16dd\LL	.	(16ddd\LL	.	.	.
.	.	.	.	.	16ee\J	.	16eee\J	.	.	.
8r	.	8fL 8d 8B-\	p	.	8ff'\)	.	8fff'\)	.	.	.
8r	.	8fJ 8d 8B-\	.	.	8ff'\J	.	8fff'\J	.	.	.
=77	=77	=77	=77	=77	=77	=77	=77	=77	=77	=77
8GG 8GGG'/	4g/	8r	.	.	(16gg\LL	.	(16ggg\LL	.	.	.
.	.	.	.	.	16ff\	.	16fff\	.	.	.
8r	.	8e-XL 8B- 8G'\	.	.	16ee-X\	.	16eee-X\	.	.	.
.	.	.	.	.	16dd\	.	16ddd\	.	.	.
8r	8en/	8c#XJ 8B- 8G'\	.	.	16cc#X\	.	16ccc#X\	.	.	.
.	.	.	.	.	16een\JJ)	.	16eeen\JJ)	.	.	.
=78	=78	=78	=78	=78	=78	=78	=78	=78	=78	=78
8GG#X 8GGG#X'/	4.f/	8r	.	.	(16dd\LL	.	(16ddd\LL	.	.	.
.	.	.	.	.	16ee\J	.	16eee\J	.	.	.
8r	.	8dL 8B- 8F'\	.	.	8ffn'\)	.	8fffn'\)	.	.	.
8r	.	8fJ 8d 8B-'\	.	.	8ff'\J	.	8fff'\J	.	.	.
=79	=79	=79	=79	=79	=79	=79	=79	=79	=79	=79
8AA 8AAA'/	4c#X/	8r	.	.	(16ee\LL	.	(16eee\LL	.	>	>
.	.	.	.	.	16dd\	.	16ddd\	.	.	.
8r	.	8AL 8G\	.	.	16cc#X\	.	16ccc#X\	.	.	.
.	.	.	.	.	16bn\	.	16bbn\	.	.	.
8r	8e/	8AJ 8G\	.	.	16a\	.	16aa\	.	.	.
.	.	.	.	.	16cc#\JJ)	.	16ccc#\JJ)	.	]]	]]
*	*v	*v	*	*	*	*	*	*	*	*
*	*clefF4	*	*	*	*	*	*	*	*
=80	=80	=80	=80	=80	=80	=80	=80	=80	=80
8DL 8DD^/	(8d^\L	>	>	4.dd\	.	4.ddd\	.	.	.
16C#X/L	16c#X\L	.	.	.	.	.	.	.	.
16BBn/	16Bn\	.	.	.	.	.	.	.	.
16AA/	16A\	.	.	.	.	.	.	.	.
16GG/JJ	16G\JJ	.	.	.	.	.	.	.	.
!LO:LB:g=original	!	!	!	!	!	!	!	!	!
=81	=81	=81	=81	=81	=81	=81	=81	=81	=81
*Xtremolo	*	*	*	*	*	*	*	*	*
16FF/LL	16F\LL	.	.	4.d/	.	4.dd\	.	.	.
16EE/	16E\	.	.	.	.	.	.	.	.
16DD/	16D\	.	.	.	.	.	.	.	.
16CC#X/	16C#X\	.	.	.	.	.	.	.	.
16BBB-X/	16BB-X\	.	.	.	.	.	.	.	.
16AAA/JJ	16AA\JJ)	]	]	.	.	.	.	.	.
!	!	!	!	!LO:LB:g=original	!	!	!	!	!
=82	=82	=82	=82	=82	=82	=82	=82	=82	=82
!	!LO:MO:mod=!LO&colon;TX&colon;a&colon;i&colon;t=sempre più animato	!	!	!	!	!	!	!	!
!	!	!	!	!	!	!LO:MO:mod=!LO&colon;TX&colon;a&colon;i&colon;t=sempre più animato	!	!	!
!	!LO:TX:b:i:t=sempre piu animato	!	!	!	!	!LO:TX:b:t=sempre piu animato	!	!	!
8AA-XL 8AAA-X'/	8B-L 8F 8D'\	.	pp	(16d/LL	.	(16dd\LL	.	pp	pp
.	.	.	.	16e-X/J	.	16ee-X\J	.	.	.
8AA- 8AAA-'/	8B- 8F 8D'\	.	.	8f'/)	.	8ff'\)	.	.	.
8AA-J 8AAA-'/	8B-J 8F 8D'\	.	.	8f'/J	.	8ff'\J	.	.	.
=83	=83	=83	=83	=83	=83	=83	=83	=83	=83
8GGL 8GGG'/	8B-L 8E-X'\	.	.	(16g^/LL	.	(16ggLL 16b-^\	.	.	.
.	.	.	.	16f/	.	16ff\	.	.	.
8GG 8GGG'/	8B- 8E-'\	.	.	16e-X/	.	16ee-X\	.	.	.
.	.	.	.	16d/	.	16dd\	.	.	.
8GG-XJ 8GGG-X'/	8B-J 8E- 8C'\	.	.	16c/	.	16cc\	.	.	.
.	.	.	.	16e-/JJ)	.	16ee-\JJ)	.	.	.
=84	=84	=84	=84	=84	=84	=84	=84	=84	=84
8FFL 8FFF'/	8B-L 8F 8D'\	.	.	(16d/LL	.	(16dd\LL	.	.	.
.	.	.	.	16e-X/J	.	16ee-X\J	.	.	.
8AA-X 8AAA-X'/	8B- 8F 8D'\	.	.	8f'/)	.	8ff'\)	.	.	.
8AA-J 8AAA-'/	8B-J 8F 8D'\	.	.	8f'/J	.	8ffJ 8b-'\	.	.	.
=85	=85	=85	=85	=85	=85	=85	=85	=85	=85
8GGL 8GGG'/	8B-L 8E-X'\	.	.	(16g^/LL	.	(16ggLL 16b-^\	.	.	.
.	.	.	.	16f/	.	16ff\	.	.	.
8GG 8GGG'/	8B- 8E-'\	.	.	16e-X/	.	16ee-X\	.	.	.
.	.	.	.	16d/	.	16dd\	.	.	.
8GG-XJ 8GGG-X'/	8B-J 8E- 8C'\	.	.	16c/	.	16cc\	.	.	.
.	.	.	.	16e-/JJ)	.	16ee-\JJ)	.	.	.
=86	=86	=86	=86	=86	=86	=86	=86	=86	=86
8FFL 8FFF'/	8B-L 8F 8D'\	.	.	(16d/LL	.	(16dd\LL	.	.	.
.	.	.	.	16e-X/J	.	16ee-X\J	.	.	.
8FF 8FFF'/	8B- 8F 8D'\	.	.	8f'/)	.	8ff'\)	.	.	.
8FFJ 8FFF'/	8B-J 8F 8D'\	.	.	8f'^/J	.	8ffJ 8b-'^\	.	.	.
=87	=87	=87	=87	=87	=87	=87	=87	=87	=87
8FFL 8FFF'/	8AL 8D'\	.	.	(16d/LL	.	(16dd\LL	.	.	.
.	.	.	.	16en/J	.	16een\J	.	.	.
8FF 8FFF'/	8A 8D'\	.	.	8f'/)	.	8ff'\)	.	.	.
8FFJ 8FFF'/	8AJ 8D'\	.	.	8f'^/J	.	8ffJ 8a'^\	.	.	.
!LO:LB:g=original	!	!	!	!	!	!	!	!	!
=88	=88	=88	=88	=88	=88	=88	=88	=88	=88
8GGL 8GGG'/	8B-L 8F 8D'\	.	.	(16d/LL	.	(16dd\LL	.	.	.
.	.	.	.	16e/J	.	16ee\J	.	.	.
8GG 8GGG'/	8B- 8F 8D'\	.	.	8f'/)	.	8ff'\)	.	.	.
8GGJ 8GGG'/	8B-J 8F 8D'\	.	.	8f'^/J	.	8ffJ 8b-'^\	.	.	.
!	!	!	!	!LO:LB:g=original	!	!	!	!	!
=89	=89	=89	=89	=89	=89	=89	=89	=89	=89
8GG#X^>L 8GGG#X/	8Bn^L 8F 8D'\	.	.	(16g^/LL	.	(16ggLL 16bn^\	.	.	.
.	.	.	.	16f/	.	16ff\	.	.	.
8GG# 8GGG#/	8B 8F'\	.	.	16e/	.	16ee\	.	.	.
.	.	.	.	16d/	.	16dd\	.	.	.
8AAJ 8AAA/	8AJ 8Gn'\	.	.	16c#X/	.	16cc#X\	.	.	.
.	.	.	.	16e/JJ)	.	16ee\JJ)	.	.	.
=90	=90	=90	=90	=90	=90	=90	=90	=90	=90
!	!LO:MO:mod=!LO&colon;TX&colon;b&colon;i&colon;t=sempre staccato	!	!	!	!	!	!	!	!
!	!LO:TX:b:i:t=sempre staccato.	!	!	!	!	!	!	!	!
8AA-XL 8AAA-X/	8B-XL 8F 8D\	.	.	(16d/LL	.	(16dd\LL	.	.	.
.	.	.	.	16e-X/J	.	16ee-X\J	.	.	.
8AA- 8AAA-/	8B- 8F 8D\	.	.	8f'/)	.	8ff'\)	.	.	.
8AA-J 8AAA-/	8B-J 8F 8D\	.	.	8f'/J	.	8ff'\J	.	.	.
=91	=91	=91	=91	=91	=91	=91	=91	=91	=91
8GGL 8GGG/	8B-L 8E-X\	.	.	(16g^/LL	.	8bb-X 8b-X^\	.	.	.
.	.	.	.	16f/	.	.	.	.	.
8GG 8GGG/	8B- 8E-\	.	.	16e-X/	.	(16ee-X\LL	.	.	.
.	.	.	.	16d/	.	16dd\	.	.	.
8GG-XJ 8GGG-X/	8B-J 8E- 8C\	.	.	16c/	.	16cc\	.	.	.
.	.	.	.	16e-/JJ)	.	16ee-\JJ	.	.	.
=92	=92	=92	=92	=92	=92	=92	=92	=92	=92
8FFL 8FFF/	8B-L 8F 8D\	.	.	(16d/LL	.	(16dd\LL	.	.	.
.	.	.	.	16e-X/J	.	16ee-X\J	.	.	.
8AA-X 8AAA-X/	8B- 8F 8D\	.	.	8f'/)	.	8ff'\))	.	.	.
8AA-J 8AAA-/	8B-J 8F 8D\	.	.	8f'/J	.	8ff'\J	.	.	.
=93	=93	=93	=93	=93	=93	=93	=93	=93	=93
8GGL 8GGG/	8B-L 8E-X\	.	.	(16g^/LL	.	8bb- 8b-^\	.	.	.
.	.	.	.	16f/	.	.	.	.	.
8GG 8GGG/	8B- 8E-\	.	.	16e-X/	.	(16ee-X\LL	.	.	.
.	.	.	.	16d/	.	16dd\	.	.	.
8GG-XJ 8GGG-X/	8B-J 8E- 8C\	.	.	16c/	.	16cc\	.	.	.
.	.	.	.	16e-/JJ)	.	16ee-\JJ	.	.	.
=94	=94	=94	=94	=94	=94	=94	=94	=94	=94
8FFL 8FFF/	8B-L 8F 8D\	.	.	(16d/LL	.	(16dd\LL	.	.	.
.	.	.	.	16e-X/J	.	16ee-X\J	.	.	.
8FF 8FFF/	8B- 8F 8D\	.	.	8f'/)	.	8ff'\))	.	.	.
8FFJ 8FFF/	8B-J 8F 8D\	.	.	8f'^/J	.	8ffJ 8b-'^\	.	.	.
=95	=95	=95	=95	=95	=95	=95	=95	=95	=95
8FFL 8FFF/	8AL 8D\	.	.	(16d/LL	.	(16dd\LL	.	.	.
.	.	.	.	16en/J	.	16een\J	.	.	.
8FF 8FFF/	8A 8D\	.	.	8f'/)	.	8ff'\)	.	.	.
8FFJ 8FFF/	8AJ 8D\	.	.	8f'^/J	.	8ffJ 8a'^\	.	.	.
!LO:LB:g=original	!	!	!	!LO:LB:g=original	!	!	!	!	!
=96	=96	=96	=96	=96	=96	=96	=96	=96	=96
8GGL 8GGG/	8B-L 8F 8D\	.	.	(16d/LL	.	(16dd\LL	.	.	.
.	.	.	.	16e/J	.	16ee\J	.	.	.
8GG 8GGG/	8B- 8F 8D\	.	.	8f'/)	.	8ff'\)	.	.	.
8GGJ 8GGG/	8B-J 8F 8D\	.	.	8f'/J	.	8ffJ 8b-'\	.	.	.
=97	=97	=97	=97	=97	=97	=97	=97	=97	=97
(4GG#X 4GGG#X^>/	(4Bn 4F 4D^\	.	.	16g^/LL	.	16gg^LL 16bn\	.	.	.
.	.	.	.	16f/	.	16ff\	.	.	.
.	.	.	.	16e/	.	16ee\	.	.	.
.	.	.	.	16d/	.	16dd\	.	.	.
8AA 8AAA'/)	8A 8Gn'\)	.	.	16c#X/	.	16cc#X\	.	.	.
.	.	.	.	16e/JJ	.	16ee\JJ	.	.	.
=98	=98	=98	=98	=98	=98	=98	=98	=98	=98
!	!	!LO:HP:t=cresc. molto.	!LO:HP:t=cresc. molto	!	!	!	!	!LO:HP:t=cresc. molto.	!LO:HP:t=cresc. molto
(4GG#X 4GGG#X^>/	(4Bn 4F 4D^\	<	<	16g^/LL	.	16gg^\LL	.	<	<
.	.	.	.	16f/	.	16ff\	.	.	.
.	.	.	.	16e/	.	16ee\	.	.	.
.	.	.	.	16d/	.	16dd\	.	.	.
8AA 8AAA'/)	8A 8Gn'\)	.	.	16c#X/	.	16cc#X\	.	.	.
.	.	.	.	16e/JJ	.	16ee\JJ	.	.	.
=99	=99	=99	=99	=99	=99	=99	=99	=99	=99
(4GG#X 4GGG#X^>/	(4Bn 4F 4D^\	.	.	16g^/LL	.	16gg^\LL	.	.	.
.	.	.	.	16f/	.	16ff\	.	.	.
.	.	.	.	16e/	.	16ee\	.	.	.
.	.	.	.	16d/	.	16dd\	.	.	.
8AA 8AAA'/)	8A 8Gn'\)	.	.	16c#X/	.	16cc#X\	.	.	.
.	.	.	.	16e/JJ	.	16ee\JJ	.	.	.
=100	=100	=100	=100	=100	=100	=100	=100	=100	=100
(4GG#X 4GGG#X^>/	(4Bn 4F 4D^\	.	.	16g^/LL	.	16gg^\LL	.	.	.
.	.	.	.	16f/	.	16ff\	.	.	.
.	.	.	.	16e/	.	16ee\	.	.	.
.	.	.	.	16d/	.	16dd\	.	.	.
8AA 8AAA'/)	8A 8Gn'\)	.	.	16c#X/	.	16cc#X\	.	.	.
.	.	.	.	16d/JJ	.	16dd\JJ	.	.	.
=101	=101	=101	=101	=101	=101	=101	=101	=101	=101
8r	8r	.	.	16e/LL	.	16ee\LL	.	<	<
.	.	.	.	16f#X/	.	16ff#X\	.	.	.
(16AA/LL	(16A\LL	.	.	16g/	.	16gg\	.	.	.
16GG/	16G\	.	.	16a/	.	16aa\	.	.	.
16FF#X/	16F#X\	.	.	16bn/	.	16bbn\	.	.	.
16EE/JJ	16E\JJ	.	.	16cc#X/JJ	.	16ccc#X\JJ	.	[	[
*kcancel	*kcancel	*	*	*kcancel	*	*kcancel	*	*	*
=102||	=102||	=102||	=102||	=102||	=102||	=102||	=102||	=102||	=102||
*k[f#c#]	*k[f#c#]	*	*	*k[f#c#]	*	*k[f#c#]	*	*	*
*M3/4	*M3/4	*	*	*M3/4	*	*M3/4	*	*	*
*	*	*	*	*	*	*8va	*	*	*
!	!LO:MO:mod=!LO&colon;TX&colon;a&colon;B&colon;t=Tempo di Mazurka	!	!	!	!	!LO:MO:mod=!LO&colon;TX&colon;a&colon;B&colon;t=Tempo di Mazurka	!	!	!
!	!LO:TX:a:t=Tempo di Mazurka.	!	!	!	!	!LO:TX:a:t=Tempo di Mazurka.	!	!	!
8DD'/)	8D'\)	.	.	(8dd\L	.	(8ddd\L	.	ff	ff
8r	8r	.	.	8ff#\J	.	8fff#\J	.	.	.
*	*clefG2	*	*	*	*	*	*	*	*
4r	4a 4f# 4d 4A'/	ff	ff	4aa\)	.	4aaa\)	.	.	.
4AA 4AAA/	4g#X 4f# 4d 4G#X'/	.	.	8gg#X 8ff# 8dd'\	.	8ggg#X 8fff# 8ddd'\	.	.	.
.	.	.	.	8r	.	8r	.	.	.
=103	=103	=103	=103	=103	=103	=103	=103	=103	=103
4D 4DD'/	4b 4f# 4d 4B'/	.	.	8bb 8ff# 8dd'\	.	8bbb 8fff# 8ddd'\	.	.	.
.	.	.	.	8r	.	8r	.	.	.
4r	2a 2f# 2d 2A^>/	.	.	2aa 2ff# 2dd^<\	.	2aaa 2fff# 2ddd^<\	.	.	.
4AA 4AAA'/	.	.	.	.	.	.	.	.	.
=104	=104	=104	=104	=104	=104	=104	=104	=104	=104
4D 4DD'/	4r	.	.	(8dd\L	.	(8ddd\L	.	.	.
.	.	.	.	8ff#\J	.	8fff#\J	.	.	.
4r	4a 4f# 4d 4A'/	.	.	4aa\)	.	4aaa\)	.	.	.
4AA 4AAA'/	4a 4e 4c# 4A'/	.	.	8ee 8cc#'\	.	8eee 8ccc#'\	.	.	.
.	.	.	.	8r	.	8r	.	.	.
=105	=105	=105	=105	=105	=105	=105	=105	=105	=105
4D 4DD'/	4a 4f# 4d 4A'/	.	.	8ff# 8dd'\	.	8fff# 8ddd'\	.	.	.
.	.	.	.	8r	.	8r	.	.	.
*	*	*	*	*	*	*X8va	*	*	*
4r	2a 2f# 2d 2A^>/	.	.	2ff# 2dd^<\	.	2ddd 2aa^<\	.	.	.
4AA 4AAA'/	.	.	.	.	.	.	.	.	.
=106	=106	=106	=106	=106	=106	=106	=106	=106	=106
*	*	*	*	*	*	*8va	*	*	*
2D 2DD/	4r	.	.	(8dd\L	.	(8ddd\L	.	.	.
.	.	.	.	8ff#\J	.	8fff#\J	.	.	.
.	4a 4f# 4d 4A'/	.	.	4aa\)	.	4aaa\)	.	.	.
4D#X 4DD#X'/	4g#X 4f# 4B#X 4G#X'/	.	.	8gg#X 8ff# 8b#X'\	.	8ggg#X 8fff# 8bb#X'\	.	.	.
.	.	.	.	8r	.	8r	.	.	.
=107	=107	=107	=107	=107	=107	=107	=107	=107	=107
4E 4EE'/	4bn 4gn 4c# 4Bn'/	.	.	8bb 8ggn 8cc#X'\	.	8bbb 8gggn 8ccc#X'\	.	.	.
.	.	.	.	8r	.	8r	.	.	.
4r	2a 2g 2c# 2A^>/	.	.	2aa 2gg 2cc#^<\	.	2aaa 2ggg 2ccc#^<\	.	.	.
4E 4EE'/	.	.	.	.	.	.	.	.	.
*	*clefF4	*	*	*	*	*	*	*	*
!	!	!	!	!LO:LB:g=original	!	!	!	!	!
=108	=108	=108	=108	=108	=108	=108	=108	=108	=108
4F# 4FF#'/	4r	.	.	8ff#L 8dd\	.	8fff#L 8ddd\	.	.	.
.	.	.	.	8ff#J 8dd\	.	8fff#J 8ddd\	.	.	.
4r	4a 4f# 4d 4A'\	.	.	4aa\	.	4aaa\	.	.	.
4GG 4GGG'/	4e 4B 4E'\	.	.	8ee 8b'\	.	8eee 8bb'\	.	.	.
.	.	.	.	8r	.	8r	.	.	.
*	*	*	*	*	*	*X8va	*	*	*
!LO:LB:g=original	!	!	!	!	!	!	!	!	!
=109	=109	=109	=109	=109	=109	=109	=109	=109	=109
2GG#X 2GGG#X/	4f# 4B 4F#'\	.	.	8ff# 8b'\	.	8fff# 8ddd'\	.	.	.
.	.	.	.	8r	.	8r	.	.	.
.	2d 2B 2F# 2D^\	.	.	2dd 2b^<\	.	2fff# 2ddd^<\	.	.	.
4GG# 4GGG#'/	.	.	.	.	.	.	.	.	.
=110	=110	=110	=110	=110	=110	=110	=110	=110	=110
2AA 2AAA/	8c#L 8A 8E\	.	.	8cc#L 8a\	.	8ccc#L 8aa\	.	.	.
.	8c#J 8A 8E\	.	.	8cc#J 8a\	.	8ccc#J 8aa\	.	.	.
.	4e'\	.	.	4ee\	.	4eee\	.	.	.
4FF# 4FFF#'/	4e 4A 4E'\	.	.	8ddL 8a\	.	8dddL 8aa\	.	.	.
.	.	.	.	8cc#\J	.	8ccc#\J	.	.	.
=111	=111	=111	=111	=111	=111	=111	=111	=111	=111
4GG#X 4GGG#X'/	4e 4B 4E'\	.	.	8b\L	.	8bb\L	.	.	.
.	.	.	.	8cc#\J	.	8ccc#\J	.	.	.
(8AAL 8AAA^/	(8eL 8B 8E^\	.	.	2a/	.	2aa\	.	.	.
8BB/	8B\	.	.	.	.	.	.	.	.
8C#/	8c#\	.	.	.	.	.	.	.	.
8D/J	8d\J	.	.	.	.	.	.	.	.
=112	=112	=112	=112	=112	=112	=112	=112	=112	=112
8E'\)	8e'\)	.	.	8cc#L 8a\	.	8ccc#L 8aa\	.	.	.
8r	8r	.	.	8cc#J 8a\	.	8ccc#J 8aa\	.	.	.
4C# 4CC#'/	4e 4A 4E'\	.	.	4ee\	.	4eee\	.	.	.
4D 4DD'/	4f# 4d 4A'\	.	.	8ddL 8a\	.	8dddL 8aa\	.	.	.
.	.	.	.	8cc#\J	.	8ccc#\J	.	.	.
=113	=113	=113	=113	=113	=113	=113	=113	=113	=113
8E 8EE'/	8e 8d 8G#X'\	.	.	(8b\L	.	(8bb\L	.	<	<
8r	8r	.	.	8cc#\	.	8ccc#\	.	.	.
2F# 2FF#^/	2c# 2A^\	.	.	8a\	.	8aa\	.	.	.
.	.	.	.	8b\	.	8bb\	.	.	.
.	.	.	.	8cc#\	.	8ccc#\	.	.	.
.	.	.	.	8dd\J)	.	8ddd\J)	.	[	[
=114	=114	=114	=114	=114	=114	=114	=114	=114	=114
4BB 4EE'/	(8BL 8G#X\	.	.	4ee'\	.	4eee'\	.	.	.
.	8c#\J	.	.	.	.	.	.	.	.
4C# 4AA'/	4A'\)	.	.	4a'/	.	4aa'\	.	.	.
4BB 4EE'/	(8BL 8G#\	.	.	(8b\L	.	4r	.	.	.
.	8c#\J	.	.	8cc#\J	.	.	.	.	.
!LO:PB:g=original	!	!	!	!LO:PB:g=original	!	!	!	!	!
=115	=115	=115	=115	=115	=115	=115	=115	=115	=115
4C# 4FF#'/	4A'\)	.	.	4a'/)	.	4r	.	.	.
4GG#X'/	4d 4B 4En'\	.	<	(8b\L	.	(8bb\L	.	<	<
.	.	.	.	8cc#\J	.	8ccc#\J	.	.	.
4AA'/	4c# 4A 4E'\	.	.	4a'/)	.	4aa'\)	.	.	.
=116	=116	=116	=116	=116	=116	=116	=116	=116	=116
4EE#X 4EEE#X/	4B 4G#X 4D\	.	.	(8b\L	.	(8bb\L	.	.	.
.	.	.	.	8cc#\J	.	8ccc#\J	.	.	.
4FF# 4FFF#/	4A 4F# 4C#\	.	.	4a'/)	.	4aa'\)	.	.	.
4GG#X 4GGG#X/	4d 4B 4En\	.	.	(8b\L	.	(8bb\L	.	.	.
.	.	.	[	8cc#\J	.	8ccc#\J	.	[	[
=117	=117	=117	=117	=117	=117	=117	=117	=117	=117
8AA 8AAA'/	8c# 8A 8E'\	.	.	8a'/)	.	8aa'\)	.	.	.
8r	8r	.	.	8r	.	8r	.	.	.
2AA 2AAA^>/	2A^\	.	sf	2a^>/	.	2aaa 2aa^>\	.	sf	sf
=118	=118	=118	=118	=118	=118	=118	=118	=118	=118
4AA 4AAA/	4A'\	.	.	2.a^>/	.	2.aaa 2.aa^>\	.	.	.
(8C#/L	(8c#\L	.	.	.	.	.	.	.	.
8D/	8d\	.	.	.	.	.	.	.	.
8C#/	8c#\	.	.	.	.	.	.	.	.
8AA/J	8A\J	.	.	.	.	.	.	.	.
=119	=119	=119	=119	=119	=119	=119	=119	=119	=119
8BB'^/L)	8B'^\L)	.	.	4r	.	4r	.	.	.
16r	16r	.	.	.	.	.	.	.	.
(16D/Jk	(16d\Jk	.	.	.	.	.	.	.	.
8C#/L	8c#\L	.	.	8r	.	8r	.	.	.
8E/	8e\	.	.	8a\L	.	8aa\L	.	<	<
8C#/	8c#\	.	.	8cc#\	.	8ccc#\	.	.	.
8AA/J)	8A\J)	.	.	8ee\J	.	8eee\J	.	[	[
=120	=120	=120	=120	=120	=120	=120	=120	=120	=120
4AA 4AAA/	4A'\	.	.	2.a^>/	.	2.aaa 2.aa^\	.	.	.
(8C#/L	(8c#\L	.	.	.	.	.	.	.	.
8D/	8d\	.	.	.	.	.	.	.	.
8C#/	8c#\	.	.	.	.	.	.	.	.
8AA/J	8A\J	.	.	.	.	.	.	.	.
!LO:LB:g=original	!	!	!	!	!	!	!	!	!
=121	=121	=121	=121	=121	=121	=121	=121	=121	=121
8BB'^/L)	8B'^\L)	.	.	4r	.	4r	.	.	.
16r	16r	.	.	.	.	.	.	.	.
(16D/K	(16d\K	.	.	.	.	.	.	.	.
8C#/	8c#\	.	.	8r	.	8r	.	.	.
8E/	8e\	.	.	8a\L	.	8aa\L	.	<	<
8C#/	8c#\	.	.	8cc#\	.	8ccc#\	.	.	.
8AA/J)	8A\J	.	.	8ee\J	.	8eee\J	.	[	[
!	!	!	!	!LO:LB:g=original	!	!	!	!	!
=122	=122	=122	=122	=122	=122	=122	=122	=122	=122
4r	8d'^\L)	.	.	8dd'^\L	.	4aaa 4aa^\	.	.	.
.	16r	.	.	16r	.	.	.	.	.
.	(16B\K	.	.	(16b\K	.	.	.	.	.
4r	8c#\	.	.	8cc#\	.	4r	.	.	.
.	8e\	.	.	8ee\	.	.	.	.	.
4AA 4AAA^/	8c#\	.	.	8cc#\	.	4r	.	.	.
.	8A\J	.	.	8a\J	.	.	.	.	.
=123	=123	=123	=123	=123	=123	=123	=123	=123	=123
4r	8B'^\L)	.	.	8b'^\L)	.	4aaa 4aa^\	.	.	.
.	16r	.	.	16r	.	.	.	.	.
.	(16d\K	.	.	(16dd\K	.	.	.	.	.
4r	8c#\	.	.	8cc#\	.	4r	.	.	.
.	8e\	.	.	8ee\	.	.	.	.	.
4AA 4AAA^/	8c#\	.	.	8cc#\	.	4r	.	.	.
.	8A\J	.	.	8a\J	.	.	.	.	.
=124	=124	=124	=124	=124	=124	=124	=124	=124	=124
4r	8d'^\L)	.	.	8dd'^\L)	.	4aaa 4aa^\	.	.	.
.	16r	.	.	16r	.	.	.	.	.
.	(16B\K	.	.	(16b\K	.	.	.	.	.
4AA 4AAA^/	8c#\	.	.	8cc#\	.	4r	.	.	.
.	8e\	.	.	8ee\	.	.	.	.	.
4r	8c#\	.	.	8cc#\	.	4aaa 4aa^\	.	.	.
.	8A\J	.	.	8a\J	.	.	.	.	.
=125	=125	=125	=125	=125	=125	=125	=125	=125	=125
8AA 8AAA^/	8B'^\)	<	<	8b'\)	.	4r	.	.	.
8r	16r	.	.	8r	.	.	.	.	.
.	(16c#\KL	.	.	.	.	.	.	.	.
(8D\L	8d\	.	.	4a^/	.	4aaa 4aa^\	.	<	<
8E\	8e\	.	.	.	.	.	.	.	.
8F#\	8f#\	.	.	4a^/	.	4aaa 4aa^\	.	[	[
8G\J)	8g\J)	[	[	.	.	.	.	.	.
*	*clefG2	*	*	*	*	*	*	*	*
=126	=126	=126	=126	=126	=126	=126	=126	=126	=126
*	*	*	*	*	*	*8va	*	*	*
2D 2DD/	(8dL 8A/	.	.	(16aa\LL	.	(16aaa\LL	.	.	.
.	.	.	.	16bb\	.	16bbb\	.	.	.
.	8f#/J	.	.	16aa\	.	16aaa\	.	.	.
.	.	.	.	16bb\JJ	.	16bbb\JJ	.	.	.
.	8a'/)	.	.	8aa'\)	.	8aaa'\)	.	.	.
.	8r	.	.	8r	.	8r	.	.	.
8D#X 8DD#X'/	8g#X 8f# 8B#X'/	.	.	8gg#X'\	.	8ggg#X'\	.	.	.
8r	8r	.	.	8r	.	8r	.	.	.
!LO:LB:g=original	!	!	!	!	!	!	!	!	!
=127	=127	=127	=127	=127	=127	=127	=127	=127	=127
2E 2EE/	8bn 8gn 8c#/	.	.	8ggn'\	.	8gggn'\	.	.	.
.	8r	.	.	8r	.	8r	.	.	.
.	2a 2g 2c#^>/	.	.	(4.ff#^\	.	(4.fff#^\	.	.	.
4E 4EE/	.	.	.	.	.	.	.	.	.
*	*	*	*	*	*	*X8va	*	*	*
.	.	.	.	8ee\)	.	8ee\)	.	.	.
!	!	!	!	!LO:LB:g=original	!	!	!	!	!
=128	=128	=128	=128	=128	=128	=128	=128	=128	=128
2F# 2FF#/	(8dL 8A/	.	.	(16dd\LL	.	(16ddd\LL	.	.	.
.	.	.	.	16ee\	.	16eee\	.	.	.
.	8f#/J	.	.	16dd\	.	16ddd\	.	.	.
.	.	.	.	16ee\JJ	.	16eee\JJ	.	.	.
.	8a'/)	.	.	8dd'\)	.	8ddd'\)	.	.	.
.	8r	.	.	8r	.	8r	.	.	.
8G 8GG'\	8e 8c#'/	.	.	(8cc#\L	.	(8ccc#\L	.	.	.
8r	8r	.	.	8b\J	.	8bb\J	.	.	.
=129	=129	=129	=129	=129	=129	=129	=129	=129	=129
8G#X 8GG#X\	8f# 8d'/	.	.	8ee\L	.	8eee\L	.	.	.
8r	8r	.	.	8dd\	.	8ddd\	.	.	.
4r	2d^> 2B< 2F#</	.	.	8cc#\	.	8ccc#\	.	.	.
.	.	.	.	8dd\	.	8ddd\	.	.	.
4GG#X 4GGG#X\	.	.	.	8cc#\	.	8ccc#\	.	.	.
.	.	.	.	8b\J)	.	8bb\J)	.	.	.
*	*clefF4	*	*	*	*	*	*	*	*
=130	=130	=130	=130	=130	=130	=130	=130	=130	=130
2AA 2AAA/	4r	.	.	(16a/LL	.	(16aa\LL	.	.	.
.	.	.	.	16b/	.	16bb\	.	.	.
.	.	.	.	16a/	.	16aa\	.	.	.
.	.	.	.	16b/JJ	.	16bb\JJ	.	.	.
.	8d 8A 8F#'\	.	.	8a'/)	.	8aa'\)	.	.	.
.	8r	.	.	8r	.	8r	.	.	.
8BB 8BBB'/	8d 8G#X 8F#'\	.	.	8b 8f#'/	.	8gg#X 8dd\	.	.	.
8r	8r	.	.	8r	.	8r	.	.	.
=131	=131	=131	=131	=131	=131	=131	=131	=131	=131
2Cn 2CCn/	8e 8B 8Gn'\	.	.	8b 8g'/	.	8bb 8ggn 8ee'\	.	.	.
.	8r	.	.	8r	.	8r	.	.	.
.	2e 2A 2G^\	.	.	2a 2g^>/	.	2aa 2gg 2ee^\	.	.	.
4C#X 4CC#X/	.	.	.	.	.	.	.	.	.
=132	=132	=132	=132	=132	=132	=132	=132	=132	=132
2D 2DD/	4r	.	.	4a 4f#'/	.	8ff#L 8dd'\	.	.	.
.	.	.	.	.	.	8ff#'\J	.	.	.
.	8A'\	.	.	4a'/	.	4aa'\	.	.	.
.	8r	.	.	.	.	.	.	.	.
8E 8EE'/	8c# 8A'\	.	.	4a 4e'/	.	4ee 4cc#'\	.	.	.
8r	8r	.	.	.	.	.	.	.	.
!LO:LB:g=original	!	!	!	!	!	!	!	!	!
=133	=133	=133	=133	=133	=133	=133	=133	=133	=133
8G#X 8GG#X'\	8d 8B'\	.	.	4b 4f#'/	.	4ff# 4dd'\	.	.	.
8r	8r	.	.	.	.	.	.	.	.
2GG# 2GGG#X^>/	2d 2B 2F#^\	.	.	2b 2f#^/	.	8dd\L	.	.	.
.	.	.	.	.	.	8ff#\	.	.	.
.	.	.	.	.	.	8bb\	.	.	.
.	.	.	.	.	.	8ddd\J	.	.	.
!	!	!	!	!LO:LB:g=original	!	!	!	!	!
=134	=134	=134	=134	=134	=134	=134	=134	=134	=134
4AA'/	4c# 4A'\	.	.	8cc#L 8a\	.	8ccc#L 8aa\	.	<	<
.	.	.	.	8cc#J 8a\	.	8ccc#J 8aa\	.	.	.
4CC#'/	4c# 4A'\	.	.	4ee\	.	4eee\	.	[	[
4DD'/	4d 4F#'\	.	.	8ddL 8f#/	.	8dddL 8aa\	.	.	.
.	.	.	.	8cc#/J	.	8ccc#\J	.	.	.
=135	=135	=135	=135	=135	=135	=135	=135	=135	=135
4EE'/	4d 4G#X'\	.	.	8bL 8g#X/	.	8bbL 8gg#X\	.	.	.
.	.	.	.	8cc#/J	.	8ccc#\	.	.	.
4EE#X'/	(8c#L 8A\	.	.	4a/	.	8aa\	.	.	.
.	8G#\J	.	.	.	.	8gg#\J	.	.	.
4FF#'^>/	4c# 4A^\)	.	.	4a/	.	4aa\	.	.	.
=136	=136	=136	=136	=136	=136	=136	=136	=136	=136
4AA'/	4c# 4A'\	.	.	8cc#L 8a\	.	8eeeL 8ccc#\	.	.	.
.	.	.	.	8cc#J 8a\	.	8eeeJ 8ccc#\	.	.	.
4CC#'/	4c# 4G#X'\	.	.	4ee\	.	4ggg\	.	.	.
4DD'/	4d 4F#'\	.	.	8ddL 8f#/	.	8dddL 8aa\	.	.	.
.	.	.	.	8cc#/J	.	8ccc#\J	.	.	.
=137	=137	=137	=137	=137	=137	=137	=137	=137	=137
4EE'/	4d 4G#X'\	.	.	8bL 8g#X/	.	8bbL 8gg#X\	.	.	.
.	.	.	.	8cc#/J	.	8ccc#\J	.	.	.
4EE#X'/	(8c#L 8A\	.	.	4a/	.	8aa\L	.	.	.
.	8G#\J	.	.	.	.	8gg#\	.	.	.
4FF#'^>/	4c# 4A^\)	.	.	4a/	.	8aa\	.	.	.
.	.	.	.	.	.	8aaa\J	.	.	.
=138	=138	=138	=138	=138	=138	=138	=138	=138	=138
4D 4EEn'/	(8BL 8G#X\	<	<	4ee^\	.	4r	.	.	.
.	8c#\J	.	.	.	.	.	.	.	.
4C# 4EE#X'/	4A'\)	.	.	4a'/	.	4r	.	.	.
4D 4FF#'/	(8B\L	.	.	(8b\L	.	4eee^\	.	.	.
.	8c#\J	.	.	8cc#\J	.	.	.	.	.
=139	=139	=139	=139	=139	=139	=139	=139	=139	=139
4C# 4GGn'/	4A\)	.	.	4a'/)	.	4aa'\	.	.	.
4GG#X'/	4d 4B 4F#'\	.	.	(8b\L	.	(8bb\L	.	<	<
.	.	.	.	8cc#\J	.	8ccc#\J	.	.	.
4AA'/	4c# 4A 4E'\	.	.	4a'/)	.	4aa'\)	.	.	.
!LO:LB:g=original	!	!	!	!LO:LB:g=original	!	!	!	!	!
=140	=140	=140	=140	=140	=140	=140	=140	=140	=140
4E 4EE'/	4d 4G#X'\	.	.	(8b\L	.	(8bb\L	.	.	.
.	.	.	.	8cc#\J	.	8ccc#\J	.	.	.
4AA'/	4c# 4A'\	.	.	4a'/)	.	4aa'\)	.	.	.
4E#X 4EE#X'/	4d 4G#'\	[	[	(8b\L	.	(8bb\L	.	.	.
.	.	.	.	8cc#\J	.	8ccc#\J	.	[	[
=141	=141	=141	=141	=141	=141	=141	=141	=141	=141
8F# 8FF#'/	8c# 8A'\	.	.	4a'/)	.	4aa'\)	.	.	.
8r	8r	.	.	.	.	.	.	.	.
!	!LO:SIC:o=[2A^^\:v	!	!	!	!	!	!	!	!
4r	[2A^\	.	.	2a^>/	.	2aaa 2aa^\	.	.	.
4r	.	.	.	.	.	.	.	.	.
=142	=142	=142	=142	=142	=142	=142	=142	=142	=142
!	!LO:MO:mod=*null:null	!	!	!	!	!	!	!	!
!LO:MO:mod=*ped:null	!	!	!	!	!	!	!	!	!
*null	*	*	*	*	*	*	*	*	*
*	*ped	*	*	*ped	*	*	*	*	*
[2.AA [2.AAA/	4A\]	.	.	4.aa\	.	4.aaa^\	.	.	.
.	4A\	.	.	.	.	.	.	.	.
.	.	.	.	(8gg#X\L	.	(8ggg#X\L	.	.	.
.	((4fn\	.	.	8a\	.	8aa\	.	.	.
.	.	.	.	8gg#\J)	.	8ggg#\J)	.	.	.
=143	=143	=143	=143	=143	=143	=143	=143	=143	=143
2.AA_ 2.AAA/_	4e\)	.	.	4.aa\	.	4.aaa^\	.	.	.
.	4A\)	.	.	.	.	.	.	.	.
.	.	.	.	(8gg#X\L	.	(8ggg#X\L	.	.	.
.	((4fn\	.	.	8a\	.	8aa\	.	.	.
.	.	.	.	8gg#\J)	.	8ggg#\J)	.	.	.
=144	=144	=144	=144	=144	=144	=144	=144	=144	=144
2.AA_ 2.AAA/_	4e\)	.	.	4.aa^\	.	4.aaa^\	.	.	.
.	4A\)	.	.	.	.	.	.	.	.
.	.	.	.	(8gg#X\L	.	(8ggg#X\L	.	.	.
.	((4fn\	.	.	8a\	.	8aa\	.	.	.
.	.	.	.	8gg#\J	.	8ggg#\J	.	.	.
!	!LO:MO:mod=*null:null	!	!	!	!	!	!	!	!
!LO:MO:mod=*Xped:null	!	!	!	!	!	!	!	!	!
*null	*	*	*	*	*	*	*	*	*
*	*Xped	*	*	*Xped	*	*	*	*	*
=145	=145	=145	=145	=145	=145	=145	=145	=145	=145
4AA] 4AAA/]	4e\)	>	>	8ggn\L	.	8gggn\L	.	>	>
.	.	.	.	8a\	.	8aa\	.	.	.
4r	4A\)	]	]	8gg\	.	8ggg\	.	.	.
.	.	.	.	8ff#\	.	8fff#\	.	.	.
4r	4r	.	.	8a\	.	8aa\	.	.	.
.	.	.	.	8gg\J	.	8ggg\J	.	]	]
=146	=146	=146	=146	=146	=146	=146	=146	=146	=146
4FF# 4FFF#'/	4r	p	p	8ff#'\)	.	8fff#'\)	.	.	.
.	.	.	.	8r	.	8r	.	p	p
!	!	!	!	!	!	!LO:MO:mod=!LO&colon;TX&colon;a&colon;i&colon;t=espressivo	!	!	!
!	!	!	!	!	!	!LO:TX:b:t=espressivo.	!	!	!
4r	4e 4A#X 4F#'\	.	.	(4g^/	.	(8ee\L	.	.	.
.	.	.	.	.	.	8gg\	.	.	.
4r	4e 4A# 4F#'\	.	.	8f#/)	.	8ee\	.	.	.
.	.	.	.	8r	.	8cc#\J	.	.	.
!LO:LB:g=original	!	!	!	!LO:LB:g=original	!	!	!	!	!
=147	=147	=147	=147	=147	=147	=147	=147	=147	=147
4BB 4BBB/	4r	.	.	4r	.	8cc#\L	.	<	<
.	.	.	.	.	.	8b\J	.	.	.
4r	4d 4B 4F#\	.	.	(4g^>/	.	4cc#\	.	.	.
4r	4d 4B 4F#\	.	.	8f#/)	.	8dd\L	.	.	.
.	.	.	.	8r	.	8ee\J)	.	[	[
=148	=148	=148	=148	=148	=148	=148	=148	=148	=148
4FF# 4FFF#/	4r	.	.	4r	.	(4ff#\	.	.	.
4r	4e 4A#X 4F#\	.	.	(4g^>/	.	8ee\L	.	.	.
.	.	.	.	.	.	8gg\	.	.	.
4r	4e 4A# 4F#\	.	.	8f#/)	.	8ee\	.	.	.
.	.	.	.	8r	.	8cc#\J	.	.	.
=149	=149	=149	=149	=149	=149	=149	=149	=149	=149
4FF# 4FFF#/	4r	.	.	4r	.	8cc#\L	.	.	.
.	.	.	.	.	.	8b\J	.	.	.
4r	4d 4B 4F#\	.	.	(4g^>/	.	4.cc#\	.	.	.
4r	4d 4B 4F#\	.	.	8f#/)	.	.	.	.	.
.	.	.	.	8r	.	8dd\)	.	.	.
=150	=150	=150	=150	=150	=150	=150	=150	=150	=150
4EE 4EEE/	4r	.	.	4r	.	(4ee\	.	.	.
4r	4d 4G#X 4E\	.	.	(4g#X^>/	.	8dd\L	.	.	.
.	.	.	.	.	.	8ff#\	.	.	.
4r	4d 4G# 4E\	.	.	8f#/)	.	8dd\	.	.	.
.	.	.	.	8r	.	8b\J	.	.	.
=151	=151	=151	=151	=151	=151	=151	=151	=151	=151
4AA 4AAA/	4r	.	.	4r	.	8b\L	.	<	<
.	.	.	.	.	.	8a\J	.	.	.
4r	4c# 4A 4E\	.	.	(4f#^>/	.	4b\	.	.	.
4r	4c# 4A 4E\	.	.	8e/)	.	8cc#\L	.	.	.
.	.	.	.	8r	.	8dd\J)	.	[	[
=152	=152	=152	=152	=152	=152	=152	=152	=152	=152
4EE 4EEE/	4r	.	.	4r	.	4ee\	.	.	.
4r	4d 4G#X 4E\	.	.	(4g#X^>/	.	8dd\L	.	.	.
.	.	.	.	.	.	8ff#\	.	.	.
4r	4d 4G# 4E\	.	.	8f#/)	.	8dd\	.	.	.
.	.	.	.	8r	.	8b\J	.	.	.
=153	=153	=153	=153	=153	=153	=153	=153	=153	=153
8FF# 8FFF#/	4r	.	.	(8b/L	.	4r	.	.	.
8r	.	.	.	8a/J)	.	.	.	.	.
4r	8c# 8A 8F#'\	.	.	8a'/	.	4r	.	.	.
.	8r	.	.	8r	.	.	.	.	.
4r;	4f#^<;\	.	.	4ff#^<;\	.	4fff#^;\	.	.	.
!LO:PB:g=original	!	!	!	!LO:PB:g=original	!	!	!	!	!
=154	=154	=154	=154	=154	=154	=154	=154	=154	=154
!	!LO:MO:mod=!LO&colon;TX&colon;a&colon;i&colon;t=espressivo	!	!	!	!	!	!	!	!
!	!LO:TX:b:i:t=espressivo.	!	!	!	!	!	!	!	!
4FF#/	(4f#\	.	.	8.r	.	4r	.	.	.
.	.	.	.	16gg/KL 16cc#/ 16a#X/	.	.	.	.	.
!	!	!	!	!LO:TX:t=P:problem=mixed beam	!	!	!	!	!
4A#X 4F#'\	8e\L	.	.	8.fff#> 8.eee> 8.aa#X> 8.ff#>\	.	4ryy	.	.	.
.	8g\	.	.	.	.	.	.	.	.
.	.	.	.	16gg/Jk 16cc#/ 16a#/	.	.	.	.	.
4A# 4F#'\	8e\	.	.	4r	.	4fff# 4eee 4aa 4ff#\	.	.	.
.	8c#\J	.	.	.	.	.	.	.	.
=155	=155	=155	=155	=155	=155	=155	=155	=155	=155
4BB/	8c#\L	.	.	8.r	.	4r	.	.	.
.	8B\J	.	.	.	.	.	.	.	.
.	.	.	.	16gg/KL 16dd/ 16b/	.	.	.	.	.
!	!	!	!	!LO:TX:t=P:problem=mixed beam	!	!	!	!	!
4B 4F#\	4c#\	.	.	8.fff#> 8.bb> 8.ff#>\	.	4ryy	.	.	.
.	.	.	.	16gg/Jk 16dd/ 16b/	.	.	.	.	.
4B 4F#\	8d\L	.	.	4r	.	4fff# 4bb 4ff#\	.	.	.
.	8e\J)	.	.	.	.	.	.	.	.
=156	=156	=156	=156	=156	=156	=156	=156	=156	=156
4FF#/	(4f#\	.	.	8.r	.	4r	.	.	.
.	.	.	.	16ggn/KL 16cc#/ 16a#X/	.	.	.	.	.
!	!	!	!	!LO:TX:t=P:problem=mixed beam	!	!	!	!	!
4A#X 4F#\	8e\L	.	.	8.fff#> 8.eee> 8.aa#X> 8.ff#>\	.	4ryy	.	.	.
.	8g\	.	.	.	.	.	.	.	.
.	.	.	.	16gg/Jk 16cc#/ 16a#/	.	.	.	.	.
4A# 4F#\	8e\	.	.	4r	.	4fff# 4eee 4aa#X 4ff#\	.	.	.
.	8c#\J	.	.	.	.	.	.	.	.
=157	=157	=157	=157	=157	=157	=157	=157	=157	=157
4BB 4BBB/	8c#\L	.	.	8.r	.	4r	.	.	.
.	8B\J	.	.	.	.	.	.	.	.
.	.	.	.	16gg/KL 16dd/ 16b/	.	.	.	.	.
!	!	!	!	!LO:TX:t=P:problem=mixed beam	!	!	!	!	!
4B 4F#\	4.c#\	.	.	8.fff#> 8.bb> 8.ff#>\	.	4ryy	.	.	.
.	.	.	.	16gg/Jk 16dd/ 16b/	.	.	.	.	.
4B 4F#\	.	.	.	4r	.	4fff# 4bb 4ff#\	.	.	.
.	8d\)	.	.	.	.	.	.	.	.
=158	=158	=158	=158	=158	=158	=158	=158	=158	=158
4EE/	(4e\	.	.	8.r	.	4r	.	.	.
.	.	.	.	16ff#/KL 16b/ 16g#X/	.	.	.	.	.
!	!	!	!	!LO:TX:t=P:problem=mixed beam	!	!	!	!	!
4G#X 4E\	8d\L	.	.	8.eee> 8.ddd> 8.bb> 8.ee>\	.	4ryy	.	.	.
.	8f#\	.	.	.	.	.	.	.	.
.	.	.	.	16ff#/Jk 16b/ 16g#/	.	.	.	.	.
4G# 4E\	8d\	.	.	4r	.	4eee 4ddd 4bb 4ee\	.	.	.
.	8B\J	.	.	.	.	.	.	.	.
=159	=159	=159	=159	=159	=159	=159	=159	=159	=159
4AA 4AAA/	8B\L	.	.	8.r	.	4r	.	.	.
.	8A\J	.	.	.	.	.	.	.	.
.	.	.	.	16ff#/KL 16cc#/ 16a/	.	.	.	.	.
!	!	!	!	!LO:TX:t=P:problem=mixed beam	!	!	!	!	!
4A 4E\	4B\	.	.	8.eee> 8.ccc#> 8.aa> 8.ee>\	.	4ryy	.	.	.
.	.	.	.	16ff#/Jk 16cc#/ 16a/	.	.	.	.	.
4A 4E\	8c#\L	.	.	4r	.	4eee 4ccc# 4aa 4ee\	.	.	.
.	8d\J)	.	.	.	.	.	.	.	.
!LO:LB:g=original	!	!	!	!LO:LB:g=original	!	!	!	!	!
=160	=160	=160	=160	=160	=160	=160	=160	=160	=160
4EE/	(4e\	.	.	8.r	.	4r	.	.	.
.	.	.	.	16ff#KL 16b 16g#X\	.	.	.	.	.
!	!	!	!	!LO:TX:t=P:problem=mixed beam	!	!	!	!	!
4G#X 4E\	8d\L	.	.	8.eee> 8.ddd> 8.bb> 8.ee>\	.	4ryy	.	.	.
.	8f#\	.	.	.	.	.	.	.	.
.	.	.	.	16ff#/Jk 16b/ 16g#/	.	.	.	.	.
4G# 4E\	8d\	.	.	4r	.	4eee 4ddd 4bb 4ee\	.	.	.
.	8B\J	<	<	.	.	.	.	.	.
=161	=161	=161	=161	=161	=161	=161	=161	=161	=161
4AA 4AAA/	8B\L	.	.	8.r	.	4r	.	.	.
.	8A\	.	.	.	.	.	.	.	.
.	.	.	.	16ff#/KL 16cc#/ 16a/	.	.	.	.	.
!	!	!	!	!LO:TX:t=P:problem=mixed beam	!	!	!	!	!
4E\	8A\	.	.	8.eee> 8.ccc#> 8.aa> 8.ee>\	.	4ryy	.	.	.
.	8c#\	.	.	.	.	.	.	.	.
.	.	.	.	16ff#/Jk 16cc#/ 16a/	.	.	.	.	.
4r	8e\	.	.	4r	.	4eee 4ccc# 4aa 4ee\	.	.	.
.	8g#X\J	[	[	.	.	.	.	.	.
=162	=162	=162	=162	=162	=162	=162	=162	=162	=162
4AA 4AAA/	4a\)	.	.	4r	.	(4aa\	.	.	.
4r	4gn 4c# 4A\	.	.	(4cc#^\	.	8ggn\L	.	.	.
.	.	.	.	.	.	8bb\	.	.	.
4r	4g 4c# 4A\	.	.	8b\)	.	8gg\	.	.	.
.	.	.	.	8r	.	8ee\J	.	.	.
=163	=163	=163	=163	=163	=163	=163	=163	=163	=163
4AA 4AAA/	4r	.	.	4r	.	8ee\L	.	<	<
.	.	.	.	.	.	8dd\J	.	.	.
4r	4f# 4d 4A\	.	.	(4b^/	.	4ee\	.	.	.
4r	4f# 4d 4A\	.	.	8a/)	.	8ff#\L	.	.	.
.	.	.	.	8r	.	8gg\J)	.	[	[
=164	=164	=164	=164	=164	=164	=164	=164	=164	=164
4AA 4AAA/	4r	.	.	4r	.	(4aa\	.	.	.
4r	4g 4c# 4A\	.	.	(4cc#^\	.	8gg\L	.	.	.
.	.	.	.	.	.	8bb\	.	.	.
4r	4g 4c# 4A\	.	.	8b\)	.	8gg\	.	.	.
.	.	.	.	8r	.	8ee\J	.	.	.
=165	=165	=165	=165	=165	=165	=165	=165	=165	=165
4D 4DD/	4r	.	.	4r	.	8ee\L	.	.	.
.	.	.	.	.	.	8dd\J	.	.	.
4r	4f# 4d 4A\	.	.	(4b^/	.	4ee\	.	.	.
4r	4f# 4d 4A\	.	.	8a/)	.	8ff#\L	.	.	.
.	.	.	.	8r	.	8gg\J)	.	.	.
!	!	!	!	!LO:LB:g=original	!	!	!	!	!
=166	=166	=166	=166	=166	=166	=166	=166	=166	=166
4FF# 4FFF#/	4r	.	.	4r	.	4ff#\	.	.	.
4r	4e 4A#X 4F#\	.	.	(4g^/	.	(8ee\L	.	.	.
.	.	.	.	.	.	8gg\	.	.	.
4r	4e 4A# 4F#\	.	.	8f#/)	.	8ee\	.	.	.
.	.	.	.	8r	.	8cc#\J	.	.	.
!LO:LB:g=original	!	!	!	!	!	!	!	!	!
=167	=167	=167	=167	=167	=167	=167	=167	=167	=167
4FF# 4FFF#/	4r	.	.	4r	.	8cc#\L	.	<	<
.	.	.	.	.	.	8b\J	.	.	.
4r	4d 4B 4F#\	.	.	(4g^/	.	4cc#\	.	.	.
4r	4d 4B 4F#\	.	.	8f#/)	.	8dd\L	.	.	.
.	.	.	.	8r	.	8ee\J)	.	[	[
=168	=168	=168	=168	=168	=168	=168	=168	=168	=168
4FF# 4FFF#/	4r	.	.	4r	.	(4ff#\	.	.	.
4r	4e 4A#X 4F#\	.	.	(4g^/	.	8ee\L	.	.	.
.	.	.	.	.	.	8gg\	.	.	.
4r	4e 4A# 4F#\	.	.	8f#/)	.	8ee\	.	>	>
.	.	.	.	8r	.	8cc#\J	.	.	.
=169	=169	=169	=169	=169	=169	=169	=169	=169	=169
4BB 4BBB/	4r	.	.	4r	.	8cc#\L	.	.	.
.	.	.	.	.	.	8b\J	.	.	.
4r	4d 4B 4F#\	.	.	(8g/L	.	8b\)	.	]	]
.	.	.	.	8f#/J)	.	8r	.	.	.
4r	4d 4B 4F#\	.	.	8f#/	.	4r	.	.	.
.	.	.	.	8r	.	.	.	.	.
=170	=170	=170	=170	=170	=170	=170	=170	=170	=170
!	!LO:MO:mod=!LO&colon;TX&colon;a&colon;i&colon;t=risoluto	!	!	!	!	!LO:MO:mod=!LO&colon;TX&colon;a&colon;i&colon;t=risoluto	!	!	!
!	!null	!	!	!	!	!null	!	!	!
4C# 4CC#'/	4r	mf	mf	4r	.	8a'\L	.	mf	mf
.	.	.	.	.	.	16r	.	.	.
!	!	!	!	!	!	!LO:MO:mod=!null:null	!	!	!
!	!	!	!	!	!	!LO:TX:b:t=risoluto.	!	!	!
.	.	.	.	.	.	16b\Jk	.	.	.
!	!LO:MO:mod=!null:null	!	!	!	!	!	!	!	!
!	!LO:TX:b:i:t=risoluto.	!	!	!	!	!	!	!	!
4r	(4A 4G\	.	.	(8g/L	.	(4.cc#\	.	.	.
.	.	.	.	8f#/	.	.	.	.	.
4AA 4AAA'/	8B\L	.	.	8g/	.	.	.	.	.
.	8c#\J	.	.	8e/J)	.	8a/	.	.	.
=171	=171	=171	=171	=171	=171	=171	=171	=171	=171
4D 4DD'/	4d 4F#'\)	.	.	8f#/L	.	8dd'\)	.	.	.
.	.	.	.	16r	.	8r	.	.	.
.	.	.	.	(16g#X/K	.	.	.	.	.
4r	(8dL 8F#\	.	.	8a/	.	(4.ff#^\	.	.	.
.	8G#X\J	.	.	8b/J	.	.	.	.	.
4AA 4AAA'/	4A\)	.	.	4a/)	.	.	.	.	.
.	.	.	.	.	.	8cc#\	.	.	.
=172	=172	=172	=172	=172	=172	=172	=172	=172	=172
4D 4DD'/	4r	.	.	8a'/	.	8dd\L	.	.	.
.	.	.	.	8r	.	8aaJ 8ff#\	.	.	.
4r	4d 4B'\	.	.	8b'\	.	8gg#X 8ee'\)	.	.	.
.	.	.	.	8r	.	8r	.	.	.
4AA 4AAA'/	4d 4A'\	.	.	8dd 8a'\	.	8aa 8ff#'\	.	.	.
.	.	.	.	8r	.	8r	.	.	.
!	!	!	!	!LO:LB:g=original	!	!	!	!	!
=173	=173	=173	=173	=173	=173	=173	=173	=173	=173
8GG 8GGG'/	8BL 8G\	.	.	8dd 8b'\	.	8bb 8gg'\	.	.	.
8r	16r	.	.	8r	.	8r	.	.	.
.	(16c#\K	.	.	.	.	.	.	.	.
2D 2DD^>/	8e 8F#^\	.	.	2dd 2a^\	.	2aa 2ff#^\	.	.	.
.	8d\	.	.	.	.	.	.	.	.
.	8A\	.	.	.	.	.	.	.	.
.	8F#\J	.	.	.	.	.	.	.	.
!LO:LB:g=original	!	!	!	!	!	!	!	!	!
=174	=174	=174	=174	=174	=174	=174	=174	=174	=174
8C# 8CC#'/	8A 8G'\)	.	.	8g/	.	8a\L	.	.	.
8r	8r	.	.	8r	.	16r	.	.	.
.	.	.	.	.	.	(16b\Jk	.	.	.
4r	(4A 4G\	.	.	(8g/L	.	4.cc#\	.	.	.
.	.	.	.	8f#/	.	.	.	.	.
4AA 4AAA'/	8B\L	.	.	8g/	.	.	.	.	.
.	8c#\J	.	.	8e/J	.	8a/	.	.	.
=175	=175	=175	=175	=175	=175	=175	=175	=175	=175
4D 4DD'/	4d 4F#\)	.	.	8f#'/L)	.	8dd'\)	.	.	.
.	.	.	.	16r	.	8r	.	.	.
.	.	.	.	(16g#X/K	.	.	.	.	.
4r	(8dL 8F#\	.	.	8a/	.	4.ff#\	.	.	.
.	8G#X\J	.	.	8b/J	.	.	.	.	.
4AA 4AAA'/	4d 4F#\)	.	.	4a/)	.	.	.	.	.
.	.	.	.	.	.	8cc#\	.	.	.
=176	=176	=176	=176	=176	=176	=176	=176	=176	=176
4BB 4BBB'/	4r	.	.	8a 8f#'/	.	(8dd\L	.	.	.
.	.	.	.	8r	.	8ff#\J)	.	.	.
4r	4d 4F#\	.	.	(4a^/	.	8ee#X 8cc#'\	.	.	.
.	.	.	.	.	.	8r	.	.	.
4r	4d 4F#\	.	.	8g#X/L	.	8ff# 8dd'\	.	.	.
.	.	.	.	8f#/J)	.	8r	.	.	.
=177	=177	=177	=177	=177	=177	=177	=177	=177	=177
4E 4EE'/	8.r	<	<	8g#X'/	.	8gg#X 8een'\	.	.	.
.	.	.	.	8r	.	8r	.	.	.
.	16A#X\	.	.	.	.	.	.	.	.
4r	8B\L	.	.	2g#^/	.	2ff# 2dd^\	.	.	.
.	8c#\	.	.	.	.	.	.	.	.
4r	8d\	.	.	.	.	.	.	.	.
.	8B\J	[	[	.	.	.	.	.	.
=178	=178	=178	=178	=178	=178	=178	=178	=178	=178
4E 4EE/	4c# 4An 4G'\	f	f	8cc# 8gn'/	.	8aaL 8ggn'\	.	f	f
.	.	.	.	8r	.	16r	.	.	.
.	.	.	.	.	.	16bb\Jk	.	.	.
4r	(4c# 4A 4G^\	.	.	(4cc# 4g^/	.	(4ccc# 4gg^\	.	.	.
4AA 4AAA/	8d\L	.	.	8b/L	.	8bb\L	.	.	.
.	8e\J)	.	.	8a/J	.	8aa\J	.	.	.
=179	=179	=179	=179	=179	=179	=179	=179	=179	=179
4D 4DD/	4d 4A\	.	.	8dd'\L)	.	8dddL 8aa'\)	.	.	.
.	.	.	.	16r	.	16r	.	.	.
.	.	.	.	16ee\Jk	.	16eee\Jk	.	.	.
*	*clefG2	*	*	*	*	*	*	*	*
4r	8dL 8A/	.	.	4.ff#^\	.	4.fff# 4.aa^\	.	.	.
.	8e/	.	.	.	.	.	.	.	.
4AA 4AAA/	8f#/	.	.	.	.	.	.	.	.
.	8g/J	.	.	8cc#\	.	8ccc#\	.	.	.
!LO:LB:g=original	!	!	!	!LO:LB:g=original	!	!	!	!	!
=180	=180	=180	=180	=180	=180	=180	=180	=180	=180
*	*	*	*	*	*	*8va	*	*	*
4BB 4BBB'/	8f#/L	.	.	(8dd\L	.	(8ddd\L	.	.	.
.	8c#/	.	.	8aaJ 8ff#\	.	8aaaJ 8fff#\	.	.	.
4r	8d/	.	.	4gg#X 4ee'\)	.	4ggg#X 4eee'\)	.	.	.
.	8A/J	.	.	.	.	.	.	.	.
4BB 4BBB'/	4a 4f#'/	.	.	4aa 4ff#'\	.	4aaa 4fff#'\	.	.	.
=181	=181	=181	=181	=181	=181	=181	=181	=181	=181
4Cn 4CCn'/	4g 4e 4B/	.	.	8bb 8ggn'\	.	8bbb 8gggn'\	.	.	.
.	.	.	.	8r	.	8r	.	.	.
2C#X 2CC#X^/	8gL 8e 8A^/	.	.	8aa^\L	.	2aaa 2ggg 2ccc#^\	.	.	.
.	8B/	.	.	8gg\	.	.	.	.	.
.	8e/	.	.	8ee\	.	.	.	.	.
.	8g/J	.	.	8cc#\J	.	.	.	.	.
*	*	*	*	*	*	*X8va	*	*	*
=182	=182	=182	=182	=182	=182	=182	=182	=182	=182
4C# 4CC#'/	4g 4e 4A'/	.	.	8cc#'\	.	8aaL 8gg\	.	.	.
.	.	.	.	8r	.	16r	.	.	.
.	.	.	.	.	.	16bb\Jk	.	.	.
4r	(4g 4e 4A^>/	.	.	4cc#^\	.	4ccc# 4gg^\	.	.	.
4AA 4AAA'/	8d/L	.	.	8b\L	.	8bb\L	.	.	.
.	8e/J)	.	.	8a\J	.	8aa\J	.	.	.
=183	=183	=183	=183	=183	=183	=183	=183	=183	=183
!	!	!	!	!	!	!	!	!LO:TX:b:t=cresc.dynamics with extention lines	!LO:TX:b:t=cresc.dynamics with extention lines
4D 4DD'/	8f#L 8A'/	<	<	8ddL 8a\	.	8dddL 8aa\	.	<	<
.	16r	.	.	16r	.	16r	.	.	.
.	(16e/Jk	.	.	16ee\Jk	.	16eee\Jk	.	.	.
4r	8dL 8A^>/	.	.	4.ff# 4.a^\	.	(4.fff# 4.aa^\	.	.	.
.	8c#/	.	.	.	.	.	.	.	.
4AA 4AAA'/	8d 8A/	.	.	.	.	.	.	.	.
.	8e/J)	.	.	8cc#\	.	8ccc#\	.	.	.
=184	=184	=184	=184	=184	=184	=184	=184	=184	=184
4D 4DD/	8fnL 8A'/	.	.	8ddL 8a'\	.	8dddL 8aa'\)	.	.	.
.	16r	.	.	16r	.	16r	.	.	.
.	(16e/Jk	.	.	16ee\Jk	.	16eee\Jk	.	.	.
4r	8dL 8A^>/	.	.	4.ffn 4.a\	.	(4.fffn 4.aa\	.	.	.
.	8c#/	.	.	.	.	.	.	.	.
4AA 4AAA'/	8d 8A/	.	.	.	.	.	.	.	.
.	8e/J)	.	.	8cc#\	.	8ccc#\	.	.	.
!LO:LB:g=original	!	!	!	!	!	!	!	!	!
=185	=185	=185	=185	=185	=185	=185	=185	=185	=185
4D 4DD'/	8fnL 8A'/	.	.	8ddL 8a'\	.	8dddL 8aa'\)	.	.	.
.	16r	.	.	16r	.	16r	.	.	.
.	(16e/K	.	.	(16ee\Jk	.	(16eee\Jk	.	.	.
4r	8d 8A/	.	.	8ffn\L	.	8fffn\L	.	.	.
.	8c#/	.	.	8ee\	.	8eee\	.	.	.
4AA 4AAA'/	8d 8A/	.	.	8ff\	.	8fff\	.	.	.
.	8e/J)	.	[	8gg\J)	.	8ggg\J)	.	[	[
!	!	!	!	!LO:LB:g=original	!	!	!	!	!
*kcancel	*kcancel	*	*	*kcancel	*	*kcancel	*	*	*
=186||	=186||	=186||	=186||	=186||	=186||	=186||	=186||	=186||	=186||
*k[b-]	*k[b-]	*	*	*k[b-]	*	*k[b-]	*	*	*
*M3/8	*M3/8	*	*	*M3/8	*	*M3/8	*	*	*
!	!	!	!	!	!	!LO:MO:mod=*null:null	!	!	!
*	*	*	*	*	*	*Xtuplet	*	*	*
*	*	*	*	*	*	*8va	*	*	*
!	!LO:TX:a:t=P:problem:w nawiasie ósemka = ćwierćnuta	!LO:DY:rj	!LO:DY:rj	!LO:TX:a:t=P:problem:w nawiasie ósemka = ćwierćnuta	!	!	!	!	!
(16DLL 16DD/	(16dLL 16A/	p	p	8r	.	(24aaa\LL	.	p	p
.	.	.	.	.	.	24bbb-\	.	.	.
16EJ 16EE/	16e/J	.	.	.	.	.	.	.	.
.	.	.	.	.	.	24aaa\JJ	.	.	.
8F 8FF'/)	8f'/)	.	.	8dddL 8aa'\	.	24fff\LL	.	.	.
.	.	.	.	.	.	24aaa\	.	.	.
.	.	.	.	.	.	24fff\JJ	.	.	.
8FJ 8FF'/	8f'/J	.	.	8aaJ 8ff'\	.	24ddd\LL	.	.	.
.	.	.	.	.	.	24fff\	.	.	.
.	.	.	.	.	.	24ddd\JJ	.	.	.
*	*	*	*	*	*	*X8va	*	*	*
=187	=187	=187	=187	=187	=187	=187	=187	=187	=187
(16GLL 16GG/	(16gLL 16A/	.	.	8r	.	24aa\LL	.	.	.
.	.	.	.	.	.	24bb-\	.	.	.
16FJ 16FF/	16f/J	.	.	.	.	.	.	.	.
.	.	.	.	.	.	24aa\JJ	.	.	.
8E 8EE'/)	8e'/)	.	.	8ddL 8a'/	.	24ff\LL	.	.	.
.	.	.	.	.	.	24aa\	.	.	.
.	.	.	.	.	.	24ff\JJ	.	.	.
8DJ 8DD'/	8d'/J	.	.	8aJ 8f'/	.	24dd\LL	.	.	.
.	.	.	.	.	.	24ff\	.	.	.
.	.	.	.	.	.	24dd\JJ)	.	.	.
=188	=188	=188	=188	=188	=188	=188	=188	=188	=188
!	!	!	!	!	!	!LO:TX:t=P:problem=mixed beam	!	!	!
4.AA 4.DD/	(4e 4c#X 4A 4G^>/	.	.	16ryy	.	(24a</LL	.	.	.
.	.	.	.	.	.	24bn\	.	.	.
.	.	.	.	16r	.	.	.	.	.
.	.	.	.	.	.	24cc#X\JJ	.	.	.
.	.	.	.	8r	.	24dd\LL	.	<	<
.	.	.	.	.	.	24ee\	.	.	.
.	.	.	.	.	.	24dd\JJ	.	.	.
.	8A'/)	.	.	8a'/	.	24cc#\LL	.	.	.
.	.	.	.	.	.	24b\	.	.	.
.	.	.	.	.	.	24a\JJ	.	.	.
=189	=189	=189	=189	=189	=189	=189	=189	=189	=189
(4E 4DD^/	(4e 4c#X 4A 4G^>/	.	.	4r	.	24bn\LL	.	.	.
.	.	.	.	.	.	24cc#X\	.	.	.
.	.	.	.	.	.	24dd\JJ	.	.	.
.	.	.	.	.	.	24ee\LL	.	.	.
.	.	.	.	.	.	24ff\	.	.	.
.	.	.	.	.	.	24gg\JJ	.	.	.
8AA 8AAA'/)	8A'/)	.	.	8a'/	.	8aa'\)	.	[	[
=190	=190	=190	=190	=190	=190	=190	=190	=190	=190
*	*	*	*	*	*	*8va	*	*	*
16DLL 16DD/	(16dLL 16A/	.	.	8r	.	24aaa\LL	.	.	.
.	.	.	.	.	.	24bbb-\	.	.	.
16EJ 16EE/	16e/J	.	.	.	.	.	.	.	.
.	.	.	.	.	.	24aaa\JJ	.	.	.
8F 8FF'/	8f'/)	.	.	8dddL 8aa'\	.	24fff\LL	.	.	.
.	.	.	.	.	.	24aaa\	.	.	.
.	.	.	.	.	.	24fff\JJ	.	.	.
8FJ 8FF'/	8f'/J	.	.	8aaJ 8ff'\	.	24ddd\LL	.	.	.
.	.	.	.	.	.	24fff\	.	.	.
.	.	.	.	.	.	24ddd\JJ	.	.	.
*	*	*	*	*	*	*X8va	*	*	*
!LO:PB:g=original	!	!	!	!LO:PB:g=original	!	!	!	!	!
=191	=191	=191	=191	=191	=191	=191	=191	=191	=191
*^	*^	*	*	*	*	*	*	*	*
4.AAtt/	4.DD\	16g/LL	4A\	.	.	8r	.	(24aa\LL	.	.	.
.	.	.	.	.	.	.	.	24bb-\	.	.	.
.	.	16f/	.	.	.	.	.	.	.	.	.
.	.	.	.	.	.	.	.	24aa\JJ)	.	.	.
!	!	!	!	!	!	!LO:MO:mod=*null:null	!	!	!	!	!
*	*	*	*	*	*	*Xtuplet	*	*	*	*	*
.	.	16e/	.	.	.	24a/LL	.	8r	.	.	.
.	.	.	.	.	.	24b-/	.	.	.	.	.
.	.	16d/	.	.	.	.	.	.	.	.	.
.	.	.	.	.	.	24a/JJ	.	.	.	.	.
.	.	16c#X/	8A 8G\	.	.	8r	.	(24aa\LL	.	.	.
.	.	.	.	.	.	.	.	24bb-\	.	.	.
.	.	16e/JJ	.	.	.	.	.	.	.	.	.
.	.	.	.	.	.	.	.	24aa\JJ)	.	.	.
*v	*v	*	*	*	*	*	*	*	*	*	*
*	*v	*v	*	*	*	*	*	*	*	*
*	*clefF4	*	*	*	*	*	*	*	*
=192	=192	=192	=192	=192	=192	=192	=192	=192	=192
(4D 4GG/	(4d 4B- 4G\	.	.	8r	.	(24dd\LL	.	<	<
.	.	.	.	.	.	24ee\	.	.	.
.	.	.	.	.	.	24ff\JJ	.	.	.
*	*	*	*	*tuplet	*	*	*	*	*
!	!	!	!	!LO:TUP:b	!	!	!	!	!
.	.	.	.	(24g/LL	.	24gg\LL	.	.	.
.	.	.	.	24a/	.	24aa\	.	.	.
.	.	.	.	24g/JJ	.	24gg\JJ	.	.	.
!	!	!	!	!LO:MO:mod=*null:null	!	!	!	!	!
*	*	*	*	*Xtuplet	*	*	*	*	*
8D 8DD'/)	8B- 8F'\)	.	.	24f/LL	.	24ff\LL	.	.	.
.	.	.	.	24e/	.	24ee\	.	.	.
.	.	.	.	24d/JJ	.	24dd\JJ	.	.	.
=193	=193	=193	=193	=193	=193	=193	=193	=193	=193
(4GG 4GGG/	(4B- 4G 4D\	.	.	24e/LL	.	24ee\LL	.	.	.
.	.	.	.	24f/	.	24ff\	.	.	.
.	.	.	.	24g/JJ	.	24gg\JJ	.	.	.
.	.	.	.	24a/LL	.	24aa\LL	.	.	.
.	.	.	.	24b-/	.	24bb-\	.	.	.
.	.	.	.	24cc#X/JJ)	.	24ccc#X\JJ)	.	[	[
8DD 8DDD'/)	8A 8F 8D'\)	.	sf	8dd'\	.	8ddd'\	.	sf	sf
=194	=194	=194	=194	=194	=194	=194	=194	=194	=194
*	*	*	*	*	*	*8va	*	*	*
.	.	.	.	.	.	(8qbbb- 8qddd N8qbb-/	.	.	.
16DLL 16DD/	16dLL 16A\	f	f	8aaL 8dd 8a'\N)	.	8ryy	.	f	f
16EJ 16EE/	16eJ 16A\	.	.	.	.	.	.	.	.
.	.	.	.	.	.	(8qbbb- 8qddd N8qbb-/	.	.	.
8F 8FF'/	8f 8A'\	.	.	8aa 8dd 8a'\N)	.	8ryy	.	.	.
.	.	.	.	.	.	(8qbbb- 8qddd N8qbb-/	.	.	.
8FJ 8FF'/	8fJ 8A'\	.	.	8aaJ 8dd 8a'\N)	.	8ryy	.	.	.
=195	=195	=195	=195	=195	=195	=195	=195	=195	=195
.	.	.	.	.	.	(8qbbb- 8qddd N8qbb-/	.	.	.
16GLL 16GG/	16gLL 16A\	.	.	8aaL 8dd 8a'\N)	.	8ryy	.	.	.
16FJ 16FF/	16fJ 16A\	.	.	.	.	.	.	.	.
.	.	.	.	.	.	(8qbbb- 8qddd N8qbb-/	.	.	.
8E 8EE'/	8e 8A'\	.	.	8aa 8dd 8a'\N)	.	8ryy	.	.	.
.	.	.	.	.	.	(8qbbb- 8qddd N8qbb-/	.	.	.
8DJ 8DD'/	8dJ 8A'\	.	.	8aaJ 8dd 8a'\N)	.	8ryy	.	.	.
=196	=196	=196	=196	=196	=196	=196	=196	=196	=196
*	*	*	*	*tuplet	*	*tuplet	*	*	*
!	!	!	!	!LO:TUP:a	!	!LO:TUP:a	!	!	!
(4E 4EE^/	(4e 4c#X 4A 4G^\	.	.	(24aa^\LL	.	(24aaa^\LL	.	.	.
.	.	.	.	24gg\	.	24ggg\	.	.	.
.	.	.	.	24ff\JJ	.	24fff\JJ	.	.	.
.	.	.	.	32ee\LLL	.	32eee\LLL	.	.	.
.	.	.	.	32dd\	.	32ddd\	.	.	.
.	.	.	.	32cc#X\	.	32ccc#X\	.	.	.
.	.	.	.	32b-\JJJ)	.	32bb-\JJJ)	.	.	.
!	!LO:SIC:o=8A\):v	!	!	!	!	!	!	!	!
8AA'/)	8A\)'	.	.	8a'/	.	8aa'/	.	.	.
!	!	!	!	!LO:LB:g=original	!	!	!	!	!
=197	=197	=197	=197	=197	=197	=197	=197	=197	=197
!	!	!	!	!LO:TUP:a	!	!LO:TUP:a	!	!	!
(4E 4DD^/	(4e 4c#X 4A 4G^\	.	.	(24a^\LL	.	(24aa^\LL	.	.	.
.	.	.	.	24b-\	.	24bb-\	.	.	.
.	.	.	.	24cc#X\JJ	.	24ccc#X\JJ	.	.	.
.	.	.	.	32dd\LLL	.	32ddd\LLL	.	.	.
.	.	.	.	32ee\	.	32eee\	.	.	.
.	.	.	.	32ff\	.	32fff\	.	.	.
.	.	.	.	32gg\JJJ)	.	32ggg\JJJ)	.	.	.
!	!LO:SIC:o=8A\):v	!	!	!	!	!	!	!	!
8AA 8AAA'/)	8A\)'	.	.	8aa'\	.	8aaa'\	.	.	.
!LO:LB:g=original	!	!	!	!	!	!	!	!	!
=198	=198	=198	=198	=198	=198	=198	=198	=198	=198
.	.	.	.	.	.	(8qbbb- 8qddd N8qbb-/	.	.	.
16DLL 16DD/	16dLL 16A\	.	.	8aaL 8dd 8a'\N)	.	8ryy	.	.	.
16EJ 16EE/	16eJ 16A\	.	.	.	.	.	.	.	.
.	.	.	.	.	.	(8qbbb- 8qddd N8qbb-/	.	.	.
8F 8FF'/	8f 8A'\	.	.	8aa 8dd 8a'\N)	.	8ryy	.	.	.
.	.	.	.	.	.	(8qbbb- 8qddd N8qbb-/	.	.	.
8FJ 8FF'/	8fJ 8A'\	.	.	8aaJ 8dd 8a'\N)	.	8ryy	.	.	.
=199	=199	=199	=199	=199	=199	=199	=199	=199	=199
.	.	.	.	.	.	(8qbbb- 8qeee N8qbb-/	.	.	.
16GLL 16AA^\	16gLL 16A^\	.	.	8aaL 8ee 8a'\N)	.	8ryy	.	.	.
16F\	16f\	.	.	.	.	.	.	.	.
.	.	.	.	.	.	(8qbbb- 8qeee N8qbb-/	.	.	.
16E\	16e\	.	.	8aa 8ee 8a'\N)	.	8ryy	.	.	.
16D\	16d\	.	.	.	.	.	.	.	.
.	.	.	.	.	.	(8qbbb- 8qeee N8qbb-/	.	.	.
16C#X\	16c#X\	.	.	8aaJ 8ee 8a'\N)	.	8ryy	.	.	.
16E\JJ	16e\JJ	.	.	.	.	.	.	.	.
=200	=200	=200	=200	=200	=200	=200	=200	=200	=200
!	!	!	!	!LO:TUP:a	!	!LO:TUP:a	!	!	!
4D\	(4f 4A\	.	.	(24aa^\LL	.	(24aaa^\LL	.	.	.
.	.	.	.	24gg\	.	24ggg\	.	.	.
.	.	.	.	24ff\JJ	.	24fff\JJ	.	.	.
!	!	!	!	!LO:MO:mod=*null:null	!	!LO:MO:mod=*null:null	!	!	!
*	*	*	*	*Xtuplet	*	*Xtuplet	*	*	*
.	.	.	.	24ee\LL	.	24eee\LL	.	.	.
.	.	.	.	24dd\	.	24ddd\	.	.	.
.	.	.	.	24cc#X\JJ)	.	24ccc#X\JJ)	.	.	.
8D 8DD'/	8d 8A 8F'\)	.	.	8dd'\	.	8ddd'\	.	.	.
=201	=201	=201	=201	=201	=201	=201	=201	=201	=201
(4GG 4GGG/	(4d 4B- 4G 4D\	.	.	24dd\LL	.	24ddd\LL	.	<	<
.	.	.	.	24ee\	.	24eee\	.	.	.
.	.	.	.	24ff\JJ	.	24fff\JJ	.	.	.
.	.	.	.	32gg\LLL	.	32ggg\LLL	.	.	.
.	.	.	.	32aa\	.	32aaa\	.	.	.
.	.	.	.	32bb-\	.	32bbb-\	.	.	.
.	.	.	.	32ccc#X\JJJ	.	32cccc#X\JJJ	.	[	[
8DD 8DDD'/)	8d 8B- 8G 8D'\)	.	.	8ddd'\	.	8dddd'\	.	.	.
=202	=202	=202	=202	=202	=202	=202	=202	=202	=202
*	*	*	*	*tuplet	*	*tuplet	*	*	*
(4EE 4EEE/	4d 4G#X 4D\	ff	ff	(24dd^\LL	.	(24ddd^\LL	.	ff <	ff <
.	.	.	.	24ee\	.	24eee\	.	.	.
.	.	.	.	24ff#X\JJ	.	24fff#X\JJ	.	.	.
.	.	.	.	32gg#X\LLL	.	32ggg#X\LLL	.	.	.
.	.	.	.	32aa\	.	32aaa\	.	.	.
.	.	.	.	32bbn\	.	32bbbn\	.	.	.
.	.	.	.	32ccc#X\JJJ	.	32cccc#X\JJJ	.	.	.
8FF 8FFF'/)	8d 8A 8D'\	.	.	8ddd'\)	.	8dddd'\)	.	[	[
*	*	*	*	*	*	*X8va	*	*	*
!	!	!	!	!LO:LB:g=original	!	!	!	!	!
=203	=203	=203	=203	=203	=203	=203	=203	=203	=203
*	*	*	*	*	*	*8va	*	*	*
!	!	!	!	!LO:TUP:a	!	!LO:TUP:a	!	!	!
(4GGn 4GGGn/	4d 4B- 4BB-\	.	.	(24ddd^\LL	.	(24dddd^\LL	.	.	.
.	.	.	.	24cccn\	.	24ccccn\	.	.	.
.	.	.	.	24bb-X\JJ	.	24bbb-X\JJ	.	.	.
.	.	.	.	32aa\LLL	.	32aaa\LLL	.	.	.
.	.	.	.	32ggn\	.	32gggn\	.	.	.
.	.	.	.	32ffn\	.	32fffn\	.	.	.
.	.	.	.	32ee\JJJ	.	32eee\JJJ	.	.	.
8FF 8FFF'/)	8d 8A 8D'\	.	.	8dd'\)	.	8ddd'\)	.	.	.
=204	=204	=204	=204	=204	=204	=204	=204	=204	=204
!	!	!	!	!LO:TUP:a	!	!LO:TUP:a	!	!	!
(4EE 4EEE/	4d 4G#X 4D\	.	.	(24dd\LL	.	(24ddd\LL	.	.	.
.	.	.	.	24een\	.	24eeen\	.	.	.
.	.	.	.	24ff#X\JJ	.	24fff#X\JJ	.	.	.
.	.	.	.	32gg#X\LLL	.	32ggg#X\LLL	.	.	.
.	.	.	.	32aa\	.	32aaa\	.	.	.
.	.	.	.	32bbn\	.	32bbbn\	.	.	.
.	.	.	.	32ccc#X\JJJ	.	32cccc#X\JJJ	.	.	.
8FF 8FFF'/)	8d 8A 8D'\	.	.	8ddd'\)	.	8dddd'\)	.	.	.
=205	=205	=205	=205	=205	=205	=205	=205	=205	=205
!	!	!	!	!LO:TUP:a	!	!LO:TUP:a	!	!	!
(4GGn 4GGGn/	4d 4B- 4BB-\	.	.	(24ddd^\LL	.	(24dddd^\LL	.	.	.
.	.	.	.	24cccn\	.	24ccccn\	.	.	.
.	.	.	.	24bb-X\JJ	.	24bbb-X\JJ	.	.	.
.	.	.	.	32aa\LLL	.	32aaa\LLL	.	.	.
.	.	.	.	32ggn\	.	32gggn\	.	.	.
.	.	.	.	32ffn\	.	32fffn\	.	.	.
.	.	.	.	32ee\JJJ	.	32eee\JJJ	.	.	.
8FF 8FFF'/)	8d 8A 8D'\	.	.	8dd'\)	.	8ddd'\)	.	.	.
!LO:LB:g=original	!	!	!	!	!	!	!	!	!
=206	=206	=206	=206	=206	=206	=206	=206	=206	=206
!	!	!	!	!LO:TUP:a	!	!LO:TUP:a	!	!	!
4EE 4EEE/	4d 4G#X 4D\	.	.	(24dd^\LL	.	(24ddd^\LL	.	.	.
.	.	.	.	24een\	.	24eeen\	.	.	.
.	.	.	.	24ff#X\JJ	.	24fff#X\JJ	.	.	.
.	.	.	.	32gg#X\LLL	.	32ggg#X\LLL	.	.	.
.	.	.	.	32aa\	.	32aaa\	.	.	.
.	.	.	.	32bbn\	.	32bbbn\	.	.	.
.	.	.	.	32ccc#X\JJJ	.	32cccc#X\JJJ	.	.	.
8FF 8FFF'/	8d 8A 8D'\	.	.	8ddd'\)	.	8dddd'\)	.	.	.
=207	=207	=207	=207	=207	=207	=207	=207	=207	=207
[4.FF#X [4.FFF#X/	[4.d [4.B- [4.D\	.	.	(8.ddd^\L	.	(8.dddd^\L	.	.	.
.	.	.	.	16bb-\K	.	16bbb-\K	.	.	.
.	.	.	.	8aa\J)	.	8aaa\J)	.	.	.
*	*	*	*	*	*	*X8va	*	*	*
!	!	!	!	!LO:LB:g=original	!	!	!	!	!
=208	=208	=208	=208	=208	=208	=208	=208	=208	=208
4.FF#] 4.FFF#/]	4.d] 4.B-] 4.D\]	.	.	(8.dd\L	.	(8.ddd\L	.	.	.
.	.	.	.	16b-\K	.	16bb-\K	.	.	.
.	.	.	.	8a\J)	.	8aa\J)	.	.	.
=209	=209	=209	=209	=209	=209	=209	=209	=209	=209
[4.FFn [4.FFFn/	4.A 4.D\	.	.	4.d/	.	(8.dd\L	.	.	.
.	.	.	.	.	.	16b-\K	.	.	.
.	.	.	.	.	.	8a\J)	.	.	.
=210	=210	=210	=210	=210	=210	=210	=210	=210	=210
4.FF] 4.FFF/]	8.AL 8.F\	.	.	4.d/	.	4.a/	.	.	.
.	16B-\K	.	.	.	.	.	.	.	.
.	8A\J	.	.	.	.	.	.	.	.
=211	=211	=211	=211	=211	=211	=211	=211	=211	=211
[4.E [4.EE/	4.B- 4.G\	>	>	(8.gL 8.d/	.	(8.dddL 8.dd\	.	>	>
.	.	.	.	16a/K	.	16aa\K	.	.	.
.	.	.	.	8g/J)	.	8gg\J)	.	.	.
=212	=212	=212	=212	=212	=212	=212	=212	=212	=212
4.E] 4.EE/]	8.B-L 8.G\	.	.	(8.gL 8.d/	.	8dd\	.	.	.
.	.	.	.	.	.	8r	.	.	.
.	16A\K	.	.	16a/K	.	.	.	.	.
.	8G\J	.	.	8g/J)	.	8r	.	.	.
=213	=213	=213	=213	=213	=213	=213	=213	=213	=213
(4F 4FF/	4A\	.	.	(4a 4d/	.	4.r	.	.	.
8E 8EE/	[8G#X\	.	.	8g#X 8e/	.	.	.	.	.
=214	=214	=214	=214	=214	=214	=214	=214	=214	=214
4C 4CC/	4G#\]	.	.	4e/	.	8r	.	.	.
.	.	.	.	.	.	8r	.	.	.
8BB-X 8BBB-X/)	8G#X\	.	.	8d/	.	8g#X/	.	.	.
!LO:LB:g=original	!	!	!	!	!	!	!	!	!
=215	=215	=215	=215	=215	=215	=215	=215	=215	=215
[4.AA [4.AAA/	(8A\L	p	p	4.e 4.d/	.	4.a/)	.	.	.
.	8E\	.	.	.	.	.	.	.	.
.	8A\J	.	.	.	.	.	.	.	.
=216	=216	=216	=216	=216	=216	=216	=216	=216	=216
!	!	!	!	!	!	!LO:MO:mod=!null:null	!	!	!
!	!	!	!	!	!	!LO:TX:b:t=1	!	!	!
4.AA_ 4.AAA/_	8Bn\L	.	.	4.r	.	4.r	.	.	.
.	8e\	.	.	.	.	.	.	.	.
.	8c#X\J	.	.	.	.	.	.	.	.
!	!	!	!	!LO:LB:g=original	!	!	!	!	!
=217	=217	=217	=217	=217	=217	=217	=217	=217	=217
!	!LO:TX:b:i:t=molto rit.	!	!	!	!	!	!	!	!
4.AA_ 4.AAA/_	4Bn\	.	.	8r	.	4.r	.	.	.
!	!	!	!	!LO:MO:mod=!LO&colon;TX&colon;a&colon;i&colon;t=molto rit.	!	!	!	!	!
!	!	!	!	!LO:TX:a:t=molto riten.	!	!	!	!	!
.	.	.	.	N(>8e/L	.	.	.	.	.
.	8A\	.	.	8a/J	.	.	.	.	.
=218	=218	=218	=218	=218	=218	=218	=218	=218	=218
4.AA] 4.AAA/]	4G#X\	.	.	4.bn 4.e/	.	8r	.	.	.
.	.	.	.	.	.	8ee\L	.	.	.
.	8Gn\)	.	.	.	.	8cc#X\JN)	.	.	.
=219||	=219||	=219||	=219||	=219||	=219||	=219||	=219||	=219||	=219||
*k[bnf#c#]	*k[bnf#c#]	*	*	*k[bnf#c#]	*	*k[bnf#c#]	*	*	*
*	*^	*	*	*	*	*	*	*	*
*tremolo	*	*	*	*	*	*	*	*	*	*
!	!LO:MO:mod=!LO&colon;TX&colon;b&colon;i&colon;t=espressivo	!	!	!	!	!	!	!	!	!
!	!LO:TX:b:i:t=espressivo.	!	!	!	!	!	!	!	!	!
!	!LO:MO:mod=!LO&colon;TX&colon;a&colon;B&colon;t=Andante	!	!	!	!	!	!LO:MO:mod=!LO&colon;TX&colon;a&colon;B&colon;t=Andante	!	!	!
!	!LO:TX:a:t=And.te	!	!LO:DY:rj:b=2	!LO:DY:rj:b=2	!	!	!LO:TX:a:t=Andante	!	!	!
32DD/LLL	(8A/L	4F#\	pp <	pp <	4.a/	.	4.aa\	.	.	pp
32AA/	.	.	.	.	.	.	.	.	.	.
32DD/	.	.	.	.	.	.	.	.	.	.
32AA/	.	.	.	.	.	.	.	.	.	.
32DD/	8d/	.	.	.	.	.	.	.	.	.
32AA/	.	.	.	.	.	.	.	.	.	.
32DD/	.	.	.	.	.	.	.	.	.	.
32AA/	.	.	.	.	.	.	.	.	.	.
32DD/	16e/L	8A\	.	.	.	.	.	.	.	.
32AA/	.	.	.	.	.	.	.	.	.	.
32DD/	16f#/JJ	.	[	[	.	.	.	.	.	.
32AA/JJJ	.	.	.	.	.	.	.	.	.	.
=220	=220	=220	=220	=220	=220	=220	=220	=220	=220	=220
!	!	!	!	!	!	!	!LO:TX:b:t=1	!	!	!
32DD/LLL	16gLL 16c#/	8A 8G\	>	>	4.r	.	4.r	.	.	.
32AA/	.	.	.	.	.	.	.	.	.	.
32DD/	16f#/JJ	.	.	.	.	.	.	.	.	.
32AA/	.	.	.	.	.	.	.	.	.	.
32DD/	8.eL 8.c#/	4A 4G\	.	.	.	.	.	.	.	.
32AA/	.	.	.	.	.	.	.	.	.	.
32DD/	.	.	.	.	.	.	.	.	.	.
32AA/	.	.	.	.	.	.	.	.	.	.
32DD/	.	.	.	.	.	.	.	.	.	.
32AA/	.	.	.	.	.	.	.	.	.	.
32DD/	16c#/Jk)	.	]	]	.	.	.	.	.	.
32AA/JJJ	.	.	.	.	.	.	.	.	.	.
=221	=221	=221	=221	=221	=221	=221	=221	=221	=221	=221
!	!	!	!	!	!	!	!LO:TX:t=P:problem=mixed beam	!	!	!
32DD/LLL	4.d/	4.F#\	.	.	4.a\	.	(8a</L	.	<	<
32AA/	.	.	.	.	.	.	.	.	.	.
32DD/	.	.	.	.	.	.	.	.	.	.
32AA/	.	.	.	.	.	.	.	.	.	.
32DD/	.	.	.	.	.	.	8dd\	.	[	[
32AA/	.	.	.	.	.	.	.	.	.	.
32DD/	.	.	.	.	.	.	.	.	.	.
32AA/	.	.	.	.	.	.	.	.	.	.
32DD/	.	.	.	.	.	.	16ee\L	.	.	.
32AA/	.	.	.	.	.	.	.	.	.	.
32DD/	.	.	.	.	.	.	16ff#\JJ	.	.	.
32AA/JJJ	.	.	.	.	.	.	.	.	.	.
*	*v	*v	*	*	*	*	*	*	*	*
!LO:LB:g=original	!	!	!	!	!	!	!	!	!
=222	=222	=222	=222	=222	=222	=222	=222	=222	=222
32DD/LLL	4.c# 4.A 4.G\	.	.	4.a 4.g/	.	16gg\LL	.	>	>
32AA/	.	.	.	.	.	.	.	.	.
32DD/	.	.	.	.	.	16ff#\JJ	.	.	.
32AA/	.	.	.	.	.	.	.	.	.
32DD/	.	.	.	.	.	8.ee\L	.	.	.
32AA/	.	.	.	.	.	.	.	.	.
32DD/	.	.	.	.	.	.	.	.	.
32AA/	.	.	.	.	.	.	.	.	.
32DD/	.	.	.	.	.	.	.	.	.
32AA/	.	.	.	.	.	.	.	.	.
32DD/	.	.	.	.	.	16cc#\Jk)	.	]	]
32AA/JJJ	.	.	.	.	.	.	.	.	.
*Xtremolo	*	*	*	*	*	*	*	*	*
=223	=223	=223	=223	=223	=223	=223	=223	=223	=223
*	*^	*	*	*	*	*	*	*	*
!LO:MO:mod=*null:null	!	!	!	!	!	!	!	!	!	!
*Xtuplet	*	*	*	*	*	*	*	*	*	*
!LO:TX:t=P:global:problem=brak oznaczenia trioli	!	!	!	!	!	!	!	!	!	!
24D/LL	(8A/L	4A\	<	<	4.a/	.	4.dd\	.	.	.
24DD/	.	.	.	.	.	.	.	.	.	.
24D/JJ	.	.	.	.	.	.	.	.	.	.
24C#/LL	8d/	.	.	.	.	.	.	.	.	.
24DD/	.	.	.	.	.	.	.	.	.	.
24C#/JJ	.	.	.	.	.	.	.	.	.	.
24Cn/LL	16e/L	8A\	.	.	.	.	.	.	.	.
24DD/	.	.	.	.	.	.	.	.	.	.
.	16f#/JJ	.	[	[	.	.	.	.	.	.
24C/JJ	.	.	.	.	.	.	.	.	.	.
=224	=224	=224	=224	=224	=224	=224	=224	=224	=224	=224
24BB/LL	16g/LL	4G\	>	>	4.a/	.	4.aa\	.	.	.
24DD/	.	.	.	.	.	.	.	.	.	.
.	16f#/JJ	.	.	.	.	.	.	.	.	.
24BB/JJ	.	.	.	.	.	.	.	.	.	.
24BB-X/LL	8.e/L	.	.	.	.	.	.	.	.	.
24DD/	.	.	.	.	.	.	.	.	.	.
24BB-/JJ	.	.	.	.	.	.	.	.	.	.
24AA/LL	.	8G\	.	.	.	.	.	.	.	.
24DD/	.	.	.	.	.	.	.	.	.	.
.	16c#/Jk)	.	]	]	.	.	.	.	.	.
24AA/JJ	.	.	.	.	.	.	.	.	.	.
*	*v	*v	*	*	*	*	*	*	*	*
=225	=225	=225	=225	=225	=225	=225	=225	=225	=225
*tremolo	*	*	*	*	*	*	*	*	*
32DD/LLL	8dL 8A 8F#\	.	.	(8aa\L	.	(8aaa\L	.	>	>
32AA/	.	.	.	.	.	.	.	.	.
32DD/	.	.	.	.	.	.	.	.	.
32AA/	.	.	.	.	.	.	.	.	.
32DD/	8f#\	.	.	8dd\	.	8ddd\	.	.	.
32AA/	.	.	.	.	.	.	.	.	.
32DD/	.	.	.	.	.	.	.	.	.
32AA/	.	.	.	.	.	.	.	.	.
32DD/	8fnJ 8B 8G#X\	.	.	16cc#\L	.	16ccc#\L	.	.	.
32AA/	.	.	.	.	.	.	.	.	.
32DD/	.	.	.	16b\JJ	.	16bb\JJ	.	.	.
32AA/JJJ	.	.	.	.	.	.	.	.	.
=226	=226	=226	=226	=226	=226	=226	=226	=226	=226
32DD/LLL	8.eL 8.c# 8.A 8.Gn\	.	.	16a\LL	.	16aa\LL	.	.	.
32AA/	.	.	.	.	.	.	.	.	.
32DD/	.	.	.	16b\JJ	.	16bb\JJ	.	.	.
32AA/	.	.	.	.	.	.	.	.	.
32DD/	.	.	.	8.cc#\L	.	8.ccc#\L	.	.	.
32AA/	.	.	.	.	.	.	.	.	.
32DD/	16g\L	.	.	.	.	.	.	.	.
32AA/	.	.	.	.	.	.	.	.	.
32DD/	16f#\	.	.	.	.	.	.	.	.
32AA/	.	.	.	.	.	.	.	.	.
32DD/	16e\JJ	.	.	16ee\Jk)	.	16eee\Jk	.	]	]
32AA/JJJ	.	.	.	.	.	.	.	.	.
!	!	!	!	!LO:LB:g=original	!	!	!	!	!
=227	=227	=227	=227	=227	=227	=227	=227	=227	=227
32DD/LLL	4.g 4.d 4.G\	.	.	4.dd 4.b\	.	8ggg\L)	.	<	<
32BB/	.	.	.	.	.	.	.	.	.
32DD/	.	.	.	.	.	.	.	.	.
32BB/	.	.	.	.	.	.	.	.	.
32DD/	.	.	.	.	.	8gg~\	.	.	.
32BB/	.	.	.	.	.	.	.	.	.
32DD/	.	.	.	.	.	.	.	.	.
32BB/	.	.	.	.	.	.	.	.	.
32DD/	.	.	.	.	.	8gg~\J	.	[	[
32BB/	.	.	.	.	.	.	.	.	.
32DD/	.	.	.	.	.	.	.	.	.
32BB/JJJ	.	.	.	.	.	.	.	.	.
!LO:LB:g=original	!	!	!	!	!	!	!	!	!
=228	=228	=228	=228	=228	=228	=228	=228	=228	=228
32BBB-X/LLL	4d 4G\	.	.	8g~/L	.	(16ggLL 16dd\	.	.	.
32BB-X/	.	.	.	.	.	.	.	.	.
32BBB-/	.	.	.	.	.	16ff#\JJ	.	.	.
32BB-/	.	.	.	.	.	.	.	.	.
32BBB-/	.	.	.	8g~/	.	8.ee\L	.	.	.
32BB-/	.	.	.	.	.	.	.	.	.
32BBB-/	.	.	.	.	.	.	.	.	.
32BB-/	.	.	.	.	.	.	.	.	.
32BBB-/	8G\	.	.	8g~/J	.	.	.	.	.
32BB-/	.	.	.	.	.	.	.	.	.
32BBB-/	.	.	.	.	.	16dd\Jk)	.	.	.
32BB-/JJJ	.	.	.	.	.	.	.	.	.
=229	=229	=229	=229	=229	=229	=229	=229	=229	=229
32AAA/LLL	8c#L 8A 8G\	<	<	(16g/LL	.	[4cc#\	.	.	.
32AA/	.	.	.	.	.	.	.	.	.
32AAA/	.	.	.	16f#/JJ	.	.	.	.	.
32AA/	.	.	.	.	.	.	.	.	.
32AAA/	(8A 8G\	.	.	8.e/L	.	.	.	.	.
32AA/	.	.	.	.	.	.	.	.	.
32AAA/	.	.	.	.	.	.	.	.	.
32AA/	.	.	.	.	.	.	.	.	.
32AAA/	8AJ 8G\	.	.	.	.	16cc#\LL]	.	.	.
32AA/	.	.	.	.	.	.	.	.	.
32AAA/	.	.	.	16d/Jk)	.	16b\JJ	.	.	.
32AA/JJJ	.	.	.	.	.	.	.	.	.
=230	=230	=230	=230	=230	=230	=230	=230	=230	=230
32GGG/LLL	16ALL 16G\	.	.	[4c#/	.	[8a\L	.	<	<
32GG/	.	.	.	.	.	.	.	.	.
32GGG/	16F#\J	.	.	.	.	.	.	.	.
32GG/	.	.	.	.	.	.	.	.	.
32GGG/	8.E\	.	.	.	.	16a\L]	.	.	.
32GG/	.	.	.	.	.	.	.	.	.
32GGG/	.	.	.	.	.	16b\	.	.	.
32GG/	.	.	.	.	.	.	.	.	.
32GGG/	.	.	.	16c#/LL]	.	16cc#\	.	.	.
32GG/	.	.	.	.	.	.	.	.	.
32GGG/	16BJk 16D\)	[	[	16d'/JJ	.	16dd\JJ	.	[	[
32GG/JJJ	.	.	.	.	.	.	.	.	.
=231	=231	=231	=231	=231	=231	=231	=231	=231	=231
32FFF#/LLL	(8A#XL 8E 8C#\	.	.	8e'/	.	8ee'\	.	.	.
32FF#/	.	.	.	.	.	.	.	.	.
32FFF#/	.	.	.	.	.	.	.	.	.
32FF#/	.	.	.	.	.	.	.	.	.
32FFF#/	8c# 8A# 8E\	.	.	4g/	.	4gg\	.	.	.
32FF#/	.	.	.	.	.	.	.	.	.
32FFF#/	.	.	.	.	.	.	.	.	.
32FF#/	.	.	.	.	.	.	.	.	.
32FFF#/	16B\L	.	.	.	.	.	.	.	.
32FF#/	.	.	.	.	.	.	.	.	.
32FFF#/	16A#\JJ)	.	.	.	.	.	.	.	.
32FF#/JJJ	.	.	.	.	.	.	.	.	.
=232	=232	=232	=232	=232	=232	=232	=232	=232	=232
32BBB/LLL	(8d#XL 8A\	.	.	8g/L	.	8gg\L	.	.	.
32BB/	.	.	.	.	.	.	.	.	.
32BBB/	.	.	.	.	.	.	.	.	.
32BB/	.	.	.	.	.	.	.	.	.
32BBB/	16d#\L	.	.	8g/	.	8gg\	.	.	.
32BB/	.	.	.	.	.	.	.	.	.
32BBB/	16cn\	.	.	.	.	.	.	.	.
32BB/	.	.	.	.	.	.	.	.	.
32BBB/	16d# 16B\	.	.	8f#/J	.	8ff#\J	.	.	.
32BB/	.	.	.	.	.	.	.	.	.
32BBB/	16A\JJ)	.	.	.	.	.	.	.	.
32BB/JJJ	.	.	.	.	.	.	.	.	.
=233	=233	=233	=233	=233	=233	=233	=233	=233	=233
32BBB/LLL	(16eLL 16G#X\	>	>	8g#X/	.	16ee\LL	.	.	.
32BB/	.	.	.	.	.	.	.	.	.
32BBB/	16c#\JJ	.	.	.	.	16cc#X\JJ	.	.	.
32BB/	.	.	.	.	.	.	.	.	.
32BBB/	4e 4d 4G#\)	]	]	4g#/	.	8.dd\L	.	.	.
32BB/	.	.	.	.	.	.	.	.	.
32BBB/	.	.	.	.	.	.	.	.	.
32BB/	.	.	.	.	.	.	.	.	.
32BBB/	.	.	.	.	.	.	.	.	.
32BB/	.	.	.	.	.	.	.	.	.
32BBB/	.	.	.	.	.	16ee\Jk	.	.	.
32BB/JJJ	.	.	.	.	.	.	.	.	.
=234	=234	=234	=234	=234	=234	=234	=234	=234	=234
32BBB-X/LLL	(16eLL 16G#X\	.	.	16eeLL 16g#X\	.	16eeeLL 16gg#X\	.	<	<
32BB-X/	.	.	.	.	.	.	.	.	.
32BBB-/	16c#\JJ	.	.	16cc#\	.	16ccc#\	.	.	.
32BB-/	.	.	.	.	.	.	.	.	.
32BBB-/	8eL 8d 8G#\)	.	.	16dd 16g#\	.	16ddd 16gg#\	.	.	.
32BB-/	.	.	.	.	.	.	.	.	.
32BBB-/	.	.	.	16ee\J	.	16eee\	.	.	.
32BB-/	.	.	.	.	.	.	.	.	.
32BBB-/	8eJ 8d 8Gn\	.	.	8ddJ 8gn\	.	16fff# 16ff#\	.	.	.
32BB-/	.	.	.	.	.	.	.	.	.
32BBB-/	.	.	.	.	.	16gggnJJ 16ggn\	.	[	[
32BB-/JJJ	.	.	.	.	.	.	.	.	.
*Xtremolo	*	*	*	*	*	*	*	*	*
!LO:PB:g=original	!	!	!	!LO:PB:g=original	!	!	!	!	!
=235	=235	=235	=235	=235	=235	=235	=235	=235	=235
!	!LO:MO:mod=!LO&colon;TX&colon;b&colon;i&colon;t=più animato e cresc.	!	!	!	!	!LO:MO:mod=!LO&colon;TX&colon;b&colon;i&colon;t=più animato e cresc.	!	!	!
!LO:TX:t=P:problem=triola oznaczona 3	!LO:TX:b:i:t=piu animato e cresc.	!	!	!	!	!LO:TX:b:t=piu animato e cresc.	!	!	!
24r	(8f#L 8d 8A\	<	<	(8ff#L 8a\	.	(8aaaL 8aa\	.	<	<
*tuplet	*	*	*	*	*	*	*	*	*
!LO:TUP:a	!	!	!	!	!	!	!	!	!
(24AAA/LL	.	.	.	.	.	.	.	.	.
24AA/JJ	.	.	.	.	.	.	.	.	.
!LO:TUP:b	!	!	!	!	!	!	!	!	!
24AA/LL	8f#\	.	.	8dd\J	.	8ddd\J	.	.	.
24A/	.	.	.	.	.	.	.	.	.
24AA/JJ	.	.	.	.	.	.	.	.	.
24AA/LL	8fnJ 8B 8G#X\	.	.	16cc#\LL	.	16ccc#\LL	.	.	.
24AAA/	.	.	.	.	.	.	.	.	.
.	.	.	.	16b\JJ	.	16bb\JJ	.	.	.
24AA/JJ)	.	.	.	.	.	.	.	.	.
=236	=236	=236	=236	=236	=236	=236	=236	=236	=236
!LO:TX:t=P:global:problem=brak oznaczenia trioli	!	!	!	!	!	!	!	!	!
24r	8.eL 8.c# 8.A 8.Gn\	.	.	16a\LL	.	16aa\LL	.	.	.
!LO:MO:mod=*null:null	!	!	!	!	!	!	!	!	!
*Xtuplet	*	*	*	*	*	*	*	*	*
(24AAA/LL	.	[	[	.	.	.	.	[	[
.	.	.	.	16b\JJ	.	16bb\JJ	.	.	.
24AA/JJ	.	.	.	.	.	.	.	.	.
24AA/LL	.	.	.	8.cc#\L	.	8.ccc#\L	.	.	.
24A/	.	.	.	.	.	.	.	.	.
.	16g\L	.	.	.	.	.	.	.	.
24AA/JJ	.	.	.	.	.	.	.	.	.
24AA/LL	16f#\	.	.	.	.	.	.	.	.
24AAA/	.	.	.	.	.	.	.	.	.
.	16e\JJ)	.	.	16ee\Jk)	.	16eee\Jk)	.	.	.
24AA/JJ)	.	.	.	.	.	.	.	.	.
=237	=237	=237	=237	=237	=237	=237	=237	=237	=237
24r	(8f#L 8d 8A\	.	.	(8ff#L 8a\	.	(8aaaL 8aa\	.	.	.
(24AAA/LL	.	.	.	.	.	.	.	.	.
24AA/JJ	.	.	.	.	.	.	.	.	.
24AA/LL	8f#\	.	.	8dd\J	.	8ddd\J	.	.	.
24A/	.	.	.	.	.	.	.	.	.
24AA/JJ	.	.	.	.	.	.	.	.	.
24AA/LL	8fnJ 8B 8G#X\	.	.	16cc#\LL	.	16ccc#\LL	.	.	.
24AAA/	.	.	.	.	.	.	.	.	.
.	.	.	.	16b\JJ	.	16bb\JJ	.	.	.
24AA/JJ)	.	.	.	.	.	.	.	.	.
=238	=238	=238	=238	=238	=238	=238	=238	=238	=238
24r	8.eL 8.c# 8.A 8.Gn\	.	.	16a\LL	.	16aa\LL	.	.	.
(24AAA/LL	.	.	.	.	.	.	.	.	.
.	.	.	.	16b\JJ	.	16bb\JJ	.	.	.
24AA/JJ	.	.	.	.	.	.	.	.	.
24AA/LL	.	.	.	8.cc#\L	.	8.ccc#\L	.	.	.
24A/	.	.	.	.	.	.	.	.	.
.	16g\L	.	.	.	.	.	.	.	.
24AA/JJ	.	.	.	.	.	.	.	.	.
24AA/LL	16f#\	.	.	.	.	.	.	.	.
24AAA/	.	.	.	.	.	.	.	.	.
.	16e\JJ)	.	.	16ee\Jk)	.	16eee\Jk)	.	.	.
24AA/JJ)	.	.	.	.	.	.	.	.	.
=239	=239	=239	=239	=239	=239	=239	=239	=239	=239
24r	(8e-XL 8cn 8Fn\	f	f	8ee-XL 8a\	.	(8aaaL 8aa\	.	f	f
(24AAA/LL	.	.	.	.	.	.	.	.	.
24AA/JJ	.	.	.	.	.	.	.	.	.
24AA/LL	8gn\J	.	.	8ee-\J	.	8eee-X\J	.	.	.
24A/	.	.	.	.	.	.	.	.	.
24AA/JJ	.	.	.	.	.	.	.	.	.
24AA/LL	16fn\LL	.	.	16dd\LL	.	16ddd\LL	.	.	.
24AAA/	.	.	.	.	.	.	.	.	.
.	16e-\JJ)	.	.	16ccn\JJ	.	16cccn\JJ	.	.	.
24AA/JJ)	.	.	.	.	.	.	.	.	.
!LO:LB:g=original	!	!	!	!	!	!	!	!	!
=240	=240	=240	=240	=240	=240	=240	=240	=240	=240
24r	16dLL 16B-X 16Fn\	.	<	16b-X\LL	.	16bb-X\LL	.	<	<
(24AAA/LL	.	.	.	.	.	.	.	.	.
.	16cn\	.	.	16ccn\JJ	.	16cccn\J	.	.	.
24AA/JJ	.	.	.	.	.	.	.	.	.
24AA/LL	16d 16B-\	.	.	8.dd\L	.	8.ddd\	.	.	.
24A/	.	.	.	.	.	.	.	.	.
.	16c\	.	.	.	.	.	.	.	.
24AA/JJ	.	.	.	.	.	.	.	.	.
24AA/LL	16d 16B-\	.	.	.	.	.	.	.	.
24AAA/	.	.	.	.	.	.	.	.	.
.	16A\JJ	.	.	16ffn\Jk	.	16fffn\Jk)	.	.	.
24AA/JJ)	.	.	.	.	.	.	.	.	.
=241	=241	=241	=241	=241	=241	=241	=241	=241	=241
24r	8enL 8d 8G#X\	.	.	16ee\LL	.	(16eee\LL	.	.	.
(24AAA/LL	.	.	.	.	.	.	.	.	.
.	.	.	.	16ff#X\	.	16fff#X\J	.	.	.
24AA/JJ	.	.	.	.	.	.	.	.	.
24AA/LL	16g#XL 16Bn\	.	.	16ee\	.	8.ggg#X 8.gg#X\	.	.	.
24A/	.	.	.	.	.	.	.	.	.
.	16f#X\	.	.	16dd\	.	.	.	.	.
24AA/JJ	.	.	.	.	.	.	.	.	.
24AA/LL	16e 16G#\	.	.	16cc#\	.	.	.	.	.
24AAA/	.	.	.	.	.	.	.	.	.
.	16d\JJ	.	[	16b\JJ	.	16bbbJk 16bb\	.	[	[
24AA/JJ)	.	.	.	.	.	.	.	.	.
!	!	!	!	!LO:LB:g=original	!	!	!	!	!
=242	=242	=242	=242	=242	=242	=242	=242	=242	=242
*tremolo	*	*	*	*	*	*	*	*	*
!	!	!	!	!	!	!LO:MO:mod=!LO&colon;TX&colon;b&colon;i&colon;t=rit.	!	!	!
!	!LO:TX:b:i:t=rit.	!	!	!	!	!LO:TX:b:t=riten	!	!	!
32AAA;</LLL	8c#L 8E\	.	.	16a\LL	.	16aaaLL 16aa\	.	.	.
32AA;>/	.	.	.	.	.	.	.	.	.
32AAA/	.	.	.	16gg#X\	.	16ggg#X\	.	.	.
32AA/	.	.	.	.	.	.	.	.	.
32AAA/	8d 8B\	.	.	16ggn\	.	16gggn\	.	.	.
32AA/	.	.	.	.	.	.	.	.	.
32AAA/	.	.	.	16ee\	.	16eee\	.	.	.
32AA/	.	.	.	.	.	.	.	.	.
32AAA/	8c#J 8A 8Gn;\	.	.	16ff#\	.	16fff#\	.	.	.
32AA/	.	.	.	.	.	.	.	.	.
32AAA/	.	.	.	16cc#;\JJ	.	16ccc#;\JJ)	.	.	.
32AA;/JJJ	.	.	.	.	.	.	.	.	.
=243||	=243||	=243||	=243||	=243||	=243||	=243||	=243||	=243||	=243||
!	!LO:MO:mod=!LO&colon;TX&colon;a&colon;B&colon;t=Allegro	!	!	!	!	!LO:MO:mod=!LO&colon;TX&colon;a&colon;B&colon;t=Allegro	!	!	!
!	!LO:TX:a:t=Allegro.	!	!	!	!	!LO:TX:a:t=Allegro.	!	!	!
!	!LO:TUP:a	!	!	!	!	!	!	!	!
8D 8DD'/	24A\LL	p	p	(16ddLL 16a\	.	(16dddLL 16aa\	.	p	p
.	24B\	.	.	.	.	.	.	.	.
.	.	.	.	16ee\JJ	.	16eee\JJ	.	.	.
.	24A\JJ	.	.	.	.	.	.	.	.
!	!LO:TUP:a	!	!	!	!	!	!	!	!
8r	24d\LL	.	.	8ff#'\L)	.	8fff#'\L)	.	.	.
.	24e\	.	.	.	.	.	.	.	.
.	24d\JJ	.	.	.	.	.	.	.	.
!	!LO:TUP:a	!	!	!	!	!	!	!	!
8GG 8GGG'/	24B\LL	.	.	8ff#J 8dd 8b'\	.	8fff#J 8ddd 8bb'\	.	.	.
.	24d\	.	.	.	.	.	.	.	.
.	24B\JJ	.	.	.	.	.	.	.	.
=244	=244	=244	=244	=244	=244	=244	=244	=244	=244
!	!LO:TUP:a	!	!	!	!	!	!	!	!
8DD 8DDD'/	24A\LL	.	.	(16ggLL 16dd 16a\	.	(16gggLL 16ddd 16aa\	.	.	.
.	24B\	.	.	.	.	.	.	.	.
.	.	.	.	16ff#\JJ	.	16fff#\JJ	.	.	.
.	24A\JJ	.	.	.	.	.	.	.	.
!	!LO:TUP:a	!	!	!	!	!	!	!	!
8r	24d\LL	.	.	8ee'\L)	.	8eee'\L)	.	.	.
.	24e\	.	.	.	.	.	.	.	.
.	24d\JJ	.	.	.	.	.	.	.	.
!	!LO:TUP:a	!	!	!	!	!	!	!	!
8GG 8GGG'/	24B\LL	.	.	8ddJ 8b'\	.	8dddJ 8bb'\	.	.	.
.	24d\	.	.	.	.	.	.	.	.
.	24B\JJ	.	.	.	.	.	.	.	.
!LO:LB:g=original	!	!	!	!	!	!	!	!	!
=245	=245	=245	=245	=245	=245	=245	=245	=245	=245
!	!LO:TUP:a	!	!	!	!	!	!	!	!
8DL 8DD'/	24A\LL	.	.	(16ddLL 16a\	.	(16dddLL 16aa\	.	.	.
.	24B\	.	.	.	.	.	.	.	.
.	.	.	.	16ee\JJ	.	16eee\JJ	.	.	.
.	24A\JJ	.	.	.	.	.	.	.	.
!	!LO:TUP:a	!	!	!	!	!	!	!	!
8r	24d\LL	.	.	8ff#'\L)	.	8fff#'\L)	.	.	.
.	24e\	.	.	.	.	.	.	.	.
.	24d\JJ	.	.	.	.	.	.	.	.
!	!LO:TUP:a	!	!	!	!	!	!	!	!
8GGJ 8GGG'/	24B\LL	.	.	8ff#J 8dd 8b'\	.	8fff#J 8ddd 8bb'\	.	.	.
.	24d\	.	.	.	.	.	.	.	.
.	24B\JJ	.	.	.	.	.	.	.	.
=246	=246	=246	=246	=246	=246	=246	=246	=246	=246
!	!LO:MO:mod=*null:null	!	!	!	!	!	!	!	!
*	*Xtuplet	*	*	*	*	*	*	*	*
8DDL 8DDD'/	24A\LL	.	.	(16ggLL 16dd 16a\	.	(16gggLL 16ddd 16aa\	.	.	.
.	24B\	.	.	.	.	.	.	.	.
.	.	.	.	16ff#\JJ	.	16fff#\JJ	.	.	.
.	24A\JJ	.	.	.	.	.	.	.	.
8r	24d\LL	.	.	8ee'\L)	.	8eee'\L)	.	.	.
.	24e\	.	.	.	.	.	.	.	.
.	24d\JJ	.	.	.	.	.	.	.	.
8GGJ 8GGG'/	24B\LL	.	.	8ddJ 8b'\	.	8dddJ 8bb'\	.	.	.
.	24d\	.	.	.	.	.	.	.	.
.	24B\JJ	.	.	.	.	.	.	.	.
=247	=247	=247	=247	=247	=247	=247	=247	=247	=247
*	*	*	*	*	*	*8va	*	*	*
!	!	!	!	!	!	!LO:TUP:a	!	!	!
(4D 4FF#/	(4a 4d 4A\	.	.	[4.ddTT\	.	(24ddd\LL	.	.	.
.	.	.	.	.	.	24eee\	.	.	.
.	.	.	.	.	.	24ddd\JJ	.	.	.
.	.	.	.	.	.	32eee\LLL	.	.	.
.	.	.	.	.	.	32ddd\	.	.	.
.	.	.	.	.	.	32eee\	.	.	.
.	.	.	.	.	.	32ddd\JJ	.	.	.
8D 8GG'/)	8d 8B'\)	.	.	.	.	8dddd'\J)	.	.	.
!	!	!	!	!LO:LB:g=original	!	!	!	!	!
=248	=248	=248	=248	=248	=248	=248	=248	=248	=248
!	!	!	!	!	!	!LO:TUP:a	!	!	!
(4D 4FF#/	(4a 4d 4A\	.	.	4.ddTT\_	.	(24ddd\LL	.	.	.
.	.	.	.	.	.	24eee\	.	.	.
.	.	.	.	.	.	24ddd\JJ	.	.	.
.	.	.	.	.	.	32eee\LLL	.	.	.
.	.	.	.	.	.	32ddd\	.	.	.
.	.	.	.	.	.	32eee\	.	.	.
.	.	.	.	.	.	32ddd\JJ	.	.	.
8D 8EE'/)	8d 8G#X'\)	.	.	.	.	8dddd'\J)	.	.	.
=249	=249	=249	=249	=249	=249	=249	=249	=249	=249
!	!	!	!	!	!	!LO:TUP:a	!	!	!
(4D 4FF#/	(4a 4d 4A\	.	>	4.ddTT\_	.	(24ddd\LL	.	.	>
.	.	.	.	.	.	24eee\	.	.	.
.	.	.	.	.	.	24ddd\JJ	.	>	.
.	.	.	.	.	.	32eee\LLL	.	.	.
.	.	.	.	.	.	32ddd\	.	.	.
.	.	.	.	.	.	32eee\	.	.	.
.	.	.	.	.	.	32ddd\JJ	.	.	.
8D 8GG'/)	8d 8B'\)	.	.	.	.	8dddd'\J)	.	.	.
=250	=250	=250	=250	=250	=250	=250	=250	=250	=250
!	!	!	!	!	!	!LO:TUP:a	!	!	!
(4D 4FF#/	(4a 4d 4A\	.	.	4.dd\TT]	.	(24ddd\LL	.	.	.
.	.	.	.	.	.	24eee\	.	.	.
.	.	.	.	.	.	24ddd\JJ	.	.	.
.	.	.	.	.	.	32eee\LLL	.	.	.
.	.	.	.	.	.	32ddd\	.	.	.
.	.	.	.	.	.	32eee\	.	.	.
.	.	.	.	.	.	32ddd\JJ	.	.	.
8D 8EE'/)	8d 8G#X'\)	.	.	.	.	8dddd'\J)	.	.	.
*	*clefG2	*	*	*	*	*	*	*	*
!LO:LB:g=original	!	!	!	!	!	!	!	!	!
=251||	=251||	=251||	=251||	=251||	=251||	=251||	=251||	=251||	=251||
!	!LO:MO:mod=!LO&colon;TX&colon;a&colon;B&colon;t=Presto	!	!	!	!	!LO:MO:mod=!LO&colon;TX&colon;a&colon;B&colon;t=Presto	!	!	!
!	!LO:TX:a:t=Presto.	!	!	!	!	!LO:TX:a:t=Presto.	!	!	!
8D 8DD'/	8aL 8f# 8d 8A'/	.	pp	8aa 8ff# 8dd'\	.	(16aaa\LL	3	pp	pp
.	.	.	.	.	.	16bbb\	4	.	.
8r	16r	.	.	8r	.	16aaa\	3	.	.
.	(16b/K	.	.	.	.	16fff#\	2	.	.
8r	8a'/J)	.	.	8r	.	16ddd\	1	.	.
.	.	.	.	.	.	16eee\JJ	4	.	.
*	*	*	*	*	*	*X8va	*	*	*
=252	=252	=252	=252	=252	=252	=252	=252	=252	=252
8GG 8GGG'/	8gL 8d 8B'/	.	.	8bb 8gg 8dd'\	.	16ddd\LL	3	.	.
.	.	.	.	.	.	16eee\	4	.	.
8r	8f#'/	.	.	8r	.	16ddd\	3	.	.
.	.	.	.	.	.	16bb\	2	.	.
8r	8e'/J	.	.	8r	.	16gg\	1	.	.
.	.	.	.	.	.	16ccc#\JJ	4	.	.
*	*clefF4	*	*	*	*	*	*	*	*
=253	=253	=253	=253	=253	=253	=253	=253	=253	=253
8D 8DD'/	8dL 8F#'\	.	.	8ff# 8dd 8a'\	.	16aa\LL	3	.	.
.	.	.	.	.	.	16bb\	4	.	.
8r	8c#'\	.	.	8r	.	16aa\	3	.	.
.	.	.	.	.	.	16ff#\	2	.	.
8r	8B'\J	.	.	8r	.	16dd\	1	.	.
.	.	.	.	.	.	16ee\JJ	2	.	.
!	!	!	!	!LO:LB:g=original	!	!	!	!	!
=254	=254	=254	=254	=254	=254	=254	=254	=254	=254
8GG 8GGG'/	4.B-X 4.G\	.	.	8b-X 8g/	.	16dd\LL	1	.	.
.	.	.	.	.	.	16ee\	2	.	.
8r	.	.	.	16r	.	16dd\JJ)	1	.	.
.	.	.	.	16b-X\LL	3	16r	.	.	.
8r	.	.	.	16g\	5	8r	.	.	.
.	.	.	.	16cc#\JJ	2	.	.	.	.
*	*clefG2	*	*	*	*	*	*	*	*
=255	=255	=255	=255	=255	=255	=255	=255	=255	=255
*	*	*	*	*	*	*8va	*	*	*
8DD 8DDD'/	8aL 8f# 8d 8A/	.	.	8aa 8ff# 8dd'\	.	(16aaa\LL	.	.	.
.	.	.	.	.	.	16bbb\	.	.	.
8r	16r	.	.	8r	.	16aaa\	.	.	.
.	(16b/K	.	.	.	.	16fff#\	.	.	.
8r	8a'/J)	.	.	8r	.	16ddd\	.	.	.
.	.	.	.	.	.	16eee\JJ	.	.	.
*	*	*	*	*	*	*X8va	*	*	*
=256	=256	=256	=256	=256	=256	=256	=256	=256	=256
8GG 8GGG'/	8gL 8B'/	.	.	8bb 8gg 8dd'\	.	16ddd\LL	.	.	.
.	.	.	.	.	.	16eee\	.	.	.
8r	8f#'/	.	.	8r	.	16ddd\	.	.	.
.	.	.	.	.	.	16bb\	.	.	.
8r	8e'/J	.	.	8r	.	16gg\	.	.	.
.	.	.	.	.	.	16ccc#\JJ	.	.	.
*	*clefF4	*	*	*	*	*	*	*	*
=257	=257	=257	=257	=257	=257	=257	=257	=257	=257
8D 8DD'/	8dL 8F#'\	.	.	8ff# 8dd 8a'\	.	16aa\LL	.	.	.
.	.	.	.	.	.	16bb\	.	.	.
8r	8c#'\	.	.	8r	.	16aa\	.	.	.
.	.	.	.	.	.	16ff#\	.	.	.
8r	8B'\J	.	.	8r	.	16dd\	.	.	.
.	.	.	.	.	.	16ee\JJ	.	.	.
=258	=258	=258	=258	=258	=258	=258	=258	=258	=258
8GG 8GGG'/	4.B-X 4.G\	.	.	8b-X 8g/	.	16dd\LL	.	.	.
.	.	.	.	.	.	16ee\	.	.	.
8r	.	.	.	8r	.	16dd\	.	.	.
.	.	.	.	.	.	16b-X\	.	.	.
8r	.	.	.	8r	.	16g\	.	.	.
.	.	.	.	.	.	16cc#\JJ	.	.	.
!LO:LB:g=original	!	!	!	!	!	!	!	!	!
=259	=259	=259	=259	=259	=259	=259	=259	=259	=259
8DD 8DDD'/	8A 8F# 8D'\	.	.	8a 8f#/	.	8dd'\)	.	.	.
8r	8r	.	.	8r	.	16dd\LL	.	.	.
.	.	.	.	.	.	16ee\	.	.	.
8r	8r	.	.	8r	.	16ff#\	.	.	.
.	.	.	.	.	.	16aa\JJ	.	.	.
=260	=260	=260	=260	=260	=260	=260	=260	=260	=260
[4.DD [4.DDD^/	4.Bn 4.G#X 4.E 4.D^\	.	.	(16g#X/LL	.	16gg#X\LL	.	<	<
.	.	.	.	16e/	.	16ee\	.	.	.
.	.	.	.	16f#/	.	16ff#\	.	.	.
.	.	.	.	16g#/	.	16gg#\	.	.	.
.	.	.	.	16a/	.	16aa\	.	.	.
.	.	.	.	16b/JJ	.	16bb\JJ	.	.	.
!	!	!	!	!LO:LB:g=original	!	!	!	!	!
=261	=261	=261	=261	=261	=261	=261	=261	=261	=261
*	*	*	*	*	*	*8va	*	*	*
4.DD_ 4.DDD/_	8r	.	.	16cc#\LL	.	16ccc#\LL	.	.	.
.	.	.	.	16dd\	.	16ddd\	.	.	.
.	8BL 8G#X'\	.	.	16ee\	.	16eee\	.	.	.
.	.	.	.	16ff#\	.	16fff#\	.	.	.
.	8AJ 8F#'\	.	.	16gg#X\	.	16ggg#X\	.	.	.
.	.	.	.	16aa\JJ	.	16aaa\JJ	.	.	.
=262	=262	=262	=262	=262	=262	=262	=262	=262	=262
4.DD] 4.DDD/]	8G#X 8E'\	.	.	16bb\LL	.	16bbb\LL	.	.	.
.	.	.	.	16ccc#\	.	16cccc#\	.	.	.
*	*clefG2	*	*	*	*	*	*	*	*
.	8g#XL 8e'/	.	.	16ddd\	.	16dddd\	.	.	.
.	.	.	.	16ccc#\JJ	.	16cccc#\JJ	.	.	.
.	8g#J 8e'/	.	.	8ddd'\)	.	8dddd'\	.	[	[
*	*	*	*	*	*	*X8va	*	*	*
=263	=263	=263	=263	=263	=263	=263	=263	=263	=263
8DD 8DDD/	8a 8f# 8d/	.	.	4.r	.	8r	.	.	.
8r	8r	.	.	.	.	(16dd\LL	.	.	.
.	.	.	.	.	.	16ee\	.	.	.
8r	8r	.	.	.	.	16ff#\	.	.	.
.	.	.	.	.	.	16aa\JJ	.	.	.
*	*clefF4	*	*	*	*	*	*	*	*
=264	=264	=264	=264	=264	=264	=264	=264	=264	=264
[4.DD [4.DDD^/	4.Bn 4.G#X 4.E 4.D^\	.	.	16g#X/LL	.	16gg#X\LL	.	<	<
.	.	.	.	16e/	.	16ee\	.	.	.
.	.	.	.	16f#/	.	16ff#\	.	.	.
.	.	.	.	16g#/	.	16gg#\	.	.	.
.	.	.	.	16a/	.	16aa\	.	.	.
.	.	.	.	16b/JJ	.	16bb\JJ	.	.	.
=265	=265	=265	=265	=265	=265	=265	=265	=265	=265
*	*	*	*	*	*	*8va	*	*	*
4.DD_ 4.DDD/_	8r	.	.	16cc#\LL	.	16ccc#\LL	.	.	.
.	.	.	.	16dd\	.	16ddd\	.	.	.
.	8BL 8G#X'\	.	.	16ee\	.	16eee\	.	.	.
.	.	.	.	16ff#\	.	16fff#\	.	.	.
.	8AJ 8F#'\	.	.	16gg#X\	.	16ggg#X\	.	.	.
.	.	.	.	16aa\JJ	.	16aaa\JJ	.	.	.
=266	=266	=266	=266	=266	=266	=266	=266	=266	=266
4.DD] 4.DDD/]	8G#X 8E'\	.	.	16bb\LL	.	16bbb\LL	.	.	.
.	.	.	.	16ccc#\	.	16cccc#\	.	.	.
*	*clefG2	*	*	*	*	*	*	*	*
.	8g#XL 8e'/	.	.	16ddd\	.	16dddd\	.	.	.
.	.	.	.	16ccc#\JJ	.	16cccc#\JJ	.	.	.
.	8g#J 8e'/	.	.	8ddd'\	.	8dddd'\)	.	[	[
!LO:LB:g=original	!	!	!	!	!	!	!	!	!
=267	=267	=267	=267	=267	=267	=267	=267	=267	=267
8DD 8DDD'/	8aL 8f# 8d'/	.	.	8dd\L	.	8dddd 8ddd'\	.	.	.
8r	8c#'/	.	.	8bb 8gg'\	.	(16bbb\LL	.	.	.
.	.	.	.	.	.	16ggg\	.	.	.
8r	8d'/J	.	.	8aaJ 8ff#'\	.	16aaa\	.	.	.
.	.	.	.	.	.	16fff#\JJ)	.	.	.
!	!	!	!	!LO:LB:g=original	!	!	!	!	!
=268	=268	=268	=268	=268	=268	=268	=268	=268	=268
8DD 8DDD'/	8aL 8g 8e 8d'/	.	.	8dd'\L	.	8ddddL 8ddd'\	.	.	.
8r	8c#'/	.	.	8gg 8ee'\	.	(16eee\L	.	.	.
.	.	.	.	.	.	16ggg\	.	.	.
8r	8d'/J	.	.	8aaJ 8ff#'\	.	16fff#\	.	.	.
.	.	.	.	.	.	16aaa\JJ	.	.	.
=269	=269	=269	=269	=269	=269	=269	=269	=269	=269
8DD 8DDD'/	8aL 8f# 8d'/	.	.	8dd'\L	.	8dddd 8ddd'\)	.	.	.
8r	8c#'/	.	.	8bb 8gg'\	.	(16bbb\LL	.	.	.
.	.	.	.	.	.	16ggg\	.	.	.
8r	8d'/J	.	.	8aaJ 8ff#'\	.	16aaa\	.	.	.
.	.	.	.	.	.	16fff#\JJ	.	.	.
=270	=270	=270	=270	=270	=270	=270	=270	=270	=270
8DD 8DDD'/	8aL 8g 8e 8d'/	.	.	8dd'\L	.	8ddddL 8ddd'\)	.	.	.
8r	8c#'/	.	.	8gg 8ee'\	.	(16eee\L	.	.	.
.	.	.	.	.	.	16ggg\	.	.	.
8r	8d'/J	.	.	8aaJ 8ff#'\	.	16fff#\	.	.	.
.	.	.	.	.	.	16aaa\JJ	.	.	.
=271	=271	=271	=271	=271	=271	=271	=271	=271	=271
*ped	*	*	*	*ped	*	*	*	*	*
8DD 8DDD'/	8a 8f# 8d'/	.	.	8dd'\	.	8dddd 8ddd'\)	.	.	.
!LO:MO:mod=*Xped:null	!	!	!	!LO:MO:mod=*Xped:null	!	!	!	!	!
*null	*	*	*	*null	*	*	*	*	*
8r	8r	.	.	8r	.	8r	.	.	.
8r	8r	.	.	8r	.	8r	.	.	.
=272	=272	=272	=272	=272	=272	=272	=272	=272	=272
!	!LO:MO:mod=!null:null	!	!	!	!	!LO:MO:mod=!null:null	!	!	!
!	!LO:TX:b:i:t=1	!	!	!	!	!LO:TX:b:t=1	!	!	!
4.r	4.r	.	.	4.r	.	4.r	.	.	.
!LO:MO:mod=*null:null	!	!	!	!LO:MO:mod=*null:null	!	!	!	!	!
*Xped	*	*	*	*Xped	*	*	*	*	*
=273	=273	=273	=273	=273	=273	=273	=273	=273	=273
*ped	*	*	*	*ped	*	*	*	*	*
8DD 8DDD'/	8a 8g 8c# 8A'/	.	.	8aa 8gg 8cc#\	.	8aaa 8ggg 8ccc#\	.	.	.
!LO:MO:mod=*Xped:null	!	!	!	!LO:MO:mod=*Xped:null	!	!	!	!	!
*null	*	*	*	*null	*	*	*	*	*
8r	8r	.	.	8r	.	8r	.	.	.
8r	8r	.	.	8r	.	8r	.	.	.
=274	=274	=274	=274	=274	=274	=274	=274	=274	=274
!	!LO:MO:mod=!null:null	!	!	!	!	!LO:MO:mod=!null:null	!	!	!
!	!LO:TX:b:i:t=1	!	!	!	!	!LO:TX:b:t=1	!	!	!
4.r	4.r	.	.	4.r	.	4.r	.	.	.
!LO:MO:mod=*null:null	!	!	!	!LO:MO:mod=*null:null	!	!	!	!	!
*Xped	*	*	*	*Xped	*	*	*	*	*
=275	=275	=275	=275	=275	=275	=275	=275	=275	=275
*ped	*	*	*	*ped	*	*	*	*	*
8DD 8DDD'/	8a 8f# 8d 8A'/	.	.	8aa 8ff# 8dd\	.	8aaa 8fff# 8ddd\	.	.	.
!LO:MO:mod=*Xped:null	!	!	!	!LO:MO:mod=*Xped:null	!	!	!	!	!
*null	*	*	*	*null	*	*	*	*	*
8r	8r	.	.	8r	.	8r	.	.	.
*	*	*	*	*	*	*X8va	*	*	*
!LO:MO:mod=!null:null	!	!	!	!LO:MO:mod=!null:null	!	!	!	!	!
!LO:TX:b:t=Fine.	!	!	!	!LO:TX:b:t=Fine.	!	!	!	!	!
8r;	8r;	.	.	8r;	.	8r;	.	.	.
!LO:MO:mod=*null:null	!	!	!	!LO:MO:mod=*null:null	!	!	!	!	!
*Xped	*	*	*	*Xped	*	*	*	*	*
==	==	==	==	==	==	==	==	==	==
*-	*-	*-	*-	*-	*-	*-	*-	*-	*-
!!!system-decoration: [(s1,s2)],[(s3,s4)]
!!!system-decoration-mod: {(s1,s2)},{(s3,s4)}
!!LO:MO:ori
!!!RDF**dynam: > = dim.
!!LO:MO:end
!!!RDF**kern: > = above
!!!RDF**kern: < = below
!!!RDF**kern: N = linked
!!!filter-modern: sic -sq | shed -e "s/LO:DY:(a|b|rj)/LO:dy:$1/L" | shed -e "s/TX(.*):t=P:/tx$1:t=P:/LG" | modori -m | autostem -r | shed -e "s/yy//" | shed -k -e "s/\(y([^y])/($1/" | shed -e "s/-//B" | shed -k -e "s/[<>]//g" | shed -k -e "s/:TUP:/:tup:/L" | shed -k -e "s/r[a-gA-G]+/r/D"
!!!ENC: Anastazja Marusiak
!!!END: 2022-01-31
!!!EED: Leszek Kubiak
!!!EEV: 2022-02-09
!!!EED-modern: Antoni Szymański
!!!END-modern: 2022-09-28
